; generated by Slic3r 1.33.8-prusa3d-win64 on 2017-05-16 at 13:53:36

; external perimeters extrusion width = 0.40mm
; perimeters extrusion width = 0.55mm
; infill extrusion width = 0.67mm
; solid infill extrusion width = 0.67mm
; top infill extrusion width = 0.67mm

M107
M80 ; turn on PSU
M140 S55
M104 S240 ; start E heating
M17; enable motors
G28 X Y ; Z ; Home
M190 S55
M109 S240
G91
G1 E5 F200
G90
G21 ; set units to millimeters
G90 ; use absolute coordinates
M82 ; use absolute distances for extrusion
G92 E0
G1 E-2.00000 F1800.00000
G92 E0
G1 Z0.200 F5400.000
G1 X114.508 Y109.012 F5400.000
G1 E2.00000 F1800.00000
G1 F1200
G1 X114.589 Y108.471 E2.02308
G1 X114.731 Y107.936 E2.04639
G1 X114.928 Y107.425 E2.06947
G1 X115.183 Y106.935 E2.09279
G1 X115.470 Y106.501 E2.11470
G1 X115.800 Y106.100 E2.13662
G1 X116.385 Y105.532 E2.17099
G1 X116.740 Y105.233 E2.19058
G1 X117.388 Y104.764 E2.22429
G1 X117.797 Y104.511 E2.24457
G1 X118.567 Y104.101 E2.28135
G1 X119.425 Y103.753 E2.32040
G1 X119.862 Y103.611 E2.33976
G1 X120.740 Y103.394 E2.37790
G1 X121.643 Y103.269 E2.41632
G1 X122.067 Y103.237 E2.43428
G1 X257.801 Y103.234 E8.15731
G1 X258.380 Y103.272 E8.18179
G1 X259.063 Y103.360 E8.21084
G1 X259.476 Y103.441 E8.22857
G1 X260.430 Y103.701 E8.27025
G1 X261.484 Y104.125 E8.31818
G1 X262.437 Y104.649 E8.36400
G1 X263.254 Y105.229 E8.40626
G1 X263.553 Y105.475 E8.42258
G1 X263.992 Y105.887 E8.44798
G1 X264.430 Y106.370 E8.47548
G1 X264.655 Y106.678 E8.49158
G1 X264.859 Y107.007 E8.50790
G1 X265.035 Y107.346 E8.52399
G1 X265.187 Y107.702 E8.54031
G1 X265.309 Y108.064 E8.55640
G1 X265.404 Y108.439 E8.57273
G1 X265.470 Y108.821 E8.58905
G1 X265.506 Y109.206 E8.60538
G1 X266.774 Y132.480 E9.58816
G1 X266.773 Y177.605 E11.49079
G1 X266.699 Y178.680 E11.53621
G1 X266.494 Y179.764 E11.58276
G1 X266.151 Y180.843 E11.63046
G1 X265.753 Y181.722 E11.67117
G1 X265.527 Y182.141 E11.69122
G1 X265.064 Y182.866 E11.72749
G1 X264.845 Y183.158 E11.74288
G1 X264.320 Y183.784 E11.77733
G1 X264.062 Y184.049 E11.79295
G1 X263.436 Y184.626 E11.82882
G1 X262.492 Y185.316 E11.87812
G1 X261.448 Y185.892 E11.92841
G1 X260.329 Y186.332 E11.97911
G1 X259.178 Y186.621 E12.02913
G1 X258.330 Y186.734 E12.06523
G1 X257.910 Y186.764 E12.08295
G1 X122.199 Y186.766 E17.80505
G1 X121.620 Y186.728 E17.82953
G1 X120.937 Y186.640 E17.85858
G1 X120.524 Y186.559 E17.87630
G1 X119.565 Y186.297 E17.91822
G1 X118.516 Y185.875 E17.96592
G1 X117.503 Y185.313 E18.01477
G1 X116.813 Y184.821 E18.05047
G1 X116.527 Y184.595 E18.06586
G1 X115.930 Y184.041 E18.10021
G1 X115.675 Y183.779 E18.11560
G1 X115.124 Y183.119 E18.15187
G1 X114.853 Y182.742 E18.17146
G1 X114.480 Y182.154 E18.20078
G1 X114.300 Y181.830 E18.21641
G1 X113.944 Y181.076 E18.25157
G1 X113.771 Y180.621 E18.27209
G1 X113.517 Y179.804 E18.30817
G1 X113.346 Y178.963 E18.34436
G1 X113.282 Y178.509 E18.36371
G1 X113.232 Y177.760 E18.39536
G1 X113.227 Y132.406 E20.30765
G1 X114.503 Y109.072 E21.29298
G1 X115.015 Y109.039 F5400.000
G1 F1200
G1 X115.091 Y108.547 E21.31398
G1 X115.223 Y108.062 E21.33520
G1 X115.406 Y107.599 E21.35620
G1 X115.642 Y107.154 E21.37741
G1 X115.904 Y106.768 E21.39709
G1 X116.204 Y106.410 E21.41676
G1 X116.750 Y105.885 E21.44868
G1 X117.085 Y105.608 E21.46703
G1 X117.793 Y105.103 E21.50372
G1 X118.520 Y104.693 E21.53889
G1 X118.906 Y104.505 E21.55702
G1 X119.612 Y104.224 E21.58905
G1 X120.007 Y104.098 E21.60651
G1 X120.846 Y103.890 E21.64299
G1 X121.704 Y103.772 E21.67950
G1 X122.097 Y103.743 E21.69608
G1 X257.794 Y103.741 E27.41759
G1 X258.322 Y103.775 E27.43992
G1 X258.982 Y103.860 E27.46799
G1 X259.363 Y103.936 E27.48435
G1 X260.269 Y104.182 E27.52395
G1 X261.271 Y104.585 E27.56948
G1 X262.157 Y105.072 E27.61212
G1 X262.875 Y105.579 E27.64917
G1 X263.257 Y105.891 E27.66994
G1 X263.860 Y106.480 E27.70551
G1 X264.239 Y106.969 E27.73158
G1 X264.551 Y107.509 E27.75788
G1 X264.783 Y108.082 E27.78395
G1 X264.936 Y108.687 E27.81025
G1 X265.000 Y109.233 E27.83345
G1 X266.261 Y132.264 E28.80597
G1 X266.266 Y177.589 E30.71705
G1 X266.197 Y178.610 E30.76018
G1 X266.001 Y179.645 E30.80462
G1 X265.674 Y180.669 E30.84993
G1 X265.293 Y181.509 E30.88883
G1 X265.088 Y181.887 E30.90696
G1 X264.642 Y182.585 E30.94187
G1 X263.937 Y183.452 E30.98897
G1 X263.108 Y184.239 E31.03720
G1 X262.215 Y184.891 E31.08381
G1 X261.228 Y185.435 E31.13135
G1 X260.174 Y185.849 E31.17906
G1 X259.092 Y186.121 E31.22614
G1 X258.275 Y186.230 E31.26088
G1 X257.888 Y186.257 E31.27724
G1 X122.206 Y186.259 E36.99810
G1 X121.678 Y186.225 E37.02042
G1 X121.018 Y186.140 E37.04849
G1 X120.637 Y186.064 E37.06485
G1 X119.731 Y185.818 E37.10445
G1 X118.729 Y185.415 E37.14998
G1 X117.776 Y184.886 E37.19594
G1 X116.854 Y184.207 E37.24422
G1 X116.052 Y183.440 E37.29101
G1 X115.525 Y182.808 E37.32571
G1 X115.274 Y182.459 E37.34383
G1 X114.893 Y181.855 E37.37393
G1 X114.693 Y181.480 E37.39184
G1 X114.350 Y180.731 E37.42658
G1 X114.087 Y179.951 E37.46131
G1 X113.970 Y179.520 E37.48010
G1 X113.820 Y178.729 E37.51405
G1 X113.738 Y177.720 E37.55675
G1 X113.734 Y132.416 E39.46694
G1 X115.009 Y109.099 E40.45154
G1 F4320
G1 X115.091 Y108.547 E40.23070
G1 F4320
G1 X115.223 Y108.062 E40.03150
G1 F4320
G1 X115.406 Y107.599 E39.83437
G1 F4320
G1 X115.642 Y107.154 E39.63516
G1 F4320
G1 X115.904 Y106.768 E39.45047
G1 F4320
G1 X116.204 Y106.410 E39.26578
G1 F4320
G1 X116.750 Y105.885 E38.96608
G1 F4320
G1 X117.085 Y105.608 E38.79383
G1 F4320
G1 X117.583 Y105.253 E38.55154
G1 E38.45154 F1800.00000
G92 E0
G1 X170.951 Y177.056 F5400.000
G1 E2.00000 F1800.00000
G1 F1200
G1 X171.240 Y176.885 E2.01417
G1 X171.565 Y176.768 E2.02873
G1 X171.981 Y176.714 E2.04641
G1 X172.333 Y176.746 E2.06133
G1 X172.657 Y176.840 E2.07554
G1 X172.956 Y176.993 E2.08971
G1 X173.222 Y177.199 E2.10387
G1 X173.444 Y177.451 E2.11804
G1 X173.615 Y177.740 E2.13221
G1 X173.732 Y178.066 E2.14680
G1 X173.786 Y178.490 E2.16484
G1 X173.753 Y178.835 E2.17943
G1 X173.660 Y179.157 E2.19358
G1 X173.507 Y179.458 E2.20780
G1 X173.288 Y179.736 E2.22273
G1 X172.965 Y180.003 E2.24041
G1 X172.657 Y180.160 E2.25497
G1 X172.335 Y180.253 E2.26912
G1 X171.990 Y180.286 E2.28371
G1 X171.566 Y180.232 E2.30175
G1 X171.240 Y180.115 E2.31634
G1 X170.951 Y179.944 E2.33051
G1 X170.699 Y179.722 E2.34468
G1 X170.493 Y179.456 E2.35884
G1 X170.340 Y179.157 E2.37301
G1 X170.247 Y178.835 E2.38716
G1 X170.215 Y178.500 E2.40133
G1 X170.247 Y178.165 E2.41550
G1 X170.340 Y177.843 E2.42966
G1 X170.493 Y177.544 E2.44382
G1 X170.699 Y177.278 E2.45799
G1 X170.906 Y177.096 E2.46962
G1 X171.206 Y177.407 F5400.000
G1 F1200
G1 X171.425 Y177.278 E2.47718
G1 X171.667 Y177.191 E2.48481
G1 X171.989 Y177.149 E2.49445
G1 X172.253 Y177.173 E2.50232
G1 X172.497 Y177.244 E2.50988
G1 X172.724 Y177.359 E2.51743
G1 X172.925 Y177.515 E2.52498
G1 X173.093 Y177.706 E2.53253
G1 X173.222 Y177.925 E2.54008
G1 X173.310 Y178.167 E2.54772
G1 X173.351 Y178.497 E2.55759
G1 X173.327 Y178.753 E2.56524
G1 X173.256 Y178.997 E2.57278
G1 X173.140 Y179.224 E2.58034
G1 X172.977 Y179.433 E2.58821
G1 X172.726 Y179.639 E2.59785
G1 X172.497 Y179.756 E2.60549
G1 X172.253 Y179.827 E2.61304
G1 X171.997 Y179.851 E2.62068
G1 X171.667 Y179.810 E2.63055
G1 X171.425 Y179.722 E2.63819
G1 X171.206 Y179.593 E2.64575
G1 X171.015 Y179.425 E2.65329
G1 X170.859 Y179.224 E2.66084
G1 X170.744 Y178.997 E2.66839
G1 X170.673 Y178.753 E2.67594
G1 X170.649 Y178.500 E2.68349
G1 X170.673 Y178.247 E2.69104
G1 X170.744 Y178.003 E2.69859
G1 X170.859 Y177.776 E2.70614
G1 X171.015 Y177.575 E2.71369
G1 X171.161 Y177.447 E2.71945
G1 X171.179 Y177.154 F5400.000
G1 F4320
G1 X171.425 Y177.278 E2.59535
G1 F4320
G1 X171.667 Y177.191 E2.49357
G1 F4320
G1 X171.989 Y177.149 E2.36499
G1 F4320
G1 X172.253 Y177.173 E2.26015
G1 F4320
G1 X172.497 Y177.244 E2.15938
G1 F4320
G1 X172.724 Y177.359 E2.05873
G1 F4320
G1 X172.925 Y177.515 E1.95808
G1 F4320
G1 X173.093 Y177.706 E1.85745
G1 F4320
G1 X173.222 Y177.925 E1.75675
G1 F4320
G1 X173.310 Y178.167 E1.65487
G1 F4320
G1 X173.351 Y178.497 E1.52328
G1 F4320
G1 X173.327 Y178.753 E1.42137
G1 F4320
G1 X173.256 Y178.997 E1.32077
G1 F4320
G1 X173.140 Y179.224 E1.21995
G1 F4320
G1 X172.977 Y179.433 E1.11511
G1 F4320
G1 X172.726 Y179.639 E0.98652
G1 F4320
G1 X172.497 Y179.756 E0.88471
G1 F4320
G1 X172.339 Y179.802 E0.81945
G1 E0.71945 F1800.00000
G92 E0
G1 X170.629 Y176.843 F5400.000
G1 X170.629 Y176.843 F5400.000
G1 X160.290 Y165.122 F5400.000
G1 X160.424 Y165.478 F5400.000
G1 X161.307 Y167.711 F5400.000
G1 X161.442 Y168.036 F5400.000
G1 X162.182 Y169.751 F5400.000
G1 X162.317 Y170.049 F5400.000
G1 X162.939 Y171.374 F5400.000
G1 X163.075 Y171.651 F5400.000
G1 X163.623 Y172.730 F5400.000
G1 X163.759 Y172.985 F5400.000
G1 X164.216 Y173.818 F5400.000
G1 X164.351 Y174.054 F5400.000
G1 X164.751 Y174.731 F5400.000
G1 X164.887 Y174.953 F5400.000
G1 X165.239 Y175.508 F5400.000
G1 X165.374 Y175.713 F5400.000
G1 X165.667 Y176.145 F5400.000
G1 X165.801 Y176.336 F5400.000
G1 X166.068 Y176.703 F5400.000
G1 X166.204 Y176.884 F5400.000
G1 X166.442 Y177.191 F5400.000
G1 X166.577 Y177.360 F5400.000
G1 X166.780 Y177.606 F5400.000
G1 X166.915 Y177.764 F5400.000
G1 X167.096 Y177.969 F5400.000
G1 X167.231 Y178.117 F5400.000
G1 X167.389 Y178.286 F5400.000
G1 X167.525 Y178.426 F5400.000
G1 X167.668 Y178.570 F5400.000
G1 X167.804 Y178.701 F5400.000
G1 X167.928 Y178.817 F5400.000
G1 X168.063 Y178.940 F5400.000
G1 X168.173 Y179.037 F5400.000
G1 X168.308 Y179.153 F5400.000
G1 X168.405 Y179.233 F5400.000
G1 X168.540 Y179.341 F5400.000
G1 X168.628 Y179.410 F5400.000
G1 X168.764 Y179.512 F5400.000
G1 X168.841 Y179.567 F5400.000
G1 X168.975 Y179.661 F5400.000
G1 X169.040 Y179.706 F5400.000
G1 X169.175 Y179.794 F5400.000
G1 X169.235 Y179.832 F5400.000
G1 X169.370 Y179.916 F5400.000
G1 X169.422 Y179.946 F5400.000
G1 X169.557 Y180.023 F5400.000
G1 X169.602 Y180.048 F5400.000
G1 X169.737 Y180.119 F5400.000
G1 X169.777 Y180.140 F5400.000
G1 X169.912 Y180.206 F5400.000
G1 X169.946 Y180.222 F5400.000
G1 X170.081 Y180.283 F5400.000
G1 X170.110 Y180.295 F5400.000
G1 X170.244 Y180.351 F5400.000
G1 X170.269 Y180.361 F5400.000
G1 X170.307 Y180.375 F5400.000
G1 X170.308 Y180.375 F5400.000
G1 X170.404 Y180.412 F5400.000
G1 X170.425 Y180.419 F5400.000
G1 X170.560 Y180.466 F5400.000
G1 X170.578 Y180.472 F5400.000
G1 X170.714 Y180.513 F5400.000
G1 X170.728 Y180.517 F5400.000
G1 X170.864 Y180.554 F5400.000
G1 X170.876 Y180.558 F5400.000
G1 X171.012 Y180.590 F5400.000
G1 X171.022 Y180.592 F5400.000
G1 X171.156 Y180.620 F5400.000
G1 X171.164 Y180.622 F5400.000
G1 X171.299 Y180.645 F5400.000
G1 X171.305 Y180.646 F5400.000
G1 X171.441 Y180.666 F5400.000
G1 X171.447 Y180.666 F5400.000
G1 X171.582 Y180.681 F5400.000
G1 X171.587 Y180.682 F5400.000
G1 X171.721 Y180.692 F5400.000
G1 X171.725 Y180.692 F5400.000
G1 X171.860 Y180.699 F5400.000
G1 X171.863 Y180.699 F5400.000
G1 X171.998 Y180.701 F5400.000
G1 X172.002 Y180.701 F5400.000
G1 X172.137 Y180.699 F5400.000
G1 X172.140 Y180.699 F5400.000
G1 X172.275 Y180.692 F5400.000
G1 X172.279 Y180.692 F5400.000
G1 X172.413 Y180.682 F5400.000
G1 X172.418 Y180.681 F5400.000
G1 X172.553 Y180.666 F5400.000
G1 X172.559 Y180.666 F5400.000
G1 X172.695 Y180.646 F5400.000
G1 X172.701 Y180.645 F5400.000
G1 X172.836 Y180.622 F5400.000
G1 X172.844 Y180.620 F5400.000
G1 X172.978 Y180.592 F5400.000
G1 X172.988 Y180.590 F5400.000
G1 X173.124 Y180.558 F5400.000
G1 X173.136 Y180.554 F5400.000
G1 X173.271 Y180.517 F5400.000
G1 X173.286 Y180.513 F5400.000
G1 X173.422 Y180.472 F5400.000
G1 X173.440 Y180.466 F5400.000
G1 X173.575 Y180.419 F5400.000
G1 X173.596 Y180.412 F5400.000
G1 X173.731 Y180.361 F5400.000
G1 X173.755 Y180.351 F5400.000
G1 X173.852 Y180.311 F5400.000
G1 X173.852 Y180.311 F5400.000
G1 X173.891 Y180.295 F5400.000
G1 X173.920 Y180.282 F5400.000
G1 X174.054 Y180.222 F5400.000
G1 X174.088 Y180.206 F5400.000
G1 X174.223 Y180.140 F5400.000
G1 X174.263 Y180.119 F5400.000
G1 X174.398 Y180.048 F5400.000
G1 X174.443 Y180.023 F5400.000
G1 X174.578 Y179.946 F5400.000
G1 X174.630 Y179.916 F5400.000
G1 X174.765 Y179.832 F5400.000
G1 X174.825 Y179.794 F5400.000
G1 X174.960 Y179.706 F5400.000
G1 X175.025 Y179.661 F5400.000
G1 X175.159 Y179.567 F5400.000
G1 X175.236 Y179.512 F5400.000
G1 X175.372 Y179.410 F5400.000
G1 X175.460 Y179.341 F5400.000
G1 X175.595 Y179.233 F5400.000
G1 X175.692 Y179.153 F5400.000
G1 X175.827 Y179.037 F5400.000
G1 X175.937 Y178.940 F5400.000
G1 X176.072 Y178.817 F5400.000
G1 X176.196 Y178.701 F5400.000
G1 X176.332 Y178.570 F5400.000
G1 X176.475 Y178.426 F5400.000
G1 X176.611 Y178.286 F5400.000
G1 X176.770 Y178.117 F5400.000
G1 X176.904 Y177.968 F5400.000
G1 X177.085 Y177.763 F5400.000
G1 X177.220 Y177.606 F5400.000
G1 X177.423 Y177.360 F5400.000
G1 X177.558 Y177.191 F5400.000
G1 X177.796 Y176.884 F5400.000
G1 X177.932 Y176.703 F5400.000
G1 X178.198 Y176.336 F5400.000
G1 X178.333 Y176.145 F5400.000
G1 X178.627 Y175.713 F5400.000
G1 X178.761 Y175.508 F5400.000
G1 X179.113 Y174.953 F5400.000
G1 X179.249 Y174.732 F5400.000
G1 X179.649 Y174.054 F5400.000
G1 X179.784 Y173.817 F5400.000
G1 X180.241 Y172.985 F5400.000
G1 X180.377 Y172.730 F5400.000
G1 X180.925 Y171.651 F5400.000
G1 X181.061 Y171.374 F5400.000
G1 X181.682 Y170.051 F5400.000
G1 X181.779 Y169.838 F5400.000
G1 X181.782 Y169.829 F5400.000
G1 X181.821 Y169.744 F5400.000
G1 X182.559 Y168.035 F5400.000
G1 X182.694 Y167.709 F5400.000
G1 X183.575 Y165.479 F5400.000
G1 X183.710 Y165.123 F5400.000
G1 X184.455 Y163.081 F5400.000
G1 X185.850 Y163.109 F5400.000
G1 X194.150 Y163.109 F5400.000
G1 X195.545 Y163.081 F5400.000
G1 X196.290 Y165.122 F5400.000
G1 X196.424 Y165.478 F5400.000
G1 X197.306 Y167.709 F5400.000
G1 X197.441 Y168.035 F5400.000
G1 X198.183 Y169.753 F5400.000
G1 X198.318 Y170.051 F5400.000
G1 X198.939 Y171.374 F5400.000
G1 X199.074 Y171.650 F5400.000
G1 X199.623 Y172.730 F5400.000
G1 X199.759 Y172.985 F5400.000
G1 X200.216 Y173.817 F5400.000
G1 X200.351 Y174.054 F5400.000
G1 X200.752 Y174.733 F5400.000
G1 X200.888 Y174.954 F5400.000
G1 X201.238 Y175.507 F5400.000
G1 X201.373 Y175.712 F5400.000
G1 X201.668 Y176.146 F5400.000
G1 X201.802 Y176.337 F5400.000
G1 X202.068 Y176.703 F5400.000
G1 X202.204 Y176.884 F5400.000
G1 X202.442 Y177.191 F5400.000
G1 X202.577 Y177.360 F5400.000
G1 X202.780 Y177.606 F5400.000
G1 X202.915 Y177.764 F5400.000
G1 X203.096 Y177.968 F5400.000
G1 X203.230 Y178.117 F5400.000
G1 X203.389 Y178.286 F5400.000
G1 X203.525 Y178.426 F5400.000
G1 X205.849 Y178.500 F5400.000
G1 X206.215 Y178.500 F5400.000
G1 E2.00000 F1800.00000
G1 F1200
G1 X206.247 Y178.165 E2.01417
G1 X206.340 Y177.843 E2.02833
G1 X206.493 Y177.544 E2.04249
G1 X206.699 Y177.278 E2.05666
G1 X206.951 Y177.056 E2.07082
G1 X207.240 Y176.885 E2.08499
G1 X207.565 Y176.768 E2.09955
G1 X207.981 Y176.714 E2.11723
G1 X208.333 Y176.746 E2.13215
G1 X208.657 Y176.840 E2.14636
G1 X208.956 Y176.993 E2.16053
G1 X209.222 Y177.199 E2.17469
G1 X209.444 Y177.451 E2.18886
G1 X209.615 Y177.740 E2.20303
G1 X209.732 Y178.066 E2.21762
G1 X209.786 Y178.490 E2.23566
G1 X209.753 Y178.835 E2.25025
G1 X209.660 Y179.157 E2.26440
G1 X209.507 Y179.458 E2.27862
G1 X209.288 Y179.736 E2.29355
G1 X208.965 Y180.003 E2.31123
G1 X208.657 Y180.160 E2.32579
G1 X208.335 Y180.253 E2.33994
G1 X207.990 Y180.286 E2.35453
G1 X207.566 Y180.232 E2.37257
G1 X207.240 Y180.115 E2.38716
G1 X206.951 Y179.944 E2.40133
G1 X206.699 Y179.722 E2.41550
G1 X206.493 Y179.456 E2.42966
G1 X206.340 Y179.157 E2.44383
G1 X206.247 Y178.835 E2.45798
G1 X206.221 Y178.560 E2.46962
G1 X206.649 Y178.500 F5400.000
G1 F1200
G1 X206.673 Y178.247 E2.47717
G1 X206.744 Y178.003 E2.48472
G1 X206.859 Y177.776 E2.49227
G1 X207.015 Y177.575 E2.49982
G1 X207.206 Y177.407 E2.50737
G1 X207.425 Y177.278 E2.51492
G1 X207.667 Y177.191 E2.52256
G1 X207.989 Y177.149 E2.53220
G1 X208.253 Y177.173 E2.54006
G1 X208.497 Y177.244 E2.54762
G1 X208.724 Y177.359 E2.55517
G1 X208.925 Y177.515 E2.56272
G1 X209.093 Y177.706 E2.57027
G1 X209.222 Y177.925 E2.57782
G1 X209.310 Y178.167 E2.58547
G1 X209.351 Y178.497 E2.59534
G1 X209.327 Y178.753 E2.60298
G1 X209.256 Y178.997 E2.61053
G1 X209.140 Y179.224 E2.61809
