; generated by Slic3r 1.33.8-prusa3d-win64 on 2017-05-24 at 09:00:11

; external perimeters extrusion width = 0.40mm
; perimeters extrusion width = 0.67mm
; infill extrusion width = 0.67mm
; solid infill extrusion width = 0.67mm
; top infill extrusion width = 0.67mm

M107
M80 ; turn on PSU
M140 S55
M104 S240 ; start E heating
M17; enable motors
G28 X Y ; Z ; Home
M190 S55
M109 S240
G91
G1 E5 F200
G90
G21 ; set units to millimeters
G90 ; use absolute coordinates
M82 ; use absolute distances for extrusion
G92 E0
G1 E-2.00000 F1800.00000
G92 E0
G1 Z0.200 F5400.000
G1 X132.616 Y127.525 F5400.000
G1 E2.00000 F1800.00000
G1 F1200
G1 X133.141 Y127.030 E2.03768
G1 X133.467 Y126.762 E2.05972
G1 X133.849 Y126.484 E2.08442
G1 X134.463 Y126.106 E2.12211
G1 X135.226 Y125.734 E2.16643
G1 X135.946 Y125.469 E2.20651
G1 X136.769 Y125.261 E2.25085
G1 X137.476 Y125.153 E2.28825
G1 X138.197 Y125.111 E2.32596
G1 X158.403 Y125.111 E3.38164
G1 X159.056 Y125.145 E3.41579
G1 X159.698 Y125.233 E3.44966
G1 X160.347 Y125.378 E3.48440
G1 X161.117 Y125.627 E3.52665
G1 X161.713 Y125.881 E3.56054
G1 X162.276 Y126.179 E3.59380
G1 X162.827 Y126.530 E3.62794
G1 X163.458 Y127.020 E3.66965
G1 X163.911 Y127.441 E3.70198
G1 X164.418 Y128.002 E3.74150
G1 X164.914 Y128.677 E3.78526
G1 X165.279 Y129.291 E3.82256
G1 X165.584 Y129.929 E3.85951
G1 X165.869 Y130.715 E3.90321
G1 X166.048 Y131.415 E3.94094
G1 X166.130 Y131.880 E3.96560
G1 X166.177 Y132.292 E3.98726
G1 X166.212 Y133.009 E4.02476
G1 X166.212 Y153.021 E5.07032
G1 X166.184 Y153.667 E5.10407
G1 X166.108 Y154.288 E5.13678
G1 X165.940 Y155.067 E5.17841
G1 X165.745 Y155.692 E5.21260
G1 X165.507 Y156.278 E5.24564
G1 X165.211 Y156.864 E5.27994
G1 X164.787 Y157.542 E5.32173
G1 X164.381 Y158.074 E5.35670
G1 X163.951 Y158.551 E5.39027
G1 X163.306 Y159.138 E5.43582
G1 X162.739 Y159.562 E5.47284
G1 X162.132 Y159.934 E5.50999
G1 X161.363 Y160.307 E5.55463
G1 X160.656 Y160.564 E5.59396
G1 X159.835 Y160.772 E5.63819
G1 X159.129 Y160.879 E5.67551
G1 X158.406 Y160.921 E5.71336
G1 X138.207 Y160.921 E6.76865
G1 X137.554 Y160.886 E6.80281
G1 X136.911 Y160.798 E6.83670
G1 X136.264 Y160.654 E6.87137
G1 X135.494 Y160.405 E6.91361
G1 X134.902 Y160.152 E6.94724
G1 X134.339 Y159.856 E6.98050
G1 X133.787 Y159.504 E7.01468
G1 X133.295 Y159.131 E7.04692
G1 X132.706 Y158.598 E7.08843
G1 X132.195 Y158.034 E7.12822
G1 X131.700 Y157.360 E7.17191
G1 X131.333 Y156.744 E7.20937
G1 X131.029 Y156.109 E7.24614
G1 X130.741 Y155.316 E7.29021
G1 X130.563 Y154.623 E7.32759
G1 X130.481 Y154.158 E7.35228
G1 X130.433 Y153.744 E7.37403
G1 X130.398 Y153.040 E7.41084
G1 X130.398 Y133.010 E8.45733
G1 X130.424 Y132.382 E8.49019
G1 X130.500 Y131.755 E8.52316
G1 X130.664 Y130.986 E8.56424
G1 X130.857 Y130.361 E8.59840
G1 X131.086 Y129.791 E8.63047
G1 X131.352 Y129.251 E8.66198
G1 X131.691 Y128.685 E8.69643
G1 X132.154 Y128.049 E8.73751
G1 X132.575 Y127.568 E8.77091
G1 X133.072 Y127.957 F5400.000
G1 F1200
G1 X133.549 Y127.507 E8.80519
G1 X134.207 Y127.001 E8.84856
G1 X134.766 Y126.656 E8.88286
G1 X135.473 Y126.311 E8.92398
G1 X136.130 Y126.070 E8.96052
G1 X136.893 Y125.876 E9.00165
G1 X137.542 Y125.777 E9.03596
G1 X138.203 Y125.739 E9.07054
G1 X158.403 Y125.739 E10.12588
G1 X158.974 Y125.768 E10.15575
G1 X159.577 Y125.849 E10.18757
G1 X160.172 Y125.981 E10.21938
G1 X160.895 Y126.215 E10.25910
G1 X161.441 Y126.448 E10.29011
G1 X161.961 Y126.722 E10.32081
G1 X162.465 Y127.044 E10.35206
G1 X163.054 Y127.501 E10.39100
G1 X163.468 Y127.886 E10.42054
G1 X163.930 Y128.397 E10.45656
G1 X164.393 Y129.028 E10.49742
G1 X164.727 Y129.591 E10.53163
G1 X165.004 Y130.172 E10.56523
G1 X165.269 Y130.901 E10.60576
G1 X165.432 Y131.538 E10.64010
G1 X165.553 Y132.357 E10.68336
G1 X165.583 Y133.009 E10.71748
G1 X165.583 Y153.021 E11.76300
G1 X165.561 Y153.580 E11.79221
G1 X165.491 Y154.164 E11.82294
G1 X165.337 Y154.891 E11.86181
G1 X165.156 Y155.473 E11.89365
G1 X164.941 Y156.005 E11.92358
G1 X164.669 Y156.546 E11.95527
G1 X164.270 Y157.184 E11.99456
G1 X163.899 Y157.672 E12.02658
G1 X163.505 Y158.108 E12.05730
G1 X162.903 Y158.657 E12.09984
G1 X162.386 Y159.042 E12.13351
G1 X161.835 Y159.380 E12.16730
G1 X161.122 Y159.726 E12.20872
G1 X160.473 Y159.963 E12.24482
G1 X159.711 Y160.156 E12.28586
G1 X159.063 Y160.254 E12.32009
G1 X158.405 Y160.292 E12.35453
G1 X138.207 Y160.292 E13.40978
G1 X137.636 Y160.263 E13.43966
G1 X137.037 Y160.183 E13.47122
G1 X136.439 Y160.050 E13.50324
G1 X135.720 Y159.819 E13.54268
G1 X135.174 Y159.586 E13.57372
G1 X134.654 Y159.312 E13.60442
G1 X134.149 Y158.990 E13.63570
G1 X133.607 Y158.572 E13.67148
G1 X133.145 Y158.148 E13.70420
G1 X132.680 Y157.634 E13.74046
G1 X132.218 Y157.004 E13.78127
G1 X131.884 Y156.443 E13.81534
G1 X131.609 Y155.866 E13.84878
G1 X131.341 Y155.130 E13.88966
G1 X131.180 Y154.500 E13.92367
G1 X131.058 Y153.679 E13.96703
G1 X131.027 Y153.034 E14.00078
G1 X131.027 Y133.010 E15.04690
G1 X131.048 Y132.462 E15.07555
G1 X131.118 Y131.873 E15.10653
G1 X131.269 Y131.155 E15.14488
G1 X131.449 Y130.573 E15.17670
G1 X131.655 Y130.057 E15.20573
G1 X131.900 Y129.558 E15.23477
G1 X132.209 Y129.040 E15.26631
G1 X132.644 Y128.442 E15.30494
G1 X133.030 Y128.001 E15.33557
G1 F4320
G1 X133.549 Y127.507 E15.05206
G1 F4320
G1 X134.207 Y127.001 E14.72352
G1 F4320
G1 X134.766 Y126.656 E14.46364
G1 F4320
G1 X135.473 Y126.311 E14.15208
G1 F4320
G1 X136.130 Y126.070 E13.87525
G1 F4320
G1 X136.893 Y125.876 E13.56363
G1 F4320
G1 X137.213 Y125.828 E13.43557
G1 E13.33557 F1800.00000
G92 E0
G1 X147.172 Y151.336 F5400.000
G1 E2.00000 F1800.00000
G1 F1200
G1 X147.546 Y151.137 E2.01258
G1 X147.950 Y151.021 E2.02505
G1 X148.238 Y150.991 E2.03365
G1 X148.657 Y151.020 E2.04612
G1 X149.064 Y151.137 E2.05870
G1 X149.437 Y151.335 E2.07123
G1 X149.709 Y151.557 E2.08167
G1 X149.945 Y151.826 E2.09228
G1 X150.156 Y152.192 E2.10481
G1 X150.287 Y152.594 E2.11739
G1 X150.331 Y153.016 E2.12996
G1 X150.287 Y153.434 E2.14245
G1 X150.203 Y153.724 E2.15142
G1 X150.023 Y154.089 E2.16351
G1 X149.762 Y154.423 E2.17608
G1 X149.438 Y154.695 E2.18866
G1 X149.064 Y154.894 E2.20123
G1 X148.660 Y155.010 E2.21371
G1 X148.372 Y155.040 E2.22231
G1 X147.953 Y155.011 E2.23478
G1 X147.546 Y154.894 E2.24735
G1 X147.173 Y154.696 E2.25989
G1 X146.901 Y154.474 E2.27033
G1 X146.665 Y154.205 E2.28093
G1 X146.454 Y153.840 E2.29347
G1 X146.323 Y153.437 E2.30605
G1 X146.279 Y153.016 E2.31862
G1 X146.323 Y152.596 E2.33115
G1 X146.427 Y152.260 E2.34160
G1 X146.588 Y151.941 E2.35220
G1 X146.848 Y151.608 E2.36474
G1 X147.126 Y151.374 E2.37553
G1 X147.144 Y150.937 F5400.000
G1 X146.938 Y150.983 F5400.000
G1 F1200
G1 X147.391 Y150.743 E2.39074
G1 X147.548 Y150.686 E2.39571
G1 X148.046 Y150.580 E2.41084
G1 X148.503 Y150.576 E2.42440
G1 X148.899 Y150.639 E2.43631
G1 X149.376 Y150.812 E2.45136
G1 X149.678 Y150.987 E2.46172
G1 X150.070 Y151.316 E2.47693
G1 X150.350 Y151.669 E2.49031
G1 X150.466 Y151.862 E2.49698
G1 X150.641 Y152.285 E2.51059
G1 X150.732 Y152.680 E2.52260
G1 X150.749 Y153.186 E2.53766
G1 X150.700 Y153.528 E2.54791
G1 X150.608 Y153.850 E2.55785
G1 X150.467 Y154.167 E2.56815
G1 X150.350 Y154.362 E2.57489
G1 X150.183 Y154.588 E2.58325
G1 X149.899 Y154.873 E2.59518
G1 X149.527 Y155.138 E2.60874
G1 X149.062 Y155.346 E2.62387
G1 X148.558 Y155.452 E2.63918
G1 X148.049 Y155.452 E2.65428
G1 X147.709 Y155.392 E2.66453
G1 X147.391 Y155.288 E2.67448
G1 X147.083 Y155.138 E2.68465
G1 X146.711 Y154.873 E2.69821
G1 X146.428 Y154.589 E2.71012
G1 X146.228 Y154.314 E2.72022
G1 X146.004 Y153.857 E2.73532
G1 X145.908 Y153.522 E2.74567
G1 X145.859 Y153.129 E2.75743
G1 X145.879 Y152.678 E2.77082
G1 X145.950 Y152.340 E2.78107
G1 X146.067 Y152.019 E2.79121
G1 X146.229 Y151.714 E2.80147
G1 X146.504 Y151.357 E2.81485
G1 X146.665 Y151.196 E2.82160
G1 X146.891 Y151.020 E2.83012
G1 X147.292 Y151.169 F5400.000
G1 F4320
G1 X147.391 Y150.743 E2.60399
G1 F4320
G1 X147.548 Y150.686 E2.53768
G1 F4320
G1 X148.046 Y150.580 E2.33599
G1 F4320
G1 X148.503 Y150.576 E2.15518
G1 F4320
G1 X148.899 Y150.639 E1.99646
G1 F4320
G1 X149.376 Y150.812 E1.79574
G1 F4320
G1 X149.678 Y150.987 E1.65770
G1 F4320
G1 X150.070 Y151.316 E1.45496
G1 F4320
G1 X150.350 Y151.669 E1.27651
G1 F4320
G1 X150.466 Y151.862 E1.18760
G1 F4320
G1 X150.641 Y152.285 E1.00616
G1 F4320
G1 X150.684 Y152.473 E0.93012
G1 E0.83012 F1800.00000
G92 E0
G1 X147.953 Y145.011 F5400.000
G1 E2.00000 F1800.00000
G1 F1200
G1 X147.546 Y144.894 E2.01258
G1 X147.173 Y144.696 E2.02511
G1 X146.901 Y144.474 E2.03555
G1 X146.665 Y144.205 E2.04616
G1 X146.454 Y143.840 E2.05869
G1 X146.323 Y143.437 E2.07127
G1 X146.279 Y143.016 E2.08384
G1 X146.323 Y142.594 E2.09642
G1 X146.454 Y142.192 E2.10900
G1 X146.664 Y141.828 E2.12147
G1 X146.849 Y141.607 E2.13002
G1 X147.113 Y141.379 E2.14036
G1 X147.418 Y141.194 E2.15097
G1 X147.815 Y141.050 E2.16350
G1 X148.234 Y140.991 E2.17608
G1 X148.657 Y141.020 E2.18866
G1 X149.064 Y141.137 E2.20123
G1 X149.438 Y141.336 E2.21381
G1 X149.762 Y141.608 E2.22639
G1 X150.023 Y141.942 E2.23895
G1 X150.203 Y142.307 E2.25105
G1 X150.287 Y142.597 E2.26002
G1 X150.331 Y143.016 E2.27250
G1 X150.287 Y143.434 E2.28499
G1 X150.203 Y143.724 E2.29396
G1 X150.023 Y144.089 E2.30605
G1 X149.762 Y144.423 E2.31862
G1 X149.438 Y144.695 E2.33120
G1 X149.064 Y144.894 E2.34377
G1 X148.660 Y145.010 E2.35625
G1 X148.372 Y145.040 E2.36484
G1 X148.013 Y145.015 E2.37553
G1 X147.693 Y145.314 F5400.000
G1 X147.548 Y145.346 F5400.000
G1 F1200
G1 X147.083 Y145.138 E2.39066
G1 X146.711 Y144.873 E2.40422
G1 X146.428 Y144.589 E2.41613
G1 X146.228 Y144.314 E2.42623
G1 X146.004 Y143.857 E2.44133
G1 X145.879 Y143.358 E2.45659
G1 X145.861 Y142.845 E2.47183
G1 X145.949 Y142.344 E2.48695
G1 X146.068 Y142.016 E2.49731
G1 X146.325 Y141.573 E2.51251
G1 X146.668 Y141.193 E2.52772
G1 X147.080 Y140.894 E2.54282
G1 X147.548 Y140.686 E2.55803
G1 X148.046 Y140.580 E2.57315
G1 X148.503 Y140.576 E2.58672
G1 X148.899 Y140.639 E2.59862
G1 X149.376 Y140.812 E2.61368
G1 X149.810 Y141.083 E2.62888
G1 X150.180 Y141.439 E2.64411
G1 X150.466 Y141.862 E2.65927
G1 X150.641 Y142.285 E2.67288
G1 X150.732 Y142.680 E2.68489
G1 X150.749 Y143.186 E2.69995
G1 X150.660 Y143.691 E2.71516
G1 X150.467 Y144.167 E2.73041
G1 X150.183 Y144.588 E2.74550
G1 X149.899 Y144.873 E2.75743
G1 X149.527 Y145.138 E2.77099
G1 X149.062 Y145.346 E2.78612
G1 X148.558 Y145.452 E2.80143
G1 X148.049 Y145.452 E2.81653
G1 X147.606 Y145.362 E2.82996
G1 X147.465 Y144.954 F5400.000
G1 F4320
G1 X147.083 Y145.138 E2.60474
G1 F4320
G1 X146.711 Y144.873 E2.42394
G1 F4320
G1 X146.428 Y144.589 E2.26520
G1 F4320
G1 X146.228 Y144.314 E2.13055
G1 F4320
G1 X146.004 Y143.857 E1.92923
G1 F4320
G1 X145.879 Y143.358 E1.72580
G1 F4320
G1 X145.861 Y142.845 E1.52268
G1 F4320
G1 X145.949 Y142.344 E1.32106
G1 F4320
G1 X146.068 Y142.016 E1.18301
G1 F4320
G1 X146.325 Y141.573 E0.98029
G1 F4320
G1 X146.410 Y141.478 E0.92996
G1 E0.82996 F1800.00000
G92 E0
G1 X148.375 Y135.040 F5400.000
G1 E2.00000 F1800.00000
G1 F1200
G1 X147.953 Y135.011 E2.01257
G1 X147.548 Y134.895 E2.02509
G1 X147.245 Y134.741 E2.03516
G1 X146.949 Y134.521 E2.04614
G1 X146.666 Y134.207 E2.05868
G1 X146.454 Y133.840 E2.07126
G1 X146.323 Y133.437 E2.08384
G1 X146.279 Y133.016 E2.09641
G1 X146.323 Y132.594 E2.10899
G1 X146.454 Y132.192 E2.12157
G1 X146.664 Y131.828 E2.13404
G1 X146.849 Y131.607 E2.14259
G1 X147.113 Y131.379 E2.15293
G1 X147.418 Y131.194 E2.16354
G1 X147.815 Y131.050 E2.17607
G1 X148.234 Y130.991 E2.18865
G1 X148.657 Y131.020 E2.20123
G1 X149.064 Y131.137 E2.21380
G1 X149.438 Y131.336 E2.22638
G1 X149.762 Y131.608 E2.23895
G1 X150.023 Y131.942 E2.25152
G1 X150.203 Y132.307 E2.26362
G1 X150.287 Y132.597 E2.27259
G1 X150.331 Y133.016 E2.28507
G1 X150.287 Y133.434 E2.29756
G1 X150.203 Y133.724 E2.30652
G1 X150.023 Y134.089 E2.31862
G1 X149.762 Y134.423 E2.33119
G1 X149.438 Y134.695 E2.34377
G1 X149.067 Y134.893 E2.35625
G1 X148.779 Y134.985 E2.36522
G1 X148.435 Y135.032 E2.37553
G1 X148.184 Y135.391 F5400.000
G1 X148.394 Y135.464 F5400.000
G1 F1200
G1 X148.045 Y135.452 E2.38589
G1 X147.551 Y135.346 E2.40091
G1 X147.132 Y135.164 E2.41447
G1 X146.793 Y134.943 E2.42648
G1 X146.668 Y134.838 E2.43131
G1 X146.428 Y134.590 E2.44158
G1 X146.260 Y134.362 E2.44999
G1 X146.068 Y134.015 E2.46174
G1 X145.950 Y133.691 E2.47199
G1 X145.879 Y133.355 E2.48219
G1 X145.859 Y133.129 E2.48894
G1 X145.879 Y132.678 E2.50232
G1 X145.950 Y132.340 E2.51257
G1 X146.140 Y131.869 E2.52767
G1 X146.426 Y131.444 E2.54288
G1 X146.668 Y131.193 E2.55324
G1 X147.080 Y130.894 E2.56834
G1 X147.548 Y130.686 E2.58354
G1 X148.046 Y130.580 E2.59867
G1 X148.503 Y130.576 E2.61223
G1 X148.899 Y130.639 E2.62414
G1 X149.376 Y130.812 E2.63920
G1 X149.810 Y131.083 E2.65440
G1 X150.180 Y131.439 E2.66963
G1 X150.466 Y131.862 E2.68479
G1 X150.641 Y132.285 E2.69840
G1 X150.732 Y132.680 E2.71041
G1 X150.749 Y132.841 E2.71524
G1 X150.749 Y133.186 E2.72549
G1 X150.660 Y133.691 E2.74069
G1 X150.467 Y134.167 E2.75595
G1 X150.180 Y134.592 E2.77119
G1 X149.810 Y134.948 E2.78641
G1 X149.376 Y135.219 E2.80162
G1 X148.898 Y135.392 E2.81672
G1 X148.454 Y135.460 E2.83005
G1 X148.202 Y135.172 F5400.000
G1 F4320
G1 X148.045 Y135.452 E2.66837
G1 F4320
G1 X147.551 Y135.346 E2.46806
G1 F4320
G1 X147.132 Y135.164 E2.28726
G1 F4320
G1 X146.793 Y134.943 E2.12715
G1 F4320
G1 X146.668 Y134.838 E2.06284
G1 F4320
G1 X146.428 Y134.590 E1.92589
G1 F4320
G1 X146.260 Y134.362 E1.81383
G1 F4320
G1 X146.068 Y134.015 E1.65709
G1 F4320
G1 X145.950 Y133.691 E1.52043
G1 F4320
G1 X145.879 Y133.355 E1.38449
G1 F4320
G1 X145.859 Y133.129 E1.29458
G1 F4320
G1 X145.879 Y132.678 E1.11612
G1 F4320
G1 X145.950 Y132.340 E0.97946
G1 F4320
G1 X145.997 Y132.225 E0.93005
G1 E0.83005 F1800.00000
G92 E0
G1 X156.279 Y133.016 F5400.000
G1 E2.00000 F1800.00000
G1 F1200
G1 X156.323 Y132.597 E2.01249
G1 X156.407 Y132.307 E2.02145
G1 X156.587 Y131.942 E2.03355
G1 X156.848 Y131.608 E2.04612
G1 X157.172 Y131.336 E2.05869
G1 X157.543 Y131.138 E2.07118
G1 X157.831 Y131.047 E2.08015
G1 X158.235 Y130.991 E2.09224
G1 X158.657 Y131.020 E2.10481
G1 X159.064 Y131.137 E2.11739
G1 X159.438 Y131.336 E2.12997
G1 X159.762 Y131.608 E2.14254
G1 X160.023 Y131.942 E2.15511
G1 X160.203 Y132.307 E2.16721
G1 X160.287 Y132.597 E2.17617
G1 X160.331 Y133.016 E2.18866
G1 X160.287 Y133.434 E2.20114
G1 X160.203 Y133.724 E2.21011
G1 X160.023 Y134.089 E2.22221
G1 X159.762 Y134.423 E2.23478
G1 X159.438 Y134.695 E2.24735
G1 X159.067 Y134.893 E2.25984
G1 X158.779 Y134.985 E2.26881
G1 X158.375 Y135.040 E2.28090
G1 X157.953 Y135.011 E2.29347
G1 X157.546 Y134.894 E2.30605
G1 X157.172 Y134.695 E2.31862
G1 X156.848 Y134.423 E2.33120
G1 X156.587 Y134.089 E2.34377
G1 X156.407 Y133.724 E2.35587
G1 X156.323 Y133.434 E2.36483
G1 X156.285 Y133.075 E2.37554
G1 X155.934 Y132.812 F5400.000
G1 X155.861 Y133.190 F5400.000
G1 F1200
G1 X155.861 Y132.845 E2.38579
G1 X155.950 Y132.340 E2.40099
G1 X156.141 Y131.868 E2.41612
G1 X156.393 Y131.487 E2.42968
G1 X156.668 Y131.194 E2.44161
G1 X157.079 Y130.895 E2.45670
G1 X157.548 Y130.686 E2.47195
G1 X158.046 Y130.580 E2.48708
G1 X158.503 Y130.576 E2.50064
G1 X158.899 Y130.639 E2.51255
G1 X159.376 Y130.812 E2.52761
G1 X159.810 Y131.083 E2.54281
G1 X160.180 Y131.439 E2.55804
G1 X160.466 Y131.862 E2.57320
G1 X160.641 Y132.285 E2.58681
G1 X160.732 Y132.680 E2.59882
G1 X160.749 Y132.841 E2.60365
G1 X160.749 Y133.186 E2.61390
G1 X160.660 Y133.691 E2.62910
G1 X160.467 Y134.167 E2.64436
G1 X160.180 Y134.592 E2.65960
G1 X159.810 Y134.948 E2.67482
G1 X159.376 Y135.219 E2.69003
G1 X158.898 Y135.392 E2.70513
G1 X158.558 Y135.452 E2.71538
G1 X158.049 Y135.452 E2.73049
G1 X157.548 Y135.346 E2.74569
G1 X157.080 Y135.137 E2.76090
G1 X156.797 Y134.946 E2.77104
G1 X156.430 Y134.592 E2.78617
G1 X156.144 Y134.169 E2.80133
G1 X155.969 Y133.746 E2.81494
G1 X155.868 Y133.250 E2.82998
G1 X156.143 Y132.990 F5400.000
G1 F4320
G1 X155.861 Y132.845 E2.66969
G1 F4320
G1 X155.950 Y132.340 E2.46697
G1 F4320
G1 X156.141 Y131.868 E2.26528
G1 F4320
G1 X156.393 Y131.487 E2.08448
G1 F4320
G1 X156.668 Y131.194 E1.92545
G1 F4320
G1 X157.079 Y130.895 E1.72432
G1 F4320
G1 X157.548 Y130.686 E1.52092
G1 F4320
