; generated by Slic3r 1.33.8-prusa3d-win64 on 2017-05-16 at 13:50:46

; external perimeters extrusion width = 0.40mm
; perimeters extrusion width = 0.55mm
; infill extrusion width = 0.67mm
; solid infill extrusion width = 0.67mm
; top infill extrusion width = 0.67mm

M107
M80 ; turn on PSU
M140 S55
M104 S240 ; start E heating
M17; enable motors
G28 X Y ; Z ; Home
M190 S55
M109 S240
G91
G1 E5 F200
G90
G21 ; set units to millimeters
G90 ; use absolute coordinates
M82 ; use absolute distances for extrusion
G92 E0
G1 E-2.00000 F1800.00000
G92 E0
G1 Z0.200 F5400.000
G1 X114.930 Y107.144 F5400.000
G1 E2.00000 F1800.00000
G1 F1200
G1 X115.159 Y106.838 E2.01609
G1 X115.698 Y106.196 E2.05148
G1 X116.509 Y105.421 E2.09873
G1 X116.793 Y105.193 E2.11412
G1 X117.447 Y104.723 E2.14806
G1 X118.295 Y104.238 E2.18927
G1 X118.693 Y104.044 E2.20792
G1 X119.337 Y103.786 E2.23718
G1 X119.915 Y103.597 E2.26283
G1 X120.893 Y103.367 E2.30516
G1 X121.703 Y103.262 E2.33962
G1 X122.128 Y103.235 E2.35758
G1 X257.801 Y103.234 E8.07805
G1 X258.391 Y103.273 E8.10299
G1 X259.074 Y103.362 E8.13204
G1 X259.503 Y103.448 E8.15046
G1 X260.466 Y103.713 E8.19261
G1 X261.221 Y104.008 E8.22679
G1 X261.569 Y104.167 E8.24288
G1 X262.525 Y104.705 E8.28917
G1 X263.205 Y105.192 E8.32443
G1 X263.503 Y105.431 E8.34052
G1 X264.086 Y105.975 E8.37414
G1 X264.340 Y106.237 E8.38953
G1 X264.886 Y106.894 E8.42558
G1 X265.169 Y107.291 E8.44610
G1 X265.554 Y107.903 E8.47658
G1 X265.770 Y108.313 E8.49612
G1 X266.123 Y109.087 E8.53199
G1 X266.401 Y109.909 E8.56858
G1 X266.526 Y110.373 E8.58886
G1 X266.681 Y111.194 E8.62409
G1 X266.724 Y111.557 E8.63949
G1 X266.770 Y112.285 E8.67024
G1 X266.773 Y157.627 E10.58205
G1 X265.501 Y180.872 E11.56362
G1 X265.441 Y181.366 E11.58460
G1 X265.333 Y181.852 E11.60559
G1 X265.178 Y182.319 E11.62634
G1 X264.977 Y182.774 E11.64732
G1 X264.777 Y183.132 E11.66458
G1 X264.550 Y183.472 E11.68183
G1 X264.295 Y183.792 E11.69909
G1 X264.015 Y184.091 E11.71635
G1 X263.570 Y184.510 E11.74212
G1 X263.290 Y184.744 E11.75752
G1 X262.630 Y185.224 E11.79190
G1 X262.236 Y185.470 E11.81149
G1 X261.357 Y185.934 E11.85339
G1 X260.606 Y186.236 E11.88754
G1 X260.244 Y186.358 E11.90363
G1 X259.146 Y186.627 E11.95133
G1 X258.308 Y186.737 E11.98696
G1 X257.872 Y186.765 E12.00538
G1 X122.199 Y186.766 E17.72585
G1 X121.609 Y186.727 E17.75080
G1 X120.926 Y186.638 E17.77984
G1 X120.497 Y186.552 E17.79827
G1 X119.539 Y186.288 E17.84018
G1 X118.779 Y185.992 E17.87460
G1 X118.431 Y185.833 E17.89069
G1 X117.554 Y185.345 E17.93302
G1 X116.791 Y184.805 E17.97244
G1 X116.374 Y184.458 E17.99529
G1 X115.976 Y184.082 E18.01839
G1 X115.729 Y183.821 E18.03354
G1 X115.323 Y183.289 E18.06175
G1 X114.989 Y182.704 E18.09018
G1 X114.736 Y182.079 E18.11862
G1 X114.570 Y181.431 E18.14682
G1 X114.494 Y180.799 E18.17363
G1 X113.231 Y157.724 E19.14802
G1 X113.228 Y112.334 E21.06185
G1 X113.275 Y111.573 E21.09399
G1 X113.317 Y111.205 E21.10961
G1 X113.475 Y110.370 E21.14543
G1 X113.604 Y109.893 E21.16629
G1 X113.879 Y109.080 E21.20247
G1 X114.242 Y108.287 E21.23922
G1 X114.461 Y107.878 E21.25880
G1 X114.896 Y107.193 E21.29300
G1 X115.358 Y107.415 F5400.000
G1 F1200
G1 X116.081 Y106.529 E21.34121
G1 X116.848 Y105.799 E21.38588
G1 X117.736 Y105.140 E21.43250
G1 X118.538 Y104.683 E21.47143
G1 X118.901 Y104.507 E21.48845
G1 X119.524 Y104.258 E21.51672
G1 X120.042 Y104.088 E21.53971
G1 X120.970 Y103.868 E21.57993
G1 X121.751 Y103.767 E21.61313
G1 X122.144 Y103.742 E21.62971
G1 X257.794 Y103.741 E27.34924
G1 X258.327 Y103.776 E27.37178
G1 X258.993 Y103.862 E27.40007
G1 X259.383 Y103.941 E27.41687
G1 X260.294 Y104.190 E27.45670
G1 X261.027 Y104.476 E27.48985
G1 X261.342 Y104.620 E27.50444
G1 X262.246 Y105.129 E27.54819
G1 X262.901 Y105.598 E27.58215
G1 X263.166 Y105.811 E27.59652
G1 X263.959 Y106.572 E27.64284
G1 X264.485 Y107.205 E27.67754
G1 X264.744 Y107.568 E27.69633
G1 X265.180 Y108.272 E27.73128
G1 X265.539 Y109.013 E27.76599
G1 X265.702 Y109.405 E27.78390
G1 X265.918 Y110.064 E27.81314
G1 X266.032 Y110.490 E27.83171
G1 X266.181 Y111.280 E27.86564
G1 X266.263 Y112.317 E27.90946
G1 X266.266 Y157.610 E29.81921
G1 X264.996 Y180.830 E30.79971
G1 X264.943 Y181.272 E30.81850
G1 X264.847 Y181.707 E30.83729
G1 X264.706 Y182.136 E30.85630
G1 X264.525 Y182.543 E30.87509
G1 X264.344 Y182.868 E30.89078
G1 X264.137 Y183.178 E30.90648
G1 X263.905 Y183.469 E30.92218
G1 X263.649 Y183.740 E30.93787
G1 X262.973 Y184.348 E30.97623
G1 X262.342 Y184.807 E31.00914
G1 X261.977 Y185.034 E31.02726
G1 X261.151 Y185.470 E31.06663
G1 X260.427 Y185.761 E31.09954
G1 X260.099 Y185.872 E31.11413
G1 X259.061 Y186.127 E31.15922
G1 X258.254 Y186.233 E31.19352
G1 X257.856 Y186.258 E31.21033
G1 X122.206 Y186.259 E36.92985
G1 X121.673 Y186.224 E36.95239
G1 X121.007 Y186.138 E36.98068
G1 X120.622 Y186.061 E36.99726
G1 X119.711 Y185.811 E37.03709
G1 X118.978 Y185.526 E37.07025
G1 X118.663 Y185.382 E37.08484
G1 X117.825 Y184.917 E37.12528
G1 X117.100 Y184.403 E37.16273
G1 X116.725 Y184.092 E37.18329
G1 X116.123 Y183.500 E37.21888
G1 X115.749 Y183.014 E37.24473
G1 X115.442 Y182.477 E37.27080
G1 X115.213 Y181.908 E37.29666
G1 X115.063 Y181.308 E37.32273
G1 X115.000 Y180.767 E37.34572
G1 X113.737 Y157.694 E38.32001
G1 X113.735 Y112.358 E40.23153
G1 X113.780 Y111.614 E40.26296
G1 X113.821 Y111.265 E40.27777
G1 X113.975 Y110.457 E40.31248
G1 X114.108 Y109.985 E40.33314
G1 X114.356 Y109.253 E40.36575
G1 X114.707 Y108.491 E40.40112
G1 X114.906 Y108.122 E40.41881
G1 X115.324 Y107.465 E40.45163
G1 F4320
G1 X116.081 Y106.529 E39.97537
G1 F4320
G1 X116.848 Y105.799 E39.55605
G1 F4320
G1 X117.736 Y105.140 E39.11833
G1 F4320
G1 X118.538 Y104.683 E38.75288
G1 F4320
G1 X118.901 Y104.507 E38.59307
G1 F4320
G1 X118.999 Y104.468 E38.55163
G1 E38.45163 F1800.00000
G92 E0
G1 X252.903 Y124.089 F5400.000
G1 E2.00000 F1800.00000
G1 F1200
G1 X252.999 Y123.687 E2.01225
G1 X253.157 Y123.306 E2.02450
G1 X253.372 Y122.954 E2.03676
G1 X253.640 Y122.640 E2.04901
G1 X253.954 Y122.372 E2.06126
G1 X254.306 Y122.157 E2.07351
G1 X254.687 Y121.999 E2.08577
G1 X255.089 Y121.903 E2.09802
G1 X255.490 Y121.871 E2.10997
G1 X255.911 Y121.903 E2.12251
G1 X256.313 Y121.999 E2.13477
G1 X256.694 Y122.157 E2.14703
G1 X257.046 Y122.372 E2.15928
G1 X257.360 Y122.640 E2.17153
G1 X257.628 Y122.954 E2.18378
G1 X257.843 Y123.306 E2.19603
G1 X258.001 Y123.687 E2.20829
G1 X258.097 Y124.089 E2.22054
G1 X258.130 Y124.500 E2.23279
G1 X258.097 Y124.911 E2.24504
G1 X258.001 Y125.313 E2.25730
G1 X257.843 Y125.694 E2.26955
G1 X257.628 Y126.046 E2.28180
G1 X257.360 Y126.360 E2.29405
G1 X257.046 Y126.628 E2.30631
G1 X256.694 Y126.843 E2.31856
G1 X256.313 Y127.001 E2.33081
G1 X255.911 Y127.097 E2.34306
G1 X255.500 Y127.130 E2.35531
G1 X255.089 Y127.097 E2.36757
G1 X254.687 Y127.001 E2.37982
G1 X254.306 Y126.843 E2.39207
G1 X253.954 Y126.628 E2.40433
G1 X253.640 Y126.360 E2.41658
G1 X253.372 Y126.046 E2.42883
G1 X253.157 Y125.694 E2.44108
G1 X252.999 Y125.313 E2.45334
G1 X252.903 Y124.911 E2.46559
G1 X252.870 Y124.500 E2.47784
G1 X252.898 Y124.148 E2.48831
G1 X252.592 Y123.837 F5400.000
G1 F4320
G1 X252.999 Y123.687 E2.30149
G1 F4320
G1 X253.157 Y123.306 E2.13813
G1 F4320
G1 X253.372 Y122.954 E1.97478
G1 F4320
G1 X253.640 Y122.640 E1.81144
G1 F4320
G1 X253.954 Y122.372 E1.64812
G1 F4320
G1 X254.306 Y122.157 E1.48477
G1 F4320
G1 X254.687 Y121.999 E1.32140
G1 F4320
G1 X255.089 Y121.903 E1.15808
G1 F4320
G1 X255.490 Y121.871 E0.99867
G1 F4320
G1 X255.911 Y121.903 E0.83158
G1 F4320
G1 X256.313 Y121.999 E0.66810
G1 F4320
G1 X256.499 Y122.076 E0.58831
G1 E0.48831 F1800.00000
G92 E0
G1 X256.792 Y117.113 F5400.000
G1 E2.00000 F1800.00000
G1 F1200
G1 X256.561 Y116.986 E2.00783
G1 X256.398 Y116.844 E2.01425
G1 X256.270 Y116.680 E2.02042
G1 X256.176 Y116.495 E2.02657
G1 X256.119 Y116.296 E2.03272
G1 X256.099 Y116.090 E2.03887
G1 X256.119 Y115.884 E2.04502
G1 X256.176 Y115.685 E2.05118
G1 X256.270 Y115.500 E2.05733
G1 X256.397 Y115.336 E2.06348
G1 X256.553 Y115.199 E2.06963
G1 X256.731 Y115.094 E2.07578
G1 X256.929 Y115.023 E2.08202
G1 X257.190 Y114.989 E2.08985
G1 X257.406 Y115.008 E2.09627
G1 X257.605 Y115.066 E2.10244
G1 X257.790 Y115.160 E2.10859
G1 X257.954 Y115.288 E2.11475
G1 X258.096 Y115.451 E2.12118
G1 X258.223 Y115.682 E2.12901
G1 X258.281 Y115.884 E2.13525
G1 X258.301 Y116.090 E2.14140
G1 X258.281 Y116.296 E2.14755
G1 X258.223 Y116.498 E2.15380
G1 X258.093 Y116.735 E2.16180
G1 X257.954 Y116.893 E2.16805
G1 X257.790 Y117.020 E2.17421
G1 X257.605 Y117.114 E2.18036
G1 X257.406 Y117.171 E2.18651
G1 X257.200 Y117.191 E2.19266
G1 X256.994 Y117.171 E2.19881
G1 X256.850 Y117.130 E2.20327
G1 X256.582 Y117.272 F5400.000
G1 F4320
G1 X256.561 Y116.986 E2.07560
G1 F4320
G1 X256.398 Y116.844 E1.98999
G1 F4320
G1 X256.270 Y116.680 E1.90779
G1 F4320
G1 X256.176 Y116.495 E1.82581
G1 F4320
G1 X256.119 Y116.296 E1.74376
G1 F4320
G1 X256.099 Y116.090 E1.66176
G1 F4320
G1 X256.119 Y115.884 E1.57976
G1 F4320
G1 X256.176 Y115.685 E1.49771
G1 F4320
G1 X256.270 Y115.500 E1.41573
G1 F4320
G1 X256.397 Y115.336 E1.33369
G1 F4320
G1 X256.553 Y115.199 E1.25165
G1 F4320
G1 X256.731 Y115.094 E1.16964
G1 F4320
G1 X256.929 Y115.023 E1.08647
G1 F4320
G1 X257.190 Y114.989 E0.98210
G1 F4320
G1 X257.406 Y115.008 E0.89651
G1 F4320
G1 X257.605 Y115.066 E0.81429
G1 F4320
G1 X257.790 Y115.160 E0.73231
G1 F4320
G1 X257.954 Y115.288 E0.65011
G1 F4320
G1 X258.096 Y115.451 E0.56450
G1 F4320
G1 X258.223 Y115.682 E0.46012
G1 F4320
G1 X258.281 Y115.884 E0.37692
G1 F4320
G1 X258.299 Y116.069 E0.30327
G1 E0.20327 F1800.00000
G92 E0
G1 X256.624 Y117.901 F5400.000
G1 X247.130 Y114.734 F5400.000
G1 X246.891 Y116.190 F5400.000
G1 E2.00000 F1800.00000
G1 F1200
G1 X246.881 Y116.296 E2.00316
G1 X246.823 Y116.496 E2.00933
G1 X246.725 Y116.688 E2.01575
G1 X246.556 Y116.891 E2.02358
G1 X246.390 Y117.020 E2.02982
G1 X246.205 Y117.114 E2.03597
G1 X246.006 Y117.171 E2.04213
G1 X245.800 Y117.191 E2.04828
G1 X245.594 Y117.171 E2.05443
G1 X245.395 Y117.114 E2.06058
G1 X245.207 Y117.018 E2.06683
G1 X244.999 Y116.846 E2.07484
G1 X244.870 Y116.680 E2.08109
G1 X244.776 Y116.495 E2.08723
G1 X244.719 Y116.296 E2.09339
G1 X244.699 Y116.090 E2.09954
G1 X244.719 Y115.884 E2.10569
G1 X244.776 Y115.685 E2.11185
G1 X244.870 Y115.500 E2.11799
G1 X244.997 Y115.336 E2.12415
G1 X245.153 Y115.199 E2.13030
G1 X245.331 Y115.094 E2.13645
G1 X245.529 Y115.023 E2.14269
G1 X245.791 Y114.989 E2.15052
G1 X246.006 Y115.008 E2.15694
G1 X246.205 Y115.066 E2.16311
G1 X246.390 Y115.160 E2.16926
G1 X246.554 Y115.288 E2.17542
G1 X246.696 Y115.451 E2.18184
G1 X246.823 Y115.682 E2.18967
G1 X246.881 Y115.884 E2.19592
G1 X246.897 Y116.130 E2.20325
G1 X246.983 Y116.245 F5400.000
G1 F4320
G1 X246.881 Y116.296 E2.13733
G1 F4320
G1 X246.823 Y116.496 E2.05512
G1 F4320
G1 X246.725 Y116.688 E1.96955
G1 F4320
G1 X246.556 Y116.891 E1.86513
G1 F4320
G1 X246.390 Y117.020 E1.78194
G1 F4320
G1 X246.205 Y117.114 E1.69995
G1 F4320
G1 X246.006 Y117.171 E1.61790
G1 F4320
G1 X245.800 Y117.191 E1.53590
G1 F4320
G1 X245.594 Y117.171 E1.45390
G1 F4320
G1 X245.395 Y117.114 E1.37186
G1 F4320
G1 X245.207 Y117.018 E1.28861
G1 F4320
G1 X244.999 Y116.846 E1.18180
G1 F4320
G1 X244.870 Y116.680 E1.09850
G1 F4320
G1 X244.776 Y116.495 E1.01652
G1 F4320
G1 X244.719 Y116.296 E0.93447
G1 F4320
G1 X244.699 Y116.090 E0.85247
G1 F4320
G1 X244.719 Y115.884 E0.77047
G1 F4320
G1 X244.776 Y115.685 E0.68843
G1 F4320
G1 X244.870 Y115.500 E0.60644
G1 F4320
G1 X244.997 Y115.336 E0.52440
G1 F4320
G1 X245.153 Y115.199 E0.44236
G1 F4320
G1 X245.331 Y115.094 E0.36037
G1 F4320
G1 X245.467 Y115.045 E0.30325
G1 E0.20325 F1800.00000
G92 E0
G1 X247.130 Y114.734 F5400.000
G1 X134.240 Y114.580 F5400.000
G1 X134.194 Y114.990 F5400.000
G1 E2.00000 F1800.00000
G1 F1200
G1 X134.388 Y115.003 E2.00576
G1 X134.605 Y115.067 E2.01250
G1 X134.790 Y115.160 E2.01864
G1 X134.954 Y115.288 E2.02481
G1 X135.096 Y115.451 E2.03123
G1 X135.223 Y115.682 E2.03906
G1 X135.281 Y115.884 E2.04530
G1 X135.301 Y116.090 E2.05145
G1 X135.281 Y116.296 E2.05760
G1 X135.223 Y116.498 E2.06385
G1 X135.093 Y116.735 E2.07186
G1 X134.954 Y116.893 E2.07811
G1 X134.790 Y117.020 E2.08426
G1 X134.605 Y117.114 E2.09041
G1 X134.406 Y117.171 E2.09657
G1 X134.200 Y117.191 E2.10272
G1 X133.994 Y117.171 E2.10887
G1 X133.792 Y117.113 E2.11512
G1 X133.555 Y116.983 E2.12312
G1 X133.397 Y116.844 E2.12937
G1 X133.270 Y116.680 E2.13552
G1 X133.176 Y116.495 E2.14167
G1 X133.119 Y116.296 E2.14783
G1 X133.099 Y116.090 E2.15398
G1 X133.119 Y115.884 E2.16013
G1 X133.176 Y115.685 E2.16628
G1 X133.270 Y115.500 E2.17243
G1 X133.396 Y115.338 E2.17852
G1 X133.537 Y115.208 E2.18423
G1 X133.733 Y115.093 E2.19097
G1 X133.995 Y115.004 E2.19917
G1 X134.134 Y114.994 E2.20333
G1 X134.286 Y114.819 F5400.000
G1 F4320
G1 X134.388 Y115.003 E2.10295
G1 F4320
G1 X134.605 Y115.067 E2.01311
G1 F4320
G1 X134.790 Y115.160 E1.93120
G1 F4320
G1 X134.954 Y115.288 E1.84900
G1 F4320
G1 X135.096 Y115.451 E1.76339
G1 F4320
G1 X135.223 Y115.682 E1.65901
G1 F4320
G1 X135.281 Y115.884 E1.57581
G1 F4320
G1 X135.301 Y116.090 E1.49381
G1 F4320
G1 X135.281 Y116.296 E1.41181
G1 F4320
G1 X135.223 Y116.498 E1.32851
G1 F4320
G1 X135.093 Y116.735 E1.22174
G1 F4320
G1 X134.954 Y116.893 E1.13845
G1 F4320
G1 X134.790 Y117.020 E1.05641
G1 F4320
G1 X134.605 Y117.114 E0.97442
G1 F4320
G1 X134.406 Y117.171 E0.89238
G1 F4320
G1 X134.200 Y117.191 E0.81038
G1 F4320
G1 X133.994 Y117.171 E0.72838
G1 F4320
G1 X133.792 Y117.113 E0.64508
G1 F4320
G1 X133.555 Y116.983 E0.53831
G1 F4320
G1 X133.397 Y116.844 E0.45502
G1 F4320
G1 X133.270 Y116.680 E0.37298
G1 F4320
G1 X133.191 Y116.523 E0.30333
G1 E0.20333 F1800.00000
G92 E0
G1 X134.240 Y114.580 F5400.000
G1 X134.240 Y114.580 F5400.000
G1 X135.352 Y114.580 F5400.000
G1 X135.406 Y114.554 F5400.000
G1 X135.454 Y114.570 F5400.000
G1 X135.459 Y114.572 F5400.000
G1 X135.578 Y114.617 F5400.000
G1 X135.586 Y114.620 F5400.000
G1 X135.705 Y114.669 F5400.000
G1 X135.716 Y114.674 F5400.000
G1 X135.836 Y114.728 F5400.000
G1 X135.850 Y114.735 F5400.000
G1 X135.970 Y114.794 F5400.000
G1 X135.988 Y114.803 F5400.000
G1 X136.107 Y114.866 F5400.000
G1 X136.130 Y114.878 F5400.000
G1 X136.250 Y114.947 F5400.000
G1 X136.280 Y114.964 F5400.000
G1 X136.399 Y115.038 F5400.000
G1 X136.432 Y115.059 F5400.000
G1 X136.551 Y115.137 F5400.000
G1 X136.592 Y115.164 F5400.000
G1 X136.712 Y115.249 F5400.000
G1 X136.762 Y115.285 F5400.000
G1 X136.881 Y115.375 F5400.000
G1 X136.935 Y115.417 F5400.000
G1 X137.054 Y115.512 F5400.000
G1 X137.121 Y115.567 F5400.000
G1 X137.241 Y115.670 F5400.000
G1 X137.317 Y115.736 F5400.000
G1 X137.435 Y115.845 F5400.000
G1 X137.521 Y115.925 F5400.000
G1 X137.535 Y115.939 F5400.000
G1 X137.507 Y116.045 F5400.000
G1 X137.482 Y116.134 F5400.000
G1 X137.452 Y116.234 F5400.000
G1 X137.447 Y116.252 F5400.000
G1 X137.423 Y116.334 F5400.000
G1 X137.395 Y116.439 F5400.000
G1 X137.392 Y116.451 F5400.000
G1 X137.371 Y116.530 F5400.000
G1 X137.338 Y116.647 F5400.000
G1 X137.314 Y116.726 F5400.000
G1 X137.278 Y116.840 F5400.000
G1 X137.254 Y116.913 F5400.000
G1 X137.238 Y116.957 F5400.000
G1 X137.215 Y117.026 F5400.000
G1 X137.190 Y117.104 F5400.000
G1 X137.178 Y117.145 F5400.000
G1 X137.156 Y117.219 F5400.000
G1 X137.131 Y117.295 F5400.000
G1 X137.094 Y117.408 F5400.000
G1 X137.068 Y117.482 F5400.000
G1 X137.026 Y117.595 F5400.000
G1 X137.002 Y117.657 F5400.000
G1 X136.995 Y117.675 F5400.000
G1 X136.953 Y117.789 F5400.000
G1 X136.929 Y117.857 F5400.000
G1 X136.925 Y117.870 F5400.000
G1 X136.884 Y117.986 F5400.000
G1 X136.853 Y118.070 F5400.000
G1 X136.808 Y118.186 F5400.000
G1 X136.771 Y118.278 F5400.000
G1 X136.727 Y118.382 F5400.000
G1 X136.722 Y118.394 F5400.000
G1 X136.683 Y118.488 F5400.000
G1 X136.635 Y118.609 F5400.000
G1 X136.628 Y118.626 F5400.000
G1 X136.594 Y118.714 F5400.000
G1 X136.404 Y119.184 F5400.000
G1 X136.285 Y119.515 F5400.000
G1 X136.177 Y119.857 F5400.000
G1 X136.087 Y120.117 F5400.000
G1 X136.037 Y120.252 F5400.000
G1 X136.048 Y120.536 F5400.000
G1 X136.048 Y120.983 F5400.000
G1 X133.777 Y121.521 F5400.000
G1 X133.559 Y121.882 F5400.000
G1 X133.497 Y122.000 F5400.000
