; generated by Slic3r 1.33.8-prusa3d-win64 on 2017-05-16 at 16:47:17

; external perimeters extrusion width = 0.40mm
; perimeters extrusion width = 0.67mm
; infill extrusion width = 0.67mm
; solid infill extrusion width = 0.67mm
; top infill extrusion width = 0.67mm

M107
M80 ; turn on PSU
M140 S55
M104 S240 ; start E heating
M17; enable motors
G28 X Y ; Z ; Home
M190 S55
M109 S240
G91
G1 E5 F200
G90
G21 ; set units to millimeters
G90 ; use absolute coordinates
M82 ; use absolute distances for extrusion
G92 E0
G1 E-2.00000 F1800.00000
G92 E0
G1 Z0.200 F5400.000
G1 X79.650 Y115.063 F5400.000
G1 E2.00000 F1800.00000
G1 F1200
G1 X139.904 Y113.373 E5.14917
G1 X140.699 Y113.400 E5.19073
G1 X141.170 Y113.447 E5.21550
G1 X141.678 Y113.527 E5.24233
G1 X142.416 Y113.695 E5.28188
G1 X143.311 Y113.987 E5.33108
G1 X143.899 Y114.236 E5.36442
G1 X144.418 Y114.498 E5.39480
G1 X144.934 Y114.801 E5.42607
G1 X145.402 Y115.117 E5.45556
G1 X145.881 Y115.485 E5.48713
G1 X146.314 Y115.865 E5.51721
G1 X146.731 Y116.281 E5.54797
G1 X147.104 Y116.702 E5.57738
G1 X147.473 Y117.174 E5.60869
G1 X147.801 Y117.655 E5.63908
G1 X148.100 Y118.159 E5.66971
G1 X148.363 Y118.673 E5.69985
G1 X148.596 Y119.210 E5.73048
G1 X148.792 Y119.752 E5.76056
G1 X148.956 Y120.312 E5.79105
G1 X149.080 Y120.861 E5.82045
G1 X149.194 Y121.609 E5.85998
G1 X149.234 Y122.071 E5.88420
G1 X149.251 Y122.573 E5.91049
G1 X149.249 Y137.748 E6.70328
G1 X149.193 Y138.659 E6.75097
G1 X149.086 Y139.370 E6.78853
G1 X148.923 Y140.067 E6.82591
G1 X148.635 Y140.948 E6.87433
G1 X148.365 Y141.580 E6.91025
G1 X148.045 Y142.196 E6.94653
G1 X147.565 Y142.954 E6.99339
G1 X147.153 Y143.498 E7.02905
G1 X146.723 Y143.986 E7.06302
G1 X146.227 Y144.472 E7.09929
G1 X145.549 Y145.033 E7.14527
G1 X144.988 Y145.423 E7.18100
G1 X101.891 Y171.126 E9.80260
G1 X101.503 Y171.336 E9.82567
G1 X100.971 Y171.560 E9.85584
G1 X100.411 Y171.726 E9.88631
G1 X99.843 Y171.828 E9.91648
G1 X99.267 Y171.867 E9.94665
G1 X87.569 Y171.866 E10.55782
G1 X87.134 Y171.837 E10.58060
G1 X86.697 Y171.771 E10.60368
G1 X86.273 Y171.671 E10.62646
G1 X85.853 Y171.533 E10.64953
G1 X85.224 Y171.249 E10.68561
G1 X84.637 Y170.884 E10.72169
G1 X84.099 Y170.442 E10.75806
G1 X83.628 Y169.937 E10.79414
G1 X80.733 Y166.385 E11.03357
G1 X80.258 Y165.758 E11.07467
G1 X79.906 Y165.231 E11.10774
G1 X79.508 Y164.539 E11.14947
G1 X79.264 Y164.055 E11.17778
G1 X79.046 Y163.558 E11.20616
G1 X78.793 Y162.884 E11.24375
G1 X78.552 Y162.083 E11.28744
G1 X78.382 Y161.315 E11.32854
G1 X74.770 Y140.532 E12.43062
G1 X74.738 Y139.961 E12.46050
G1 X74.738 Y120.292 E13.48814
G1 X74.762 Y119.805 E13.51358
G1 X74.830 Y119.329 E13.53873
G1 X74.926 Y118.915 E13.56092
G1 X75.057 Y118.505 E13.58340
G1 X75.221 Y118.107 E13.60589
G1 X75.417 Y117.724 E13.62837
G1 X75.644 Y117.358 E13.65086
G1 X75.896 Y117.017 E13.67304
G1 X76.179 Y116.693 E13.69553
G1 X76.487 Y116.393 E13.71801
G1 X76.815 Y116.122 E13.74020
G1 X77.168 Y115.876 E13.76269
G1 X77.540 Y115.660 E13.78517
G1 X77.929 Y115.475 E13.80765
G1 X78.331 Y115.322 E13.83014
G1 X78.745 Y115.203 E13.85262
G1 X79.166 Y115.118 E13.87511
G1 X79.590 Y115.067 E13.89742
G1 X79.666 Y115.692 F5400.000
G1 F1200
G1 X139.913 Y114.001 E17.04624
G1 X140.645 Y114.026 E17.08455
G1 X141.090 Y114.071 E17.10788
G1 X141.557 Y114.144 E17.13259
G1 X142.236 Y114.297 E17.16896
G1 X143.054 Y114.562 E17.21391
G1 X143.623 Y114.801 E17.24612
G1 X144.107 Y115.044 E17.27444
G1 X144.598 Y115.332 E17.30414
G1 X145.030 Y115.623 E17.33135
G1 X145.480 Y115.970 E17.36106
G1 X145.884 Y116.323 E17.38910
G1 X146.273 Y116.711 E17.41776
G1 X146.621 Y117.103 E17.44518
G1 X146.968 Y117.548 E17.47465
G1 X147.273 Y117.996 E17.50297
G1 X147.552 Y118.466 E17.53153
G1 X147.796 Y118.945 E17.55962
G1 X148.016 Y119.451 E17.58845
G1 X148.200 Y119.961 E17.61676
G1 X148.351 Y120.483 E17.64518
G1 X148.469 Y121.011 E17.67342
G1 X148.570 Y121.683 E17.70893
G1 X148.622 Y122.586 E17.75620
G1 X148.622 Y137.725 E18.54711
G1 X148.568 Y138.587 E18.59226
G1 X148.471 Y139.240 E18.62675
G1 X148.321 Y139.886 E18.66136
G1 X148.060 Y140.691 E18.70558
G1 X147.804 Y141.296 E18.73993
G1 X147.507 Y141.872 E18.77379
G1 X147.049 Y142.595 E18.81849
G1 X146.668 Y143.098 E18.85149
G1 X146.267 Y143.554 E18.88317
G1 X145.804 Y144.007 E18.91702
G1 X145.161 Y144.539 E18.96062
G1 X144.636 Y144.902 E18.99395
G1 X101.569 Y170.586 E21.61374
G1 X101.233 Y170.769 E21.63372
G1 X100.758 Y170.969 E21.66064
G1 X100.269 Y171.114 E21.68729
G1 X99.768 Y171.204 E21.71393
G1 X99.259 Y171.239 E21.74058
G1 X87.598 Y171.238 E22.34979
G1 X87.221 Y171.215 E22.36950
G1 X86.843 Y171.160 E22.38949
G1 X86.475 Y171.075 E22.40920
G1 X86.111 Y170.959 E22.42918
G1 X85.642 Y170.757 E22.45583
G1 X85.194 Y170.503 E22.48275
G1 X84.781 Y170.204 E22.50939
G1 X84.400 Y169.857 E22.53631
G1 X84.123 Y169.549 E22.55796
G1 X81.231 Y166.001 E22.79707
G1 X80.861 Y165.523 E22.82870
G1 X80.552 Y165.074 E22.85717
G1 X80.144 Y164.396 E22.89849
G1 X79.782 Y163.677 E22.94054
G1 X79.568 Y163.176 E22.96904
G1 X79.377 Y162.652 E22.99815
G1 X79.159 Y161.922 E23.03797
G1 X79.000 Y161.202 E23.07648
G1 X75.398 Y140.492 E24.17474
G1 X75.366 Y139.956 E24.20277
G1 X75.366 Y120.303 E25.22953
G1 X75.382 Y119.921 E25.24951
G1 X75.431 Y119.536 E25.26978
G1 X75.509 Y119.167 E25.28949
G1 X75.618 Y118.801 E25.30947
G1 X75.758 Y118.444 E25.32946
G1 X75.926 Y118.101 E25.34945
G1 X76.120 Y117.777 E25.36916
G1 X76.342 Y117.466 E25.38915
G1 X76.589 Y117.174 E25.40913
G1 X76.860 Y116.903 E25.42912
G1 X77.148 Y116.659 E25.44883
G1 X77.459 Y116.437 E25.46882
G1 X77.787 Y116.240 E25.48881
G1 X78.131 Y116.072 E25.50879
G1 X78.487 Y115.933 E25.52878
G1 X78.853 Y115.823 E25.54877
G1 X79.228 Y115.744 E25.56875
G1 X79.606 Y115.697 E25.58866
G1 F4320
G1 X84.404 Y115.562 E23.68866
G1 E23.58866 F1800.00000
G92 E0
G1 X81.315 Y136.630 F5400.000
G1 E2.00000 F1800.00000
G1 F1200
G1 X137.391 Y136.630 E4.92968
G1 X137.921 Y135.934 E4.97537
G1 X138.162 Y135.678 E4.99374
G1 X138.421 Y135.464 E5.01129
G1 X138.705 Y135.284 E5.02885
G1 X139.009 Y135.141 E5.04641
G1 X139.329 Y135.037 E5.06398
G1 X139.658 Y134.974 E5.08150
G1 X139.998 Y134.953 E5.09931
G1 X140.496 Y134.998 E5.12541
G1 X140.640 Y135.030 E5.13313
G1 X141.115 Y135.197 E5.15945
G1 X141.428 Y135.369 E5.17811
G1 X141.717 Y135.579 E5.19675
G1 X142.071 Y135.938 E5.22308
G1 X142.244 Y136.177 E5.23848
G1 X142.416 Y136.490 E5.25713
G1 X142.547 Y136.821 E5.27578
G1 X142.621 Y137.107 E5.29118
G1 X142.665 Y137.461 E5.30982
G1 X142.665 Y137.818 E5.32847
G1 X142.583 Y138.315 E5.35481
G1 X142.541 Y138.457 E5.36251
G1 X142.331 Y138.937 E5.38992
G1 X142.056 Y139.335 E5.41517
G1 X141.812 Y139.595 E5.43382
G1 X141.582 Y139.785 E5.44942
G1 X141.284 Y139.974 E5.46785
G1 X140.961 Y140.126 E5.48651
G1 X140.680 Y140.217 E5.50192
G1 X140.330 Y140.284 E5.52056
G1 X139.994 Y140.305 E5.53812
G1 X139.659 Y140.284 E5.55568
G1 X139.186 Y140.182 E5.58092
G1 X138.855 Y140.051 E5.59957
G1 X138.560 Y139.889 E5.61713
G1 X138.288 Y139.691 E5.63469
G1 X138.046 Y139.464 E5.65202
G1 X137.364 Y138.628 E5.70838
G1 X81.315 Y138.628 E8.63665
G1 X81.315 Y136.690 E8.73795
G1 F4320
G1 X86.115 Y136.685 E6.83795
G1 E6.73795 F1800.00000
G92 E0
G1 X137.080 Y136.001 F5400.000
G1 E2.00000 F1800.00000
G1 F1200
G1 X137.441 Y135.528 E2.03112
G1 X137.731 Y135.219 E2.05324
G1 X138.051 Y134.954 E2.07492
G1 X138.402 Y134.732 E2.09661
G1 X138.777 Y134.555 E2.11831
G1 X139.172 Y134.427 E2.14000
G1 X139.580 Y134.349 E2.16167
G1 X139.999 Y134.323 E2.18361
G1 X140.419 Y134.350 E2.20562
G1 X140.806 Y134.424 E2.22620
G1 X141.222 Y134.559 E2.24903
G1 X141.766 Y134.838 E2.28097
G1 X142.250 Y135.211 E2.31291
G1 X142.549 Y135.530 E2.33574
G1 X142.670 Y135.685 E2.34603
G1 X142.780 Y135.848 E2.35632
G1 X142.985 Y136.221 E2.37858
G1 X143.142 Y136.618 E2.40083
G1 X143.197 Y136.807 E2.41112
G1 X143.240 Y136.999 E2.42141
G1 X143.294 Y137.421 E2.44366
G1 X143.276 Y138.033 E2.47561
G1 X143.194 Y138.462 E2.49844
G1 X143.139 Y138.651 E2.50873
G1 X143.073 Y138.836 E2.51901
G1 X142.887 Y139.232 E2.54184
G1 X142.541 Y139.736 E2.57379
G1 X142.250 Y140.047 E2.59605
G1 X141.943 Y140.300 E2.61684
G1 X141.587 Y140.526 E2.63886
G1 X141.201 Y140.707 E2.66112
G1 X140.827 Y140.829 E2.68168
G1 X140.409 Y140.909 E2.70394
G1 X139.994 Y140.935 E2.72563
G1 X139.580 Y140.909 E2.74732
G1 X138.983 Y140.777 E2.77927
G1 X138.587 Y140.620 E2.80153
G1 X138.223 Y140.420 E2.82322
G1 X137.887 Y140.176 E2.84491
G1 X137.586 Y139.894 E2.86648
G1 X137.066 Y139.257 E2.90944
G1 X80.687 Y139.257 E5.85496
G1 X80.687 Y136.001 E6.02504
G1 X137.020 Y136.001 E8.96816
G1 F4320
G1 X137.441 Y135.528 E8.71724
G1 F4320
G1 X137.731 Y135.219 E8.54970
G1 F4320
G1 X138.051 Y134.954 E8.38538
G1 F4320
G1 X138.402 Y134.732 E8.22105
G1 F4320
G1 X138.777 Y134.555 E8.05671
G1 F4320
G1 X139.172 Y134.427 E7.89236
G1 F4320
G1 X139.580 Y134.349 E7.72815
G1 F4320
G1 X139.999 Y134.323 E7.56189
G1 F4320
G1 X140.419 Y134.350 E7.39513
G1 F4320
G1 X140.806 Y134.424 E7.23927
G1 F4320
G1 X141.217 Y134.557 E7.06816
G1 E6.96816 F1800.00000
G92 E0
G1 X136.832 Y139.749 F5400.000
G1 E2.00000 F1800.00000
G1 F1200
G1 X80.194 Y139.749 E3.68166
G1 X80.194 Y135.509 E3.80757
G1 X136.836 Y135.509 E5.48935
G1 X137.065 Y135.209 E5.50054
G1 X137.393 Y134.859 E5.51478
G1 X137.761 Y134.555 E5.52895
G1 X138.164 Y134.299 E5.54312
G1 X138.595 Y134.096 E5.55728
G1 X139.049 Y133.949 E5.57145
G1 X139.518 Y133.859 E5.58562
G1 X139.999 Y133.830 E5.59993
G1 X140.473 Y133.860 E5.61404
G1 X140.936 Y133.948 E5.62803
G1 X141.396 Y134.097 E5.64238
G1 X141.609 Y134.190 E5.64928
G1 X142.030 Y134.421 E5.66354
G1 X142.419 Y134.703 E5.67780
G1 X142.593 Y134.857 E5.68471
G1 X142.924 Y135.209 E5.69906
G1 X143.068 Y135.396 E5.70606
G1 X143.201 Y135.590 E5.71305
G1 X143.432 Y136.011 E5.72731
G1 X143.609 Y136.458 E5.74157
G1 X143.675 Y136.684 E5.74856
G1 X143.726 Y136.914 E5.75556
G1 X143.786 Y137.390 E5.76982
G1 X143.786 Y137.871 E5.78408
G1 X143.764 Y138.102 E5.79098
G1 X143.674 Y138.577 E5.80534
G1 X143.608 Y138.803 E5.81233
G1 X143.528 Y139.025 E5.81933
G1 X143.322 Y139.462 E5.83368
G1 X143.204 Y139.662 E5.84058
G1 X142.922 Y140.051 E5.85484
G1 X142.593 Y140.401 E5.86911
G1 X142.226 Y140.704 E5.88323
G1 X141.825 Y140.959 E5.89735
G1 X141.390 Y141.163 E5.91161
G1 X140.942 Y141.309 E5.92559
G1 X140.470 Y141.399 E5.93985
G1 X139.994 Y141.429 E5.95402
G1 X139.518 Y141.399 E5.96818
G1 X139.046 Y141.309 E5.98245
G1 X138.823 Y141.244 E5.98935
G1 X138.376 Y141.067 E6.00361
G1 X137.958 Y140.837 E6.01778
G1 X137.572 Y140.557 E6.03194
G1 X137.225 Y140.231 E6.04609
G1 X136.870 Y139.796 E6.06275
G1 X136.734 Y139.362 F5400.000
G1 F4320
G1 X132.070 Y139.792 E4.16275
G1 E4.06275 F1800.00000
G92 E0
G1 X142.314 Y136.925 F5400.000
G1 E2.00000 F1800.00000
G1 F1200
G1 X141.441 Y136.051 E2.06507
G1 X141.141 Y135.822 E2.08495
G1 X140.793 Y135.641 E2.10562
G1 X140.507 Y135.549 E2.12144
G1 X140.283 Y135.506 E2.13346
G1 X139.983 Y135.489 E2.14930
G1 X142.131 Y137.638 E2.30936
G1 X142.131 Y137.774 E2.31654
G1 X142.061 Y138.196 E2.33911
G1 X141.988 Y138.390 E2.35000
G1 X139.229 Y135.631 E2.55552
G1 X138.963 Y135.753 E2.57094
G1 X138.661 Y135.959 E2.59019
G1 X141.665 Y138.963 E2.81395
G1 X141.446 Y139.205 E2.83115
G1 X141.201 Y139.395 E2.84748
G1 X138.224 Y136.418 E3.06920
G1 X137.837 Y136.926 E3.10287
G1 X140.594 Y139.684 E3.30829
G1 X140.263 Y139.753 E3.32613
G1 X139.994 Y139.770 E3.34029
G1 X139.771 Y139.756 E3.35209
G1 X137.178 Y137.164 E3.54522
G1 X136.282 Y137.164 E3.59241
G1 X137.213 Y138.094 E3.66174
G1 X136.317 Y138.094 E3.70893
G1 X135.386 Y137.164 E3.77825
G1 X134.490 Y137.164 E3.82544
G1 X135.421 Y138.094 E3.89477
G1 X134.525 Y138.094 E3.94196
G1 X133.595 Y137.164 E4.01129
G1 X132.699 Y137.164 E4.05848
G1 X133.629 Y138.094 E4.12781
G1 X132.734 Y138.094 E4.17500
G1 X131.803 Y137.164 E4.24433
G1 X130.907 Y137.164 E4.29152
G1 X131.838 Y138.094 E4.36085
G1 X130.942 Y138.094 E4.40803
G1 X130.011 Y137.164 E4.47736
G1 X129.115 Y137.164 E4.52455
G1 X130.046 Y138.094 E4.59388
G1 X129.150 Y138.094 E4.64107
G1 X128.219 Y137.164 E4.71040
G1 X127.323 Y137.164 E4.75759
G1 X128.254 Y138.094 E4.82692
G1 X127.358 Y138.094 E4.87411
G1 X126.428 Y137.164 E4.94344
G1 X125.532 Y137.164 E4.99063
G1 X126.462 Y138.094 E5.05995
G1 X125.567 Y138.094 E5.10714
G1 X124.636 Y137.164 E5.17647
G1 X123.740 Y137.164 E5.22366
G1 X124.671 Y138.094 E5.29299
G1 X123.775 Y138.094 E5.34018
G1 X122.844 Y137.164 E5.40951
G1 X121.948 Y137.164 E5.45670
G1 X122.879 Y138.094 E5.52603
G1 X121.983 Y138.094 E5.57322
G1 X121.052 Y137.164 E5.64255
G1 X120.156 Y137.164 E5.68973
G1 X121.087 Y138.094 E5.75906
G1 X120.191 Y138.094 E5.80625
G1 X119.261 Y137.164 E5.87558
G1 X118.365 Y137.164 E5.92277
G1 X119.295 Y138.094 E5.99210
G1 X118.400 Y138.094 E6.03929
G1 X117.469 Y137.164 E6.10862
G1 X116.573 Y137.164 E6.15581
G1 X117.504 Y138.094 E6.22514
G1 X116.608 Y138.094 E6.27233
G1 X115.677 Y137.164 E6.34166
G1 X114.781 Y137.164 E6.38884
G1 X115.712 Y138.094 E6.45817
G1 X114.816 Y138.094 E6.50536
G1 X113.885 Y137.164 E6.57469
G1 X112.990 Y137.164 E6.62188
G1 X113.920 Y138.094 E6.69121
G1 X113.024 Y138.094 E6.73840
G1 X112.094 Y137.164 E6.80773
G1 X111.198 Y137.164 E6.85492
G1 X112.128 Y138.094 E6.92425
G1 X111.233 Y138.094 E6.97144
G1 X110.302 Y137.164 E7.04076
G1 X109.406 Y137.164 E7.08795
G1 X110.337 Y138.094 E7.15728
G1 X109.441 Y138.094 E7.20447
G1 X108.510 Y137.164 E7.27380
G1 X107.614 Y137.164 E7.32099
G1 X108.545 Y138.094 E7.39032
G1 X107.649 Y138.094 E7.43751
G1 X106.718 Y137.164 E7.50684
G1 X105.823 Y137.164 E7.55403
G1 X106.753 Y138.094 E7.62336
G1 X105.857 Y138.094 E7.67055
G1 X104.927 Y137.164 E7.73988
G1 X104.031 Y137.164 E7.78706
G1 X104.962 Y138.094 E7.85639
G1 X104.066 Y138.094 E7.90358
G1 X103.135 Y137.164 E7.97291
G1 X102.239 Y137.164 E8.02010
G1 X103.170 Y138.094 E8.08943
G1 X102.274 Y138.094 E8.13662
G1 X101.343 Y137.164 E8.20595
G1 X100.447 Y137.164 E8.25314
G1 X101.378 Y138.094 E8.32247
G1 X100.482 Y138.094 E8.36966
G1 X99.551 Y137.164 E8.43899
G1 X98.656 Y137.164 E8.48617
G1 X99.586 Y138.094 E8.55550
G1 X98.690 Y138.094 E8.60269
G1 X97.760 Y137.164 E8.67202
G1 X96.864 Y137.164 E8.71921
G1 X97.795 Y138.094 E8.78854
G1 X96.899 Y138.094 E8.83573
G1 X95.968 Y137.164 E8.90506
G1 X95.072 Y137.164 E8.95225
G1 X96.003 Y138.094 E9.02158
G1 X95.107 Y138.094 E9.06877
G1 X94.176 Y137.164 E9.13810
G1 X93.280 Y137.164 E9.18529
G1 X94.211 Y138.094 E9.25461
G1 X93.315 Y138.094 E9.30180
G1 X92.385 Y137.164 E9.37113
G1 X91.489 Y137.164 E9.41832
G1 X92.419 Y138.094 E9.48765
G1 X91.523 Y138.094 E9.53484
G1 X90.593 Y137.164 E9.60417
G1 X89.697 Y137.164 E9.65136
G1 X90.628 Y138.094 E9.72069
G1 X89.732 Y138.094 E9.76788
G1 X88.801 Y137.164 E9.83721
G1 X87.905 Y137.164 E9.88440
G1 X88.836 Y138.094 E9.95373
G1 X87.940 Y138.094 E10.00091
G1 X87.009 Y137.164 E10.07024
G1 X86.113 Y137.164 E10.11743
G1 X87.044 Y138.094 E10.18676
G1 X86.148 Y138.094 E10.23395
G1 X85.218 Y137.164 E10.30328
G1 X84.322 Y137.164 E10.35047
G1 X85.252 Y138.094 E10.41980
G1 X84.357 Y138.094 E10.46699
G1 X83.426 Y137.164 E10.53632
G1 X82.530 Y137.164 E10.58351
G1 X83.461 Y138.094 E10.65284
G1 X82.565 Y138.094 E10.70003
G1 X81.567 Y137.096 E10.77439
G1 F4320
G1 X82.565 Y138.094 E10.21557
G1 F4320
G1 X83.461 Y138.094 E9.86096
G1 F4320
G1 X82.530 Y137.164 E9.33996
G1 F4320
G1 X83.426 Y137.164 E8.98534
G1 F4320
G1 X83.624 Y137.362 E8.87439
G1 E8.77439 F1800.00000
G92 E0
G1 X137.391 Y121.630 F5400.000
G1 E2.00000 F1800.00000
G1 F1200
G1 X137.921 Y120.934 E2.04569
G1 X138.162 Y120.678 E2.06405
G1 X138.421 Y120.464 E2.08161
G1 X138.705 Y120.284 E2.09917
G1 X139.009 Y120.141 E2.11673
G1 X139.329 Y120.037 E2.13429
G1 X139.658 Y119.974 E2.15182
G1 X139.998 Y119.953 E2.16963
G1 X140.476 Y119.995 E2.19465
G1 X140.980 Y120.139 E2.22207
G1 X141.446 Y120.379 E2.24944
G1 X141.826 Y120.678 E2.27473
G1 X142.161 Y121.055 E2.30110
G1 X142.416 Y121.490 E2.32738
G1 X142.588 Y121.963 E2.35371
G1 X142.665 Y122.461 E2.38004
G1 X142.651 Y122.965 E2.40636
G1 X142.628 Y123.110 E2.41407
G1 X142.491 Y123.595 E2.44040
G1 X142.266 Y124.046 E2.46673
G1 X142.044 Y124.352 E2.48647
G1 X141.585 Y124.783 E2.51938
