; generated by Slic3r 1.33.8-prusa3d-win64 on 2017-05-16 at 14:05:49

; external perimeters extrusion width = 0.40mm
; perimeters extrusion width = 0.55mm
; infill extrusion width = 0.82mm
; solid infill extrusion width = 0.68mm
; top infill extrusion width = 0.68mm

M107
M80 ; turn on PSU
M140 S55
M104 S240 ; start E heating
M17; enable motors
G28 X Y ; Z ; Home
M190 S55
M109 S240
G91
G1 E5 F200
G90
G21 ; set units to millimeters
G90 ; use absolute coordinates
M82 ; use absolute distances for extrusion
G92 E0
G1 E-2.00000 F1800.00000
G92 E0
G1 Z0.200 F5400.000
G1 X106.841 Y127.411 F5400.000
G1 E2.00000 F1800.00000
G1 F1200
G1 X167.036 Y125.722 E4.53907
G1 X167.723 Y125.737 E4.56804
G1 X168.419 Y125.807 E4.59752
G1 X169.270 Y125.968 E4.63407
G1 X199.202 Y132.815 E5.92869
G1 X199.869 Y133.049 E5.95852
G1 X200.189 Y133.202 E5.97344
G1 X200.501 Y133.379 E5.98860
G1 X200.796 Y133.575 E6.00353
G1 X201.081 Y133.794 E6.01868
G1 X201.345 Y134.030 E6.03361
G1 X201.595 Y134.288 E6.04877
G1 X202.031 Y134.845 E6.07860
G1 X202.219 Y135.145 E6.09352
G1 X202.387 Y135.463 E6.10868
G1 X202.530 Y135.787 E6.12361
G1 X202.652 Y136.125 E6.13877
G1 X202.747 Y136.466 E6.15369
G1 X202.820 Y136.818 E6.16885
G1 X202.871 Y137.219 E6.18587
G1 X202.889 Y137.628 E6.20313
G1 X202.889 Y152.383 E6.82528
G1 X202.842 Y153.034 E6.85278
G1 X202.711 Y153.673 E6.88029
G1 X202.602 Y154.021 E6.89568
G1 X202.468 Y154.361 E6.91107
G1 X202.310 Y154.690 E6.92646
G1 X202.131 Y155.001 E6.94162
G1 X201.930 Y155.300 E6.95678
G1 X201.705 Y155.587 E6.97217
G1 X201.459 Y155.857 E6.98756
G1 X201.194 Y156.108 E7.00295
G1 X200.916 Y156.336 E7.01811
G1 X200.618 Y156.547 E7.03350
G1 X200.306 Y156.736 E7.04889
G1 X199.980 Y156.901 E7.06429
G1 X199.644 Y157.042 E7.07968
G1 X199.298 Y157.158 E7.09507
G1 X198.944 Y157.249 E7.11046
G1 X198.590 Y157.313 E7.12562
G1 X198.106 Y157.359 E7.14614
G1 X167.593 Y158.738 E8.43398
G1 X167.036 Y158.746 E8.45747
G1 X107.025 Y157.066 E10.98876
G1 X106.436 Y157.014 E11.01371
G1 X105.851 Y156.891 E11.03888
G1 X105.508 Y156.783 E11.05404
G1 X105.174 Y156.651 E11.06920
G1 X104.850 Y156.496 E11.08436
G1 X104.533 Y156.315 E11.09975
G1 X104.234 Y156.115 E11.11491
G1 X103.946 Y155.890 E11.13030
G1 X103.680 Y155.649 E11.14546
G1 X103.428 Y155.385 E11.16085
G1 X103.199 Y155.108 E11.17601
G1 X102.987 Y154.810 E11.19140
G1 X102.801 Y154.503 E11.20656
G1 X102.634 Y154.178 E11.22195
G1 X102.494 Y153.847 E11.23711
G1 X102.376 Y153.502 E11.25250
G1 X102.284 Y153.154 E11.26766
G1 X102.217 Y152.795 E11.28305
G1 X102.176 Y152.432 E11.29844
G1 X102.162 Y152.068 E11.31383
G1 X102.165 Y132.259 E12.14905
G1 X102.199 Y131.807 E12.16817
G1 X102.275 Y131.354 E12.18752
G1 X102.393 Y130.910 E12.20687
G1 X102.550 Y130.479 E12.22623
G1 X102.744 Y130.069 E12.24535
G1 X102.977 Y129.674 E12.26470
G1 X103.245 Y129.301 E12.28405
G1 X103.546 Y128.955 E12.30341
G1 X103.874 Y128.641 E12.32253
G1 X104.232 Y128.355 E12.34188
G1 X104.616 Y128.102 E12.36123
G1 X105.021 Y127.886 E12.38059
G1 X105.439 Y127.710 E12.39971
G1 X105.876 Y127.571 E12.41906
G1 X106.324 Y127.472 E12.43841
G1 X106.781 Y127.415 E12.45780
G1 X106.852 Y127.918 F5400.000
G1 F1200
G1 X167.050 Y126.229 E14.99698
G1 X167.689 Y126.243 E15.02394
G1 X168.341 Y126.308 E15.05156
G1 X169.159 Y126.462 E15.08667
G1 X199.042 Y133.297 E16.37917
G1 X199.656 Y133.510 E16.40657
G1 X200.229 Y133.806 E16.43375
G1 X200.757 Y134.185 E16.46115
G1 X201.225 Y134.635 E16.48854
G1 X201.624 Y135.148 E16.51594
G1 X201.945 Y135.713 E16.54334
G1 X202.179 Y136.314 E16.57052
G1 X202.327 Y136.946 E16.59792
G1 X202.368 Y137.290 E16.61251
G1 X202.382 Y137.636 E16.62710
G1 X202.382 Y152.376 E17.24861
G1 X202.342 Y152.951 E17.27292
G1 X202.228 Y153.517 E17.29723
G1 X202.011 Y154.140 E17.32507
G1 X201.705 Y154.725 E17.35291
G1 X201.317 Y155.259 E17.38075
G1 X200.855 Y155.731 E17.40859
G1 X200.329 Y156.130 E17.43643
G1 X199.751 Y156.448 E17.46427
G1 X199.132 Y156.678 E17.49211
G1 X198.481 Y156.816 E17.52017
G1 X198.084 Y156.852 E17.53697
G1 X167.313 Y158.239 E18.83571
G1 X107.040 Y156.560 E21.37804
G1 X106.518 Y156.513 E21.40015
G1 X106.009 Y156.408 E21.42203
G1 X105.386 Y156.191 E21.44987
G1 X104.801 Y155.885 E21.47771
G1 X104.267 Y155.497 E21.50554
G1 X103.795 Y155.035 E21.53338
G1 X103.396 Y154.509 E21.56122
G1 X103.080 Y153.935 E21.58884
G1 X102.849 Y153.316 E21.61668
G1 X102.711 Y152.670 E21.64452
G1 X102.669 Y152.064 E21.67015
G1 X102.671 Y132.293 E22.50377
G1 X102.700 Y131.885 E22.52101
G1 X102.767 Y131.482 E22.53825
G1 X102.869 Y131.086 E22.55550
G1 X103.009 Y130.696 E22.57296
G1 X103.182 Y130.325 E22.59021
G1 X103.391 Y129.967 E22.60767
G1 X103.628 Y129.634 E22.62491
G1 X103.898 Y129.320 E22.64238
G1 X104.192 Y129.036 E22.65962
G1 X104.511 Y128.779 E22.67686
G1 X104.851 Y128.553 E22.69411
G1 X105.215 Y128.356 E22.71157
G1 X105.591 Y128.195 E22.72882
G1 X105.985 Y128.067 E22.74628
G1 X106.384 Y127.977 E22.76352
G1 X106.792 Y127.923 E22.78089
G1 F4320
G1 X111.591 Y127.788 E20.88089
G1 E20.78089 F1800.00000
G92 E0
G1 X196.736 Y140.794 F5400.000
G1 E2.00000 F1800.00000
G1 F1200
G1 X196.489 Y140.892 E2.01121
G1 X195.975 Y141.178 E2.03600
G1 X195.530 Y141.501 E2.05917
G1 X195.114 Y141.891 E2.08322
G1 X194.751 Y142.331 E2.10727
G1 X194.445 Y142.812 E2.13131
G1 X194.211 Y143.310 E2.15449
G1 X194.027 Y143.868 E2.17928
G1 X193.919 Y144.431 E2.20345
G1 X193.884 Y145.000 E2.22750
G1 X193.918 Y145.549 E2.25067
G1 X194.025 Y146.127 E2.27546
G1 X194.203 Y146.672 E2.29963
G1 X194.445 Y147.188 E2.32368
G1 X194.751 Y147.669 E2.34772
G1 X195.114 Y148.109 E2.37177
G1 X195.530 Y148.499 E2.39582
G1 X195.992 Y148.834 E2.41986
G1 X196.491 Y149.109 E2.44391
G1 X196.736 Y149.206 E2.45500
G1 X196.736 Y149.656 E2.47397
G1 X196.345 Y149.522 E2.49138
G1 X195.768 Y149.250 E2.51828
G1 X195.536 Y149.113 E2.52965
G1 X195.014 Y148.733 E2.55689
G1 X194.811 Y148.555 E2.56825
G1 X194.381 Y148.097 E2.59474
G1 X194.015 Y147.593 E2.62100
G1 X193.875 Y147.356 E2.63260
G1 X193.608 Y146.788 E2.65907
G1 X193.415 Y146.196 E2.68533
G1 X193.355 Y145.928 E2.69693
G1 X193.274 Y145.287 E2.72414
G1 X193.265 Y145.018 E2.73551
G1 X193.305 Y144.391 E2.76199
G1 X193.419 Y143.792 E2.78772
G1 X193.613 Y143.194 E2.81420
G1 X193.720 Y142.947 E2.82557
G1 X194.020 Y142.401 E2.85182
G1 X194.382 Y141.903 E2.87778
G1 X194.800 Y141.458 E2.90353
G1 X195.283 Y141.058 E2.92998
G1 X195.506 Y140.906 E2.94134
G1 X196.072 Y140.595 E2.96858
G1 X196.328 Y140.484 E2.98036
G1 X196.736 Y140.344 E2.99853
G1 X196.736 Y140.734 E3.01497
G1 X197.243 Y141.139 F5400.000
G1 F1200
G1 X196.706 Y141.351 E3.03931
G1 X196.248 Y141.606 E3.06141
G1 X195.854 Y141.892 E3.08195
G1 X195.485 Y142.239 E3.10331
G1 X195.162 Y142.629 E3.12466
G1 X194.891 Y143.057 E3.14602
G1 X194.683 Y143.498 E3.16656
G1 X194.519 Y143.995 E3.18866
G1 X194.423 Y144.494 E3.21008
G1 X194.392 Y145.000 E3.23144
G1 X194.422 Y145.486 E3.25198
G1 X194.518 Y146.002 E3.27408
G1 X194.675 Y146.485 E3.29550
G1 X194.891 Y146.943 E3.31686
G1 X195.162 Y147.371 E3.33822
G1 X195.485 Y147.761 E3.35957
G1 X195.854 Y148.108 E3.38093
G1 X196.264 Y148.405 E3.40229
G1 X196.708 Y148.649 E3.42364
G1 X197.243 Y148.861 E3.44791
G1 X197.243 Y150.367 E3.51139
G1 X196.154 Y149.992 E3.55993
G1 X195.531 Y149.699 E3.58900
G1 X195.257 Y149.537 E3.60238
G1 X194.696 Y149.129 E3.63164
G1 X194.458 Y148.919 E3.64502
G1 X193.990 Y148.421 E3.67386
G1 X193.591 Y147.872 E3.70246
G1 X193.426 Y147.594 E3.71608
G1 X193.135 Y146.976 E3.74491
G1 X192.925 Y146.330 E3.77351
G1 X192.855 Y146.015 E3.78713
G1 X192.768 Y145.327 E3.81637
G1 X192.758 Y145.010 E3.82975
G1 X192.801 Y144.327 E3.85859
G1 X192.927 Y143.665 E3.88701
G1 X193.138 Y143.015 E3.91584
G1 X193.264 Y142.724 E3.92923
G1 X193.591 Y142.129 E3.95783
G1 X193.990 Y141.579 E3.98648
G1 X194.452 Y141.087 E4.01492
G1 X194.978 Y140.652 E4.04373
G1 X195.241 Y140.474 E4.05711
G1 X195.849 Y140.139 E4.08636
G1 X196.145 Y140.011 E4.09997
G1 X197.243 Y139.633 E4.14893
G1 X197.243 Y141.079 E4.20988
G1 F4320
G1 X196.706 Y141.351 E3.97162
G1 F4320
G1 X196.248 Y141.606 E3.76413
G1 F4320
G1 X195.854 Y141.892 E3.57132
G1 F4320
G1 X195.485 Y142.239 E3.37083
G1 F4320
G1 X195.162 Y142.629 E3.17033
G1 F4320
G1 X194.891 Y143.057 E2.96983
G1 F4320
G1 X194.683 Y143.498 E2.77701
G1 F4320
G1 X194.519 Y143.995 E2.56953
G1 F4320
G1 X194.423 Y144.494 E2.36841
G1 F4320
G1 X194.414 Y144.642 E2.30988
G1 E2.20988 F1800.00000
G92 E0
G1 X196.875 Y140.889 F5400.000
G1 X196.875 Y140.889 F5400.000
G1 X196.518 Y140.646 F5400.000
G1 X196.419 Y140.684 F5400.000
G1 X196.417 Y140.685 F5400.000
G1 X196.378 Y140.702 F5400.000
G1 X196.154 Y140.812 F5400.000
G1 X195.897 Y140.948 F5400.000
G1 X195.886 Y140.955 F5400.000
G1 X195.845 Y140.979 F5400.000
G1 X195.653 Y141.105 F5400.000
G1 X195.416 Y141.272 F5400.000
G1 X195.389 Y141.292 F5400.000
G1 X195.351 Y141.323 F5400.000
G1 X195.194 Y141.457 F5400.000
G1 X194.980 Y141.651 F5400.000
G1 X194.939 Y141.692 F5400.000
G1 X194.904 Y141.728 F5400.000
G1 X194.783 Y141.861 F5400.000
G1 X194.595 Y142.080 F5400.000
G1 X194.542 Y142.147 F5400.000
G1 X194.511 Y142.189 F5400.000
G1 X194.424 Y142.311 F5400.000
G1 X194.267 Y142.551 F5400.000
G1 X194.206 Y142.650 F5400.000
G1 X194.180 Y142.697 F5400.000
G1 X194.125 Y142.801 F5400.000
G1 X193.998 Y143.058 F5400.000
G1 X193.971 Y143.120 F5400.000
G1 X193.971 Y143.120 F5400.000
G1 X193.937 Y143.194 F5400.000
G1 X193.916 Y143.244 F5400.000
G1 X193.887 Y143.322 F5400.000
G1 X193.794 Y143.593 F5400.000
G1 X193.740 Y143.768 F5400.000
G1 X193.726 Y143.822 F5400.000
G1 X193.715 Y143.868 F5400.000
G1 X193.657 Y144.148 F5400.000
G1 X193.619 Y144.365 F5400.000
G1 X193.611 Y144.420 F5400.000
G1 X193.610 Y144.430 F5400.000
G1 X193.587 Y144.715 F5400.000
G1 X193.575 Y144.972 F5400.000
G1 X193.574 Y145.000 F5400.000
G1 X193.575 Y145.028 F5400.000
G1 X193.587 Y145.285 F5400.000
G1 X193.604 Y145.499 F5400.000
G1 X193.610 Y145.570 F5400.000
G1 X193.611 Y145.580 F5400.000
G1 X193.619 Y145.635 F5400.000
G1 X193.657 Y145.852 F5400.000
G1 X193.715 Y146.132 F5400.000
G1 X193.726 Y146.178 F5400.000
G1 X193.740 Y146.232 F5400.000
G1 X193.794 Y146.407 F5400.000
G1 X193.887 Y146.678 F5400.000
G1 X193.916 Y146.756 F5400.000
G1 X193.937 Y146.806 F5400.000
G1 X193.998 Y146.942 F5400.000
G1 X194.125 Y147.199 F5400.000
G1 X194.180 Y147.303 F5400.000
G1 X194.206 Y147.350 F5400.000
G1 X194.267 Y147.449 F5400.000
G1 X194.424 Y147.689 F5400.000
G1 X194.511 Y147.811 F5400.000
G1 X194.542 Y147.853 F5400.000
G1 X194.595 Y147.920 F5400.000
G1 X194.783 Y148.139 F5400.000
G1 X194.904 Y148.272 F5400.000
G1 X194.939 Y148.308 F5400.000
G1 X194.980 Y148.349 F5400.000
G1 X195.194 Y148.543 F5400.000
G1 X195.351 Y148.677 F5400.000
G1 X195.389 Y148.708 F5400.000
G1 X195.416 Y148.728 F5400.000
G1 X195.653 Y148.895 F5400.000
G1 X195.845 Y149.021 F5400.000
G1 X195.886 Y149.045 F5400.000
G1 X195.897 Y149.052 F5400.000
G1 X196.154 Y149.188 F5400.000
G1 X196.378 Y149.298 F5400.000
G1 X196.416 Y149.315 F5400.000
G1 X196.419 Y149.316 F5400.000
G1 X196.518 Y149.354 F5400.000
G1 X196.650 Y149.540 F5400.000
G1 X196.875 Y149.841 F5400.000
G1 X196.575 Y150.594 F5400.000
G1 E2.00000 F1800.00000
G1 F1200
G1 X195.992 Y150.393 E2.01832
G1 X195.328 Y150.081 E2.04009
G1 X195.020 Y149.899 E2.05072
G1 X194.426 Y149.467 E2.07253
G1 X194.157 Y149.230 E2.08316
G1 X193.656 Y148.697 E2.10488
G1 X193.230 Y148.110 E2.12643
G1 X193.044 Y147.797 E2.13724
G1 X192.733 Y147.135 E2.15895
G1 X192.508 Y146.445 E2.18050
G1 X192.429 Y146.090 E2.19130
G1 X192.336 Y145.361 E2.21311
G1 X192.325 Y145.003 E2.22374
G1 X192.371 Y144.273 E2.24546
G1 X192.508 Y143.558 E2.26709
G1 X192.734 Y142.862 E2.28880
G1 X192.876 Y142.533 E2.29944
G1 X193.225 Y141.897 E2.32099
G1 X193.656 Y141.303 E2.34278
G1 X194.156 Y140.772 E2.36443
G1 X194.719 Y140.306 E2.38612
G1 X195.015 Y140.105 E2.39675
G1 X195.658 Y139.751 E2.41856
G1 X195.989 Y139.608 E2.42925
G1 X196.575 Y139.406 E2.44766
G1 X196.575 Y137.850 E2.49386
G1 X197.675 Y137.850 E2.52652
G1 X197.675 Y141.491 E2.63462
G1 X197.314 Y141.575 E2.64561
G1 X196.892 Y141.742 E2.65912
G1 X196.481 Y141.971 E2.67307
G1 X196.130 Y142.226 E2.68595
G1 X195.800 Y142.535 E2.69937
G1 X195.512 Y142.884 E2.71280
G1 X195.270 Y143.266 E2.72622
G1 X195.085 Y143.658 E2.73910
G1 X194.938 Y144.104 E2.75305
G1 X194.853 Y144.549 E2.76649
G1 X194.825 Y145.000 E2.77992
G1 X194.852 Y145.433 E2.79280
G1 X194.938 Y145.895 E2.80675
G1 X195.077 Y146.325 E2.82019
G1 X195.270 Y146.734 E2.83361
G1 X195.512 Y147.116 E2.84704
G1 X195.800 Y147.465 E2.86046
G1 X196.130 Y147.774 E2.87389
G1 X196.496 Y148.040 E2.88731
G1 X196.892 Y148.258 E2.90073
G1 X197.314 Y148.425 E2.91422
G1 X197.675 Y148.509 E2.92522
G1 X197.675 Y152.150 E3.03331
G1 X196.575 Y152.150 E3.06597
G1 X196.575 Y150.654 E3.11040
G1 X196.581 Y150.194 F5400.000
G1 X197.125 Y150.555 F5400.000
G1 F1200
G1 X197.125 Y151.934 E3.18207
G1 F4320
G1 X197.125 Y150.555 E2.63614
G1 E1.18207 F1800.00000
G92 E0
G1 X196.875 Y149.841 F5400.000
G1 X196.875 Y149.841 F5400.000
G1 X196.650 Y149.540 F5400.000
G1 X196.518 Y149.354 F5400.000
G1 X196.419 Y149.316 F5400.000
G1 X196.416 Y149.315 F5400.000
G1 X196.378 Y149.298 F5400.000
G1 X196.154 Y149.188 F5400.000
G1 X195.897 Y149.052 F5400.000
G1 X195.886 Y149.045 F5400.000
G1 X195.845 Y149.021 F5400.000
G1 X195.653 Y148.895 F5400.000
G1 X195.416 Y148.728 F5400.000
G1 X195.389 Y148.708 F5400.000
G1 X195.351 Y148.677 F5400.000
G1 X195.194 Y148.543 F5400.000
G1 X194.980 Y148.349 F5400.000
G1 X194.939 Y148.308 F5400.000
G1 X194.904 Y148.272 F5400.000
G1 X194.783 Y148.139 F5400.000
G1 X194.595 Y147.920 F5400.000
G1 X194.542 Y147.853 F5400.000
G1 X194.511 Y147.811 F5400.000
G1 X194.424 Y147.689 F5400.000
G1 X194.267 Y147.449 F5400.000
G1 X194.339 Y147.553 F5400.000
G1 E2.00000 F1800.00000
G1 F1200
G1 X194.191 Y147.325 E2.00110
G1 X193.930 Y146.783 E2.00352
G1 X193.734 Y146.204 E2.00598
G1 X193.617 Y145.589 E2.00850
G1 X193.575 Y145.023 E2.01079
G1 X193.615 Y144.396 E2.01332
G1 X193.734 Y143.795 E2.01578
G1 X193.934 Y143.202 E2.01830
G1 X194.188 Y142.688 E2.02061
G1 X194.203 Y142.662 F5400.000
G1 F1200
G1 X194.334 Y142.454 E2.02120
G1 F4320
G1 X194.203 Y142.662 E1.92386
G1 E0.02120 F1800.00000
G92 E0
G1 X197.125 Y139.445 F5400.000
G1 E2.00000 F1800.00000
G1 F1200
G1 X197.125 Y138.066 E2.07168
G1 F4320
G1 X197.125 Y139.445 E1.52575
G1 E0.07168 F1800.00000
G92 E0
G1 X186.736 Y140.344 F5400.000
G1 E2.00000 F1800.00000
G1 F1200
G1 X186.736 Y140.794 E2.01898
G1 X186.491 Y140.891 E2.03006
G1 X185.992 Y141.166 E2.05411
G1 X185.530 Y141.501 E2.07815
G1 X185.115 Y141.891 E2.10220
G1 X184.751 Y142.331 E2.12625
G1 X184.445 Y142.812 E2.15030
G1 X184.211 Y143.309 E2.17347
G1 X184.027 Y143.868 E2.19826
G1 X183.919 Y144.431 E2.22243
G1 X183.884 Y145.000 E2.24648
G1 X183.919 Y145.569 E2.27052
G1 X184.026 Y146.129 E2.29457
G1 X184.203 Y146.672 E2.31862
G1 X184.445 Y147.188 E2.34266
G1 X184.751 Y147.669 E2.36671
G1 X185.115 Y148.109 E2.39076
G1 X185.530 Y148.499 E2.41481
G1 X185.992 Y148.834 E2.43885
G1 X186.491 Y149.109 E2.46290
G1 X186.736 Y149.206 E2.47398
G1 X186.736 Y149.656 E2.49296
G1 X186.345 Y149.522 E2.51037
G1 X185.768 Y149.250 E2.53727
G1 X185.536 Y149.113 E2.54863
G1 X185.014 Y148.733 E2.57587
G1 X184.811 Y148.555 E2.58724
G1 X184.381 Y148.097 E2.61372
G1 X184.012 Y147.589 E2.64020
G1 X183.875 Y147.357 E2.65156
G1 X183.608 Y146.789 E2.67805
G1 X183.414 Y146.191 E2.70453
G1 X183.355 Y145.928 E2.71589
G1 X183.276 Y145.305 E2.74238
G1 X183.276 Y144.677 E2.76886
G1 X183.301 Y144.409 E2.78022
G1 X183.419 Y143.792 E2.80670
G1 X183.613 Y143.194 E2.83319
G1 X183.720 Y142.947 E2.84455
G1 X184.023 Y142.397 E2.87103
G1 X184.381 Y141.903 E2.89674
G1 X184.802 Y141.455 E2.92266
G1 X185.283 Y141.058 E2.94896
G1 X185.506 Y140.906 E2.96033
G1 X186.072 Y140.595 E2.98757
G1 X186.679 Y140.363 E3.01497
G1 X187.243 Y139.633 F5400.000
G1 F1200
G1 X187.243 Y141.139 E3.07844
G1 X186.708 Y141.351 E3.10271
G1 X186.264 Y141.595 E3.12407
G1 X185.854 Y141.892 E3.14543
G1 X185.485 Y142.239 E3.16678
G1 X185.162 Y142.629 E3.18814
G1 X184.891 Y143.057 E3.20950
G1 X184.683 Y143.498 E3.23003
G1 X184.519 Y143.995 E3.25214
