;Project MiniTx_Er9XR_PRO-F.Cu
;Created by Estlcam version 10 build 10,031
;Machining time about 00:14:23 hours

G90
M03 S24000
G92 X Y Z ; reset to 0
G00 Z2.0000


;No. 1: Engraving 19
G00 X-0.7560 Y6.1890
G00 Z0.5000
G01 Z-0.1500 F120 S24000
G01 X0.7560 F180
G01 X0.9239 Y6.1722
G01 X1.0853 Y6.1227
G01 X1.2338 Y6.0426
G01 X1.3637 Y5.9347
G01 X1.4699 Y5.8035
G01 X1.5482 Y5.6540
G01 X1.5957 Y5.4920
G01 X1.6103 Y5.3239
G01 X1.5917 Y5.1561
G01 X1.5405 Y4.9953
G01 X1.4587 Y4.8477
G01 X1.3495 Y4.7190
G01 X1.2171 Y4.6142
G01 X1.0668 Y4.5375
G01 X0.9043 Y4.4919
G01 X0.7360 Y4.4790
G01 X-0.7560
G01 X-0.8713 Y4.4865
G01 X-0.9844 Y4.5096
G01 X-1.0934 Y4.5480
G01 X-1.1961 Y4.6008
G01 X-1.2906 Y4.6672
G01 X-1.3752 Y4.7459
G01 X-1.4482 Y4.8354
G01 X-1.5084 Y4.9340
G01 X-1.7396
G01 X-2.2670 Y4.4066
G01 Y1.0544
G01 X-1.6126 Y0.4000
G01 X-1.5180
G01 X-1.4536 Y0.4997
G01 X-1.3765 Y0.5898
G01 X-1.2880 Y0.6688
G01 X-1.1897 Y0.7352
G01 X-1.0834 Y0.7879
G01 X-0.9709 Y0.8258
G01 X-0.8545 Y0.8483
G01 X-0.7360 Y0.8550
G01 X0.7560
G01 X0.8711 Y0.8469
G01 X0.9840 Y0.8234
G01 X1.0927 Y0.7848
G01 X1.1952 Y0.7320
G01 X1.2896 Y0.6657
G01 X1.3743 Y0.5873
G01 X1.4475 Y0.4982
G01 X1.5080 Y0.4000
G01 X3.0760
G01 X3.9150 Y1.7357
G01 Y2.4820
G01 X3.9170 Y2.5019
G01 X3.9230 Y2.5206
G01 X3.9324 Y2.5378
G01 X3.9449 Y2.5530
G01 X3.9600 Y2.5655
G01 X3.9772 Y2.5749
G01 X3.9959 Y2.5810
G01 X4.0154 Y2.5833
G01 X4.0350 Y2.5820
G01 X5.2150
G01 X5.2370 Y2.5794
G01 X5.2579 Y2.5721
G01 X5.2768 Y2.5605
G01 X5.2927 Y2.5451
G01 X5.3050 Y2.5266
G01 X5.3130 Y2.5060
G01 X5.3164 Y2.4841
G01 X5.3150 Y2.4620
G01 Y1.5820
G01 X5.3124 Y1.5600
G01 X5.3051 Y1.5391
G01 X5.2935 Y1.5202
G01 X5.2781 Y1.5043
G01 X5.2596 Y1.4920
G01 X5.2390 Y1.4840
G01 X5.2171 Y1.4806
G01 X5.1950 Y1.4820
G01 X4.7050
G01 X4.0235 Y0.4000
G01 X10.6296
G01 X10.8933 Y0.6637
G01 X10.9526 Y0.7130
G01 X11.0204 Y0.7497
G01 X11.0941 Y0.7727
G01 X11.1707 Y0.7809
G01 X12.1980 Y0.7810
G01 X12.2625 Y0.8806
G01 X12.3397 Y0.9706
G01 X12.4282 Y1.0496
G01 X12.5265 Y1.1159
G01 X12.6328 Y1.1686
G01 X12.7451 Y1.2066
G01 X12.8616 Y1.2292
G01 X12.9800 Y1.2360
G01 X14.4720
G01 X14.6398 Y1.2190
G01 X14.8009 Y1.1694
G01 X14.9492 Y1.0891
G01 X15.0789 Y0.9813
G01 X15.1848 Y0.8501
G01 X15.2630 Y0.7007
G01 X15.3104 Y0.5389
G01 X15.3250 Y0.3709
G01 X15.3064 Y0.2033
G01 X15.2553 Y0.0426
G01 X15.1737 Y-0.1049
G01 X15.0647 Y-0.2336
G01 X14.9325 Y-0.3383
G01 X14.7824 Y-0.4151
G01 X14.6201 Y-0.4609
G01 X14.4520 Y-0.4740
G01 X12.9600
G01 X12.8447 Y-0.4665
G01 X12.7316 Y-0.4434
G01 X12.6226 Y-0.4050
G01 X12.5199 Y-0.3522
G01 X12.4254 Y-0.2858
G01 X12.3408 Y-0.2071
G01 X12.2678 Y-0.1176
G01 X12.2076 Y-0.0190
G01 X11.3414
G01 X11.0777 Y-0.2827
G01 X11.0130 Y-0.3354
G01 X10.9388 Y-0.3735
G01 X10.8583 Y-0.3953
G01 X10.7750 Y-0.4000
G01 X1.5180
G01 X1.4523 Y-0.4983
G01 X1.3744 Y-0.5874
G01 X1.2857 Y-0.6655
G01 X1.1875 Y-0.7315
G01 X1.0816 Y-0.7842
G01 X0.9698 Y-0.8228
G01 X0.8540 Y-0.8465
G01 X0.7360 Y-0.8550
G01 X-0.7560
G01 X-0.8711 Y-0.8469
G01 X-0.9840 Y-0.8233
G01 X-1.0928 Y-0.7847
G01 X-1.1953 Y-0.7319
G01 X-1.2897 Y-0.6656
G01 X-1.3744 Y-0.5872
G01 X-1.4477 Y-0.4982
G01 X-1.5084 Y-0.4000
G01 X-1.6399 Y-0.4216
G01 X-1.7731 Y-0.4145
G01 X-1.9017 Y-0.3792
G01 X-2.0198 Y-0.3173
G01 X-2.0362 Y-0.3059
G01 X-2.9497 Y0.6063
G01 X-2.9990 Y0.6656
G01 X-3.0357 Y0.7334
G01 X-3.0587 Y0.8071
G01 X-3.0669 Y0.8837
G01 X-3.0670 Y4.5720
G01 X-3.0660 Y4.6003
G01 X-3.0517 Y4.6611
G01 X-3.0313 Y4.7201
G01 X-3.0049 Y4.7766
G01 X-2.9729 Y4.8302
G01 X-2.1877 Y5.6167
G01 X-2.1230 Y5.6694
G01 X-2.0488 Y5.7075
G01 X-1.9683 Y5.7293
G01 X-1.8850 Y5.7340
G01 X-1.5180
G01 X-1.4564 Y5.8298
G01 X-1.3830 Y5.9169
G01 X-1.2990 Y5.9937
G01 X-1.2057 Y6.0591
G01 X-1.1048 Y6.1120
G01 X-0.9980 Y6.1514
G01 X-0.8869 Y6.1767
G01 X-0.7736 Y6.1874
G00 Z2.0000


;No. 2: Engraving 18
G00 X2.6659 Y10.0250 Z2.0000
G00 Z0.5000
G01 Z-0.1500 F120
G01 X1.5086 Y10.0146 F180
G01 X1.4456 Y9.9152
G01 X1.3698 Y9.8252
G01 X1.2825 Y9.7463
G01 X1.1854 Y9.6798
G01 X1.0802 Y9.6270
G01 X0.9689 Y9.5888
G01 X0.8535 Y9.5660
G01 X0.7360 Y9.5590
G01 X-0.7560
G01 X-0.9047 Y9.5722
G01 X-1.0489 Y9.6111
G01 X-1.1841 Y9.6744
G01 X-1.3063 Y9.7603
G01 X-1.4116 Y9.8661
G01 X-1.4970 Y9.9886
G01 X-1.5597 Y10.1241
G01 X-1.5979 Y10.2685
G01 X-1.5990 Y10.5450
G01 X-1.5617 Y10.6938
G01 X-1.4985 Y10.8337
G01 X-1.4114 Y10.9600
G01 X-1.3032 Y11.0687
G01 X-1.1772 Y11.1564
G01 X-1.0377 Y11.2202
G01 X-0.8891 Y11.2582
G01 X-0.7360 Y11.2690
G01 X0.7560
G01 X0.8712 Y11.2616
G01 X0.9844 Y11.2385
G01 X1.0933 Y11.2001
G01 X1.1960 Y11.1473
G01 X1.2905 Y11.0809
G01 X1.3750 Y11.0022
G01 X1.4480 Y10.9126
G01 X1.5080 Y10.8140
G01 X2.4356
G01 X2.4460 Y10.8244
G01 Y11.3340
G01 X2.4480 Y11.3539
G01 X2.4540 Y11.3726
G01 X2.4634 Y11.3898
G01 X2.4759 Y11.4050
G01 X2.4910 Y11.4175
G01 X2.5082 Y11.4269
G01 X2.5269 Y11.4330
G01 X2.5464 Y11.4353
G01 X2.5660 Y11.4340
G01 X3.2960
G01 X3.3180 Y11.4314
G01 X3.3389 Y11.4241
G01 X3.3578 Y11.4125
G01 X3.3737 Y11.3971
G01 X3.3860 Y11.3786
G01 X3.3940 Y11.3580
G01 X3.3974 Y11.3361
G01 X3.3960 Y11.3140
G01 Y11.2140
G01 X3.3993 Y11.2037
G01 X4.1623 Y11.9667
G01 X4.2270 Y12.0194
G01 X4.3012 Y12.0575
G01 X4.3817 Y12.0793
G01 X4.4650 Y12.0840
G01 X5.0210
G01 X5.0010
G01 X5.0243 Y12.0899
G01 X5.0476 Y12.0960
G01 X5.0708 Y12.1023
G01 X5.0939 Y12.1087
G01 X6.1610 Y12.1090
G01 X6.1830 Y12.1064
G01 X6.2039 Y12.0991
G01 X6.2228 Y12.0875
G01 X6.2387 Y12.0721
G01 X6.2510 Y12.0536
G01 X6.2590 Y12.0330
G01 X6.2624 Y12.0111
G01 X6.2610 Y11.9890
G01 Y11.3590
G01 X6.2584 Y11.3370
G01 X6.2511 Y11.3161
G01 X6.2395 Y11.2972
G01 X6.2241 Y11.2813
G01 X6.2056 Y11.2690
G01 X6.1850 Y11.2610
G01 X6.1631 Y11.2576
G01 X6.1410 Y11.2590
G01 X5.1010
G01 X5.0757 Y11.2639
G01 X5.0505 Y11.2697
G01 X5.0256 Y11.2764
G01 X5.0010 Y11.2840
G01 X5.0210
G01 X4.6104
G01 X3.7777 Y10.4513
G01 X3.6954 Y10.3888
G01 X3.6009 Y10.3471
G01 X3.4992 Y10.3285
G01 X3.3960 Y10.3340
G01 Y10.1340
G01 X3.3934 Y10.1120
G01 X3.3861 Y10.0911
G01 X3.3745 Y10.0722
G01 X3.3591 Y10.0563
G01 X3.3406 Y10.0440
G01 X3.3200 Y10.0360
G01 X3.2981 Y10.0326
G01 X3.2760 Y10.0340
G01 X3.1290 Y10.0553
G01 X2.9806 Y10.0613
G01 X2.8324 Y10.0519
G01 X2.6860 Y10.0272
G00 Z2.0000


;No. 3: Engraving 17
G00 X1.4165 Y13.4308 Z2.0000
G00 Z0.5000
G01 Z-0.1500 F120
G01 X2.6178 Y13.3526 F180
G01 X2.6785 Y13.3418
G01 X2.7398 Y13.3352
G01 X2.8014 Y13.3327
G01 X2.8630 Y13.3344
G01 X3.1463 Y13.6177
G01 X3.2110 Y13.6704
G01 X3.2852 Y13.7085
G01 X3.3657 Y13.7303
G01 X3.4490 Y13.7350
G01 X5.3340
G01 X5.3646 Y13.7334
G01 X5.3950 Y13.7296
G01 X5.4251 Y13.7236
G01 X5.4547 Y13.7154
G01 X5.6349 Y13.6101
G01 X5.7923 Y13.4729
G01 X5.9215 Y13.3089
G01 X6.0177 Y13.1236
G01 X6.0267 Y13.0894
G01 X6.0310 Y13.0590
G01 X6.0625 Y13.0740
G01 X6.0966 Y13.0816
G01 X6.1315 Y13.0813
G01 X6.1655 Y13.0732
G01 X6.1968 Y13.0576
G01 X6.2237 Y13.0354
G01 X6.2450 Y13.0077
G01 X6.2595 Y12.9760
G01 X6.2610 Y12.9390
G01 Y12.3090
G01 X6.2584 Y12.2870
G01 X6.2511 Y12.2661
G01 X6.2395 Y12.2472
G01 X6.2241 Y12.2313
G01 X6.2056 Y12.2190
G01 X6.1850 Y12.2110
G01 X6.1631 Y12.2076
G01 X6.1410 Y12.2090
G01 X5.1010
G01 X5.0836 Y12.2105
G01 X5.0667 Y12.2151
G01 X5.0509 Y12.2225
G01 X5.0366 Y12.2325
G01 X5.0242 Y12.2449
G01 X5.0143 Y12.2592
G01 X5.0069 Y12.2751
G01 X5.0025 Y12.2920
G01 X5.0010 Y12.3290
G01 Y12.9190
G01 X4.9900 Y12.9350
G01 X3.5944
G01 X3.3960 Y12.7366
G01 Y12.0340
G01 X3.3934 Y12.0120
G01 X3.3861 Y11.9911
G01 X3.3745 Y11.9722
G01 X3.3591 Y11.9563
G01 X3.3406 Y11.9440
G01 X3.3200 Y11.9360
G01 X3.2981 Y11.9326
G01 X3.2760 Y11.9340
G01 X2.5460
G01 X2.5286 Y11.9355
G01 X2.5117 Y11.9401
G01 X2.4959 Y11.9475
G01 X2.4816 Y11.9575
G01 X2.4692 Y11.9699
G01 X2.4593 Y11.9842
G01 X2.4519 Y12.0001
G01 X2.4475 Y12.0170
G01 X2.4460 Y12.0540
G01 Y12.5436
G01 X2.4356 Y12.5540
G01 X1.5180
G01 X1.4523 Y12.4557
G01 X1.3744 Y12.3666
G01 X1.2857 Y12.2885
G01 X1.1875 Y12.2225
G01 X1.0816 Y12.1698
G01 X0.9698 Y12.1312
G01 X0.8540 Y12.1075
G01 X0.7360 Y12.0990
G01 X-0.7560
G01 X-0.8711 Y12.1071
G01 X-0.9840 Y12.1307
G01 X-1.0928 Y12.1693
G01 X-1.1953 Y12.2221
G01 X-1.2897 Y12.2884
G01 X-1.3744 Y12.3668
G01 X-1.4477 Y12.4558
G01 X-1.5084 Y12.5540
G01 X-1.6126
G01 X-2.1400 Y12.0266
G01 Y8.9284
G01 X-1.5129 Y8.3013
G01 X-1.5001 Y8.2944
G01 X-1.4362 Y8.3901
G01 X-1.3601 Y8.4766
G01 X-1.2733 Y8.5522
G01 X-1.1772 Y8.6157
G01 X-1.0735 Y8.6658
G01 X-0.9642 Y8.7018
G01 X-0.8510 Y8.7230
G01 X-0.7360 Y8.7290
G01 X0.7560
G01 X0.8712 Y8.7216
G01 X0.9844 Y8.6985
G01 X1.0933 Y8.6601
G01 X1.1960 Y8.6073
G01 X1.2905 Y8.5409
G01 X1.3750 Y8.4622
G01 X1.4480 Y8.3726
G01 X1.5080 Y8.2740
G01 X2.3746
G01 X5.0010 Y10.9004
G01 Y11.0590
G01 X5.0030 Y11.0789
G01 X5.0090 Y11.0976
G01 X5.0184 Y11.1148
G01 X5.0309 Y11.1300
G01 X5.0460 Y11.1425
G01 X5.0632 Y11.1519
G01 X5.0819 Y11.1580
G01 X5.1014 Y11.1603
G01 X5.1210 Y11.1590
G01 X6.1610
G01 X6.1830 Y11.1564
G01 X6.2039 Y11.1491
G01 X6.2228 Y11.1375
G01 X6.2387 Y11.1221
G01 X6.2510 Y11.1036
G01 X6.2590 Y11.0830
G01 X6.2624 Y11.0611
G01 X6.2610 Y11.0390
G01 Y10.4090
G01 X6.2584 Y10.3870
G01 X6.2511 Y10.3661
G01 X6.2395 Y10.3472
G01 X6.2241 Y10.3313
G01 X6.2056 Y10.3190
G01 X6.1850 Y10.3110
G01 X6.1631 Y10.3076
G01 X6.1410 Y10.3090
G01 X5.5404
G01 X2.8227 Y7.5913
G01 X2.7971 Y7.5673
G01 X2.8211 Y7.5233
G01 X2.7857 Y7.5587
G01 X3.2037 Y7.1407
G01 X3.2530 Y7.0814
G01 X3.2897 Y7.0136
G01 X3.3127 Y6.9399
G01 X3.3209 Y6.8633
G01 X3.3210 Y5.3530
G01 X3.9150
G01 Y5.4030
G01 X3.9170 Y5.4229
G01 X3.9230 Y5.4416
G01 X3.9324 Y5.4588
G01 X3.9449 Y5.4740
G01 X3.9600 Y5.4865
G01 X3.9772 Y5.4959
G01 X3.9959 Y5.5020
G01 X4.0154 Y5.5043
G01 X4.0350 Y5.5030
G01 X5.2150
G01 X5.2370 Y5.5004
G01 X5.2579 Y5.4931
G01 X5.2768 Y5.4815
G01 X5.2927 Y5.4661
G01 X5.3050 Y5.4476
G01 X5.3130 Y5.4270
G01 X5.3164 Y5.4051
G01 X5.3150 Y5.3830
G01 Y4.5030
G01 X5.3124 Y4.4810
G01 X5.3051 Y4.4601
G01 X5.2935 Y4.4412
G01 X5.2781 Y4.4253
G01 X5.2596 Y4.4130
G01 X5.2390 Y4.4050
G01 X5.2171 Y4.4016
G01 X5.1950 Y4.4030
G01 X4.0150
G01 X3.9976 Y4.4045
G01 X3.9807 Y4.4091
G01 X3.9649 Y4.4165
G01 X3.9506 Y4.4265
G01 X3.9382 Y4.4389
G01 X3.9283 Y4.4532
G01 X3.9209 Y4.4691
G01 X3.9165 Y4.4860
G01 X3.9150 Y4.5530
G01 X3.3210
G01 Y3.6830
G01 X3.3124 Y3.6000
G01 X3.2868 Y3.5206
G01 X3.2452 Y3.4483
G01 X3.1896 Y3.3861
G01 X2.0607 Y2.2573
G01 X1.9348 Y2.1818
G01 X1.7960 Y2.1340
G01 X1.6504 Y2.1159
G01 X1.5041 Y2.1282
G01 X1.4399 Y2.0315
G01 X1.3636 Y1.9441
G01 X1.2764 Y1.8675
G01 X1.1799 Y1.8030
G01 X1.0757 Y1.7517
G01 X0.9658 Y1.7146
G01 X0.8519 Y1.6922
G01 X0.7360 Y1.6850
G01 X-0.7560
G01 X-0.9047 Y1.6984
G01 X-1.0487 Y1.7374
G01 X-1.1839 Y1.8008
G01 X-1.3059 Y1.8867
G01 X-1.4113 Y1.9924
G01 X-1.4967 Y2.1149
G01 X-1.5595 Y2.2502
G01 X-1.5979 Y2.3945
G01 X-1.5990 Y2.6710
G01 X-1.5622 Y2.8201
G01 X-1.4993 Y2.9602
G01 X-1.4123 Y3.0868
G01 X-1.3040 Y3.1957
G01 X-1.1779 Y3.2834
G01 X-1.0381 Y3.3471
G01 X-0.8892 Y3.3847
G01 X-0.7360 Y3.3950
G01 X0.7560
G01 X0.8711 Y3.3869
G01 X0.9840 Y3.3634
G01 X1.0927 Y3.3248
G01 X1.1952 Y3.2720
G01 X1.2896 Y3.2057
G01 X1.3743 Y3.1273
G01 X1.4475 Y3.0382
G01 X1.5080 Y2.9400
G01 X1.6126
G01 X2.5210 Y3.8484
G01 Y6.6926
G01 X1.7396 Y7.4740
G01 X1.5180
G01 X1.4523 Y7.3757
G01 X1.3744 Y7.2866
G01 X1.2857 Y7.2085
G01 X1.1875 Y7.1425
G01 X1.0816 Y7.0898
G01 X0.9698 Y7.0512
G01 X0.8540 Y7.0275
G01 X0.7360 Y7.0190
G01 X-0.7560
G01 X-0.8711 Y7.0271
G01 X-0.9840 Y7.0507
G01 X-1.0928 Y7.0893
G01 X-1.1953 Y7.1421
G01 X-1.2897 Y7.2084
G01 X-1.3744 Y7.2868
G01 X-1.4477 Y7.3758
G01 X-1.5084 Y7.4740
G01 X-1.6139 Y7.4635
G01 X-1.7193 Y7.4762
G01 X-1.8193 Y7.5117
G01 X-1.9092 Y7.5681
G01 X-2.8227 Y8.4803
G01 X-2.8720 Y8.5396
G01 X-2.9087 Y8.6074
G01 X-2.9317 Y8.6811
G01 X-2.9399 Y8.7577
G01 X-2.9400 Y12.1920
G01 X-2.9390 Y12.2203
G01 X-2.9297 Y12.2826
G01 X-2.9108 Y12.3427
G01 X-2.8826 Y12.3990
G01 X-2.8459 Y12.4502
G01 X-2.0607 Y13.2367
G01 X-1.9348 Y13.3122
G01 X-1.7960 Y13.3599
G01 X-1.6502 Y13.3779
G01 X-1.5040 Y13.3652
G01 X-1.4413 Y13.4634
G01 X-1.3659 Y13.5522
G01 X-1.2790 Y13.6299
G01 X-1.1823 Y13.6949
G01 X-1.0777 Y13.7462
G01 X-0.9670 Y13.7827
G01 X-0.8524 Y13.8038
G01 X-0.7360 Y13.8090
G01 X0.7560
G01 X0.8653 Y13.8014
G01 X0.9727 Y13.7800
G01 X1.0766 Y13.7451
G01 X1.1751 Y13.6973
G01 X1.2668 Y13.6374
G01 X1.3502 Y13.5663
G01 X1.4238 Y13.4852
G01 X1.4865 Y13.3954
G00 Z2.0000


;No. 4: Engraving 22
G00 X8.1310 Y9.4920 Z2.0000
G00 Z0.5000
G01 Z-0.1500 F120
G01 X8.4080 F180
G01 X8.4300 Y9.4894
G01 X8.4509 Y9.4821
G01 X8.4698 Y9.4705
G01 X8.4857 Y9.4551
G01 X8.4980 Y9.4366
G01 X8.5060 Y9.4160
G01 X8.5094 Y9.3941
G01 X8.5080 Y9.3720
G01 Y8.6420
G01 X8.5054 Y8.6200
G01 X8.4981 Y8.5991
G01 X8.4865 Y8.5802
G01 X8.4711 Y8.5643
G01 X8.4526 Y8.5520
G01 X8.4320 Y8.5440
G01 X8.4101 Y8.5406
G01 X8.3880 Y8.5420
G01 X7.2080
G01 X7.1906 Y8.5435
G01 X7.1737 Y8.5481
G01 X7.1579 Y8.5555
G01 X7.1436 Y8.5655
G01 X7.1312 Y8.5779
G01 X7.1213 Y8.5922
G01 X7.1139 Y8.6081
G01 X7.1095 Y8.6250
G01 X7.1080 Y8.6620
G01 Y9.3920
G01 X7.1100 Y9.4119
G01 X7.1160 Y9.4306
G01 X7.1254 Y9.4478
G01 X7.1379 Y9.4630
G01 X7.1530 Y9.4755
G01 X7.1702 Y9.4849
G01 X7.1889 Y9.4910
G01 X7.2084 Y9.4933
G01 X7.2280 Y9.4920
G01 X7.4310
G01 Y10.3090
G01 X7.3995 Y10.2940
G01 X7.3654 Y10.2864
G01 X7.3305 Y10.2867
G01 X7.2965 Y10.2948
G01 X7.2652 Y10.3104
G01 X7.2383 Y10.3326
G01 X7.2170 Y10.3603
G01 X7.2025 Y10.3920
G01 X7.2010 Y10.4290
G01 Y11.0590
G01 X7.2030 Y11.0789
G01 X7.2090 Y11.0976
G01 X7.2184 Y11.1148
G01 X7.2309 Y11.1300
G01 X7.2460 Y11.1425
G01 X7.2632 Y11.1519
G01 X7.2819 Y11.1580
G01 X7.3014 Y11.1603
G01 X7.3210 Y11.1590
G01 X8.3610
G01 X8.3830 Y11.1564
G01 X8.4039 Y11.1491
G01 X8.4228 Y11.1375
G01 X8.4387 Y11.1221
G01 X8.4510 Y11.1036
G01 X8.4590 Y11.0830
G01 X8.4624 Y11.0611
G01 X8.4610 Y11.0390
G01 Y10.4090
G01 X8.4584 Y10.3870
G01 X8.4511 Y10.3661
G01 X8.4395 Y10.3472
G01 X8.4241 Y10.3313
G01 X8.4056 Y10.3190
G01 X8.3850 Y10.3110
G01 X8.3631 Y10.3076
G01 X8.3410 Y10.3090
G01 X8.2310
G01 Y9.3920
G00 Z2.0000


;No. 5: Engraving 23
G00 X9.6580 Y12.2340 Z2.0000
G00 Z0.5000
G01 Z-0.1500 F120
G01 X8.4610 F180
G01 X8.4321 Y12.2231
G01 X8.4023 Y12.2153
G01 X8.3718 Y12.2106
G01 X8.3410 Y12.2090
G01 X7.3010
G01 X7.2836 Y12.2105
G01 X7.2667 Y12.2151
G01 X7.2509 Y12.2225
G01 X7.2366 Y12.2325
G01 X7.2242 Y12.2449
G01 X7.2143 Y12.2592
G01 X7.2069 Y12.2751
G01 X7.2025 Y12.2920
G01 X7.2010 Y12.3290
G01 Y12.9590
G01 X7.2030 Y12.9789
G01 X7.2090 Y12.9976
G01 X7.2184 Y13.0148
G01 X7.2309 Y13.0300
G01 X7.2460 Y13.0425
G01 X7.2632 Y13.0519
G01 X7.2819 Y13.0580
G01 X7.3014 Y13.0603
G01 X7.3210 Y13.0590
G01 X8.3610
G01 X8.3863 Y13.0541
G01 X8.4115 Y13.0483
G01 X8.4364 Y13.0416
G01 X8.4610 Y13.0340
G01 X8.4410
G01 X9.5580
G01 Y13.2340
G01 X9.5600 Y13.2539
G01 X9.5660 Y13.2726
G01 X9.5754 Y13.2898
G01 X9.5879 Y13.3050
G01 X9.6030 Y13.3175
G01 X9.6202 Y13.3269
G01 X9.6389 Y13.3330
G01 X9.6584 Y13.3353
G01 X9.6780 Y13.3340
G01 X10.4080
G01 X10.4300 Y13.3314
G01 X10.4509 Y13.3241
G01 X10.4698 Y13.3125
G01 X10.4857 Y13.2971
G01 X10.4980 Y13.2786
G01 X10.5060 Y13.2580
G01 X10.5094 Y13.2361
G01 X10.5080 Y13.2140
G01 Y13.0340
G01 X10.9446
G01 X11.2743 Y13.3637
G01 X11.3390 Y13.4164
G01 X11.4132 Y13.4545
G01 X11.4937 Y13.4763
G01 X11.5770 Y13.4810
G01 X12.1980
G01 X12.2637 Y13.5793
G01 X12.3416 Y13.6684
G01 X12.4303 Y13.7465
G01 X12.5285 Y13.8125
G01 X12.6344 Y13.8652
G01 X12.7462 Y13.9038
G01 X12.8620 Y13.9275
G01 X12.9800 Y13.9360
G01 X14.4720
G01 X14.6398 Y13.9190
G01 X14.8009 Y13.8694
G01 X14.9492 Y13.7891
G01 X15.0789 Y13.6813
G01 X15.1848 Y13.5501
G01 X15.2630 Y13.4007
G01 X15.3104 Y13.2389
G01 X15.3250 Y13.0709
G01 X15.3064 Y12.9033
G01 X15.2553 Y12.7426
G01 X15.1737 Y12.5951
G01 X15.0647 Y12.4664
G01 X14.9325 Y12.3617
G01 X14.7824 Y12.2849
G01 X14.6201 Y12.2391
G01 X14.4520 Y12.2260
G01 X14.1160
G01 Y11.3960
G01 X14.4720
G01 X14.6400 Y11.3792
G01 X14.8013 Y11.3298
G01 X14.9499 Y11.2496
G01 X15.0797 Y11.1418
G01 X15.1859 Y11.0105
G01 X15.2642 Y10.8610
G01 X15.3117 Y10.6990
G01 X15.3264 Y10.5309
G01 X15.3078 Y10.3631
G01 X15.2565 Y10.2023
G01 X15.1747 Y10.0547
G01 X15.0655 Y9.9260
G01 X14.9332 Y9.8212
G01 X14.7828 Y9.7445
G01 X14.6203 Y9.6989
G01 X14.4520 Y9.6860
G01 X14.1160
G01 Y8.8560
G01 X14.4720
G01 X14.6400 Y8.8392
G01 X14.8013 Y8.7898
G01 X14.9499 Y8.7096
G01 X15.0797 Y8.6018
G01 X15.1859 Y8.4705
G01 X15.2642 Y8.3210
G01 X15.3117 Y8.1590
G01 X15.3264 Y7.9909
G01 X15.3078 Y7.8231
G01 X15.2565 Y7.6623
G01 X15.1747 Y7.5147
G01 X15.0655 Y7.3860
G01 X14.9332 Y7.2812
G01 X14.7828 Y7.2045
G01 X14.6203 Y7.1589
G01 X14.4520 Y7.1460
G01 X14.1160
G01 Y6.3160
G01 X14.4720
G01 X14.6400 Y6.2992
G01 X14.8013 Y6.2498
G01 X14.9499 Y6.1696
G01 X15.0797 Y6.0618
G01 X15.1859 Y5.9305
G01 X15.2642 Y5.7810
G01 X15.3117 Y5.6190
G01 X15.3264 Y5.4509
G01 X15.3078 Y5.2831
G01 X15.2565 Y5.1223
G01 X15.1747 Y4.9747
G01 X15.0655 Y4.8460
G01 X14.9332 Y4.7412
G01 X14.7828 Y4.6645
G01 X14.6203 Y4.6189
G01 X14.4520 Y4.6060
G01 X12.9600
G01 X12.8113 Y4.6192
G01 X12.6671 Y4.6581
G01 X12.5319 Y4.7214
G01 X12.4097 Y4.8073
G01 X12.3044 Y4.9131
G01 X12.2190 Y5.0356
G01 X12.1563 Y5.1711
G01 X12.1181 Y5.3155
G01 X12.1170 Y5.5920
G01 X12.1538 Y5.7411
G01 X12.2167 Y5.8812
G01 X12.3037 Y6.0078
G01 X12.4120 Y6.1167
G01 X12.5381 Y6.2044
G01 X12.6779 Y6.2681
G01 X12.8268 Y6.3057
G01 X12.9800 Y6.3160
G01 X13.3160
G01 Y7.1460
G01 X12.9600
G01 X12.8113 Y7.1592
G01 X12.6671 Y7.1981
G01 X12.5319 Y7.2614
G01 X12.4097 Y7.3473
G01 X12.3044 Y7.4531
G01 X12.2190 Y7.5756
G01 X12.1563 Y7.7111
G01 X12.1181 Y7.8555
G01 X12.1170 Y8.1320
G01 X12.1538 Y8.2811
G01 X12.2167 Y8.4212
G01 X12.3037 Y8.5478
G01 X12.4120 Y8.6567
G01 X12.5381 Y8.7444
G01 X12.6779 Y8.8081
G01 X12.8268 Y8.8457
G01 X12.9800 Y8.8560
G01 X13.3160
G01 Y9.6860
G01 X12.9600
G01 X12.8113 Y9.6992
G01 X12.6671 Y9.7381
G01 X12.5319 Y9.8014
G01 X12.4097 Y9.8873
G01 X12.3044 Y9.9931
G01 X12.2190 Y10.1156
G01 X12.1563 Y10.2511
G01 X12.1181 Y10.3955
G01 X12.1170 Y10.6720
G01 X12.1538 Y10.8211
G01 X12.2167 Y10.9612
G01 X12.3037 Y11.0878
G01 X12.4120 Y11.1967
G01 X12.5381 Y11.2844
G01 X12.6779 Y11.3481
G01 X12.8268 Y11.3857
G01 X12.9800 Y11.3960
G01 X13.3160
G01 Y12.2260
G01 X12.9600
G01 X12.8449 Y12.2341
G01 X12.7320 Y12.2577
G01 X12.6232 Y12.2963
G01 X12.5207 Y12.3491
G01 X12.4263 Y12.4154
G01 X12.3416 Y12.4938
G01 X12.2683 Y12.5828
G01 X12.2076 Y12.6810
G01 X11.7224
G01 X11.3927 Y12.3513
G01 X11.3334 Y12.3020
G01 X11.2656 Y12.2653
G01 X11.1919 Y12.2423
G01 X11.1153 Y12.2341
G01 X10.5080 Y12.2340
G01 Y12.0340
G01 X10.5054 Y12.0120
G01 X10.4981 Y11.9911
G01 X10.4865 Y11.9722
G01 X10.4711 Y11.9563
G01 X10.4526 Y11.9440
G01 X10.4320 Y11.9360
G01 X10.4101 Y11.9326
G01 X10.3880 Y11.9340
G01 X9.6580
G01 X9.6406 Y11.9355
G01 X9.6237 Y11.9401
G01 X9.6079 Y11.9475
G01 X9.5936 Y11.9575
G01 X9.5812 Y11.9699
G01 X9.5713 Y11.9842
G01 X9.5639 Y12.0001
G01 X9.5595 Y12.0170
G01 X9.5580 Y12.0540
G01 Y12.3340
G00 Z2.0000


;No. 6: Engraving 21
G00 X9.9940 Y6.0350 Z2.0000
G00 Z0.5000
G01 Z-0.1500 F120
G01 X8.2940 F180
G01 X8.2766 Y6.0365
G01 X8.2597 Y6.0411
G01 X8.2439 Y6.0485
G01 X8.2296 Y6.0585
G01 X8.2172 Y6.0709
G01 X8.2073 Y6.0852
G01 X8.1999 Y6.1011
G01 X8.1955 Y6.1180
G01 X8.1940 Y6.1550
G01 Y6.8390
G01 X6.3500
G01 X6.2802 Y6.8450
G01 X6.2126 Y6.8632
G01 X6.1491 Y6.8928
G01 X6.0918 Y6.9331
G01 X5.6253 Y7.3983
G01 X5.5760 Y7.4576
G01 X5.5393 Y7.5254
G01 X5.5163 Y7.5991
G01 X5.5081 Y7.6757
G01 X5.5080 Y8.5420
G01 X5.3080
G01 X5.2906 Y8.5435
G01 X5.2737 Y8.5481
G01 X5.2579 Y8.5555
G01 X5.2436 Y8.5655
G01 X5.2312 Y8.5779
G01 X5.2213 Y8.5922
G01 X5.2139 Y8.6081
G01 X5.2095 Y8.6250
G01 X5.2080 Y8.6620
G01 Y9.3920
G01 X5.2100 Y9.4119
G01 X5.2160 Y9.4306
G01 X5.2254 Y9.4478
G01 X5.2379 Y9.4630
G01 X5.2530 Y9.4755
G01 X5.2702 Y9.4849
G01 X5.2889 Y9.4910
G01 X5.3084 Y9.4933
G01 X5.3280 Y9.4920
G01 X6.5080
G01 X6.5300 Y9.4894
G01 X6.5509 Y9.4821
G01 X6.5698 Y9.4705
G01 X6.5857 Y9.4551
G01 X6.5980 Y9.4366
G01 X6.6060 Y9.4160
G01 X6.6094 Y9.3941
G01 X6.6080 Y9.3720
G01 Y8.6420
G01 X6.6054 Y8.6200
G01 X6.5981 Y8.5991
G01 X6.5865 Y8.5802
G01 X6.5711 Y8.5643
G01 X6.5526 Y8.5520
G01 X6.5320 Y8.5440
G01 X6.5101 Y8.5406
G01 X6.4880 Y8.5420
G01 X6.3080
G01 Y7.8464
G01 X6.5154 Y7.6390
G01 X8.1940
G01 Y7.8350
G01 X8.1960 Y7.8549
G01 X8.2020 Y7.8736
G01 X8.2114 Y7.8908
G01 X8.2239 Y7.9060
G01 X8.2390 Y7.9185
G01 X8.2562 Y7.9279
G01 X8.2749 Y7.9340
G01 X8.2944 Y7.9363
G01 X8.3140 Y7.9350
G01 X9.2746
G01 X9.6330 Y8.2934
G01 Y10.0340
G01 X9.6068 Y10.0464
G01 X9.5848 Y10.0653
G01 X9.5686 Y10.0895
G01 X9.5595 Y10.1170
G01 X9.5580 Y10.1540
G01 Y11.3340
G01 X9.5600 Y11.3539
G01 X9.5660 Y11.3726
G01 X9.5754 Y11.3898
G01 X9.5879 Y11.4050
G01 X9.6030 Y11.4175
G01 X9.6202 Y11.4269
G01 X9.6389 Y11.4330
G01 X9.6584 Y11.4353
G01 X9.6780 Y11.4340
G01 X10.4080
G01 X10.4300 Y11.4314
G01 X10.4509 Y11.4241
G01 X10.4698 Y11.4125
G01 X10.4857 Y11.3971
G01 X10.4980 Y11.3786
G01 X10.5060 Y11.3580
G01 X10.5094 Y11.3361
G01 X10.5080 Y11.3140
G01 Y10.1340
G01 X10.5018 Y10.1015
G01 X10.4861 Y10.0723
G01 X10.4625 Y10.0491
G01 X10.4330 Y10.0340
G01 Y8.1280
G01 X10.4270 Y8.0582
G01 X10.4088 Y7.9906
G01 X10.3792 Y7.9271
G01 X10.3389 Y7.8698
G01 X10.0940 Y7.6236
G01 Y6.1350
G00 Z2.0000


;No. 7: Engraving 20
G00 X12.3039 Y2.4430 Z2.0000
G00 Z0.5000
G01 Z-0.1500 F120
G01 X8.5662 Y2.5205 F180
G01 X7.5152 Y1.9544
G01 X7.5150 Y1.5820
G01 X7.5124 Y1.5600
G01 X7.5051 Y1.5391
G01 X7.4935 Y1.5202
G01 X7.4781 Y1.5043
G01 X7.4596 Y1.4920
G01 X7.4390 Y1.4840
G01 X7.4171 Y1.4806
G01 X7.3950 Y1.4820
G01 X6.2150
G01 X6.1976 Y1.4835
G01 X6.1807 Y1.4881
G01 X6.1649 Y1.4955
G01 X6.1506 Y1.5055
G01 X6.1382 Y1.5179
G01 X6.1283 Y1.5322
G01 X6.1209 Y1.5481
G01 X6.1165 Y1.5650
G01 X6.1150 Y1.6020
G01 Y2.4820
G01 X6.1170 Y2.5019
G01 X6.1230 Y2.5206
G01 X6.1324 Y2.5378
G01 X6.1449 Y2.5530
G01 X6.1600 Y2.5655
G01 X6.1772 Y2.5749
G01 X6.1959 Y2.5810
G01 X6.2154 Y2.5833
G01 X6.2350 Y2.5820
G01 X6.4150
G01 Y4.4030
G01 X6.2150
G01 X6.1976 Y4.4045
G01 X6.1807 Y4.4091
G01 X6.1649 Y4.4165
G01 X6.1506 Y4.4265
G01 X6.1382 Y4.4389
G01 X6.1283 Y4.4532
G01 X6.1209 Y4.4691
G01 X6.1165 Y4.4860
G01 X6.1150 Y4.5230
G01 Y5.4030
G01 X6.1170 Y5.4229
G01 X6.1230 Y5.4416
G01 X6.1324 Y5.4588
G01 X6.1449 Y5.4740
G01 X6.1600 Y5.4865
G01 X6.1772 Y5.4959
G01 X6.1959 Y5.5020
G01 X6.2154 Y5.5043
G01 X6.2350 Y5.5030
G01 X7.4150
G01 X7.4370 Y5.5004
G01 X7.4579 Y5.4931
G01 X7.4768 Y5.4815
G01 X7.4927 Y5.4661
G01 X7.5050 Y5.4476
G01 X7.5130 Y5.4270
G01 X7.5164 Y5.4051
G01 X7.5150 Y5.3830
G01 Y4.5030
G01 X7.5124 Y4.4810
G01 X7.5051 Y4.4601
G01 X7.4935 Y4.4412
G01 X7.4781 Y4.4253
G01 X7.4596 Y4.4130
G01 X7.4390 Y4.4050
G01 X7.4171 Y4.4016
G01 X7.3950 Y4.4030
G01 X7.2150
G01 Y2.7014
G01 X8.2766 Y3.2730
G01 X8.3263 Y3.2946
G01 X8.3783 Y3.3100
G01 X8.4318 Y3.3188
G01 X8.4860 Y3.3210
G01 X12.1980
G01 X12.2637 Y3.4193
G01 X12.3416 Y3.5084
G01 X12.4303 Y3.5865
G01 X12.5285 Y3.6525
G01 X12.6344 Y3.7052
G01 X12.7462 Y3.7438
G01 X12.8620 Y3.7675
G01 X12.9800 Y3.7760
G01 X14.4720
G01 X14.6398 Y3.7590
G01 X14.8009 Y3.7094
G01 X14.9492 Y3.6291
G01 X15.0789 Y3.5213
G01 X15.1848 Y3.3901
G01 X15.2630 Y3.2407
G01 X15.3104 Y3.0789
G01 X15.3250 Y2.9109
G01 X15.3064 Y2.7433
G01 X15.2553 Y2.5826
G01 X15.1737 Y2.4351
G01 X15.0647 Y2.3064
G01 X14.9325 Y2.2017
G01 X14.7824 Y2.1249
G01 X14.6201 Y2.0791
G01 X14.4520 Y2.0660
G01 X12.9600
G01 X12.8509 Y2.0737
G01 X12.7436 Y2.0951
G01 X12.6398 Y2.1299
G01 X12.5413 Y2.1776
G01 X12.4497 Y2.2373
G01 X12.3663 Y2.3081
G01 X12.2926 Y2.3890
G01 X12.2296 Y2.4785
G00 Z2.0000


;No. 8: Engraving 31
G00 X24.9340 Y8.5170 Z2.0000
G00 Z0.5000
G01 Z-0.1500 F120
G01 Y7.3170 F180
G01 X24.9314 Y7.2950
G01 X24.9241 Y7.2741
G01 X24.9125 Y7.2552
G01 X24.8971 Y7.2393
G01 X24.8786 Y7.2270
G01 X24.8580 Y7.2190
G01 X24.8361 Y7.2156
G01 X24.8140 Y7.2170
G01 X23.9340
G01 X23.9166 Y7.2185
G01 X23.8997 Y7.2231
G01 X23.8839 Y7.2305
G01 X23.8696 Y7.2405
G01 X23.8572 Y7.2529
G01 X23.8473 Y7.2672
G01 X23.8399 Y7.2831
G01 X23.8355 Y7.3000
G01 X23.8340 Y7.3370
G01 X22.8540 Y7.3470
G01 X22.7883 Y7.2487
G01 X22.7104 Y7.1596
G01 X22.6217 Y7.0815
G01 X22.5235 Y7.0155
G01 X22.4176 Y6.9628
G01 X22.3058 Y6.9242
G01 X22.1900 Y6.9005
G01 X22.0720 Y6.8920
G01 X20.5800
G01 X20.4313 Y6.9054
G01 X20.2873 Y6.9444
G01 X20.1521 Y7.0078
G01 X20.0301 Y7.0937
G01 X19.9247 Y7.1994
G01 X19.8393 Y7.3219
G01 X19.7765 Y7.4572
G01 X19.7381 Y7.6015
G01 X19.7370 Y7.8780
G01 X19.7738 Y8.0271
G01 X19.8367 Y8.1672
G01 X19.9237 Y8.2938
G01 X20.0320 Y8.4027
G01 X20.1581 Y8.4904
G01 X20.2979 Y8.5541
G01 X20.4468 Y8.5917
G01 X20.6000 Y8.6020
G01 X22.0920
G01 X22.2072 Y8.5946
G01 X22.3204 Y8.5715
G01 X22.4293 Y8.5331
G01 X22.5320 Y8.4803
G01 X22.6265 Y8.4139
G01 X22.7110 Y8.3352
G01 X22.7840 Y8.2456
G01 X22.8440 Y8.1470
G01 X23.8340
G01 Y8.5170
G01 X23.8360 Y8.5369
G01 X23.8420 Y8.5556
G01 X23.8514 Y8.5728
G01 X23.8639 Y8.5880
G01 X23.8790 Y8.6005
G01 X23.8962 Y8.6099
G01 X23.9149 Y8.6160
G01 X23.9344 Y8.6183
G01 X23.9540 Y8.6170
G01 X24.8340
G00 Z2.0000


;No. 9: Engraving 32
G00 X24.8340 Y9.4170 Z2.0000
G00 Z0.5000
G01 Z-0.1500 F120
G01 X23.9340 F180
G01 X23.9166 Y9.4185
G01 X23.8997 Y9.4231
G01 X23.8839 Y9.4305
G01 X23.8696 Y9.4405
G01 X23.8572 Y9.4529
G01 X23.8473 Y9.4672
G01 X23.8399 Y9.4831
G01 X23.8355 Y9.5000
G01 X23.8340 Y9.5370
G01 Y10.1016
G01 X23.7946 Y10.1410
G01 X22.8540
G01 X22.7883 Y10.0427
G01 X22.7104 Y9.9536
G01 X22.6217 Y9.8755
G01 X22.5235 Y9.8095
G01 X22.4176 Y9.7568
G01 X22.3058 Y9.7182
G01 X22.1900 Y9.6945
G01 X22.0720 Y9.6860
G01 X20.5800
G01 X20.4313 Y9.6994
G01 X20.2873 Y9.7384
G01 X20.1521 Y9.8018
G01 X20.0301 Y9.8877
G01 X19.9247 Y9.9934
G01 X19.8393 Y10.1159
G01 X19.7765 Y10.2512
G01 X19.7381 Y10.3955
G01 X19.7370 Y10.6720
G01 X19.7743 Y10.8208
G01 X19.8375 Y10.9607
G01 X19.9246 Y11.0870
G01 X20.0328 Y11.1957
G01 X20.1588 Y11.2834
G01 X20.2983 Y11.3472
G01 X20.4469 Y11.3852
G01 X20.6000 Y11.3960
G01 X22.0920
G01 X22.2072 Y11.3886
G01 X22.3204 Y11.3655
G01 X22.4293 Y11.3271
G01 X22.5320 Y11.2743
G01 X22.6265 Y11.2079
G01 X22.7110 Y11.1292
G01 X22.7840 Y11.0396
G01 X22.8440 Y10.9410
G01 X23.9600
G01 X24.0404 Y10.9330
G01 X24.1175 Y10.9089
G01 X24.1882 Y10.8697
G01 X24.2494 Y10.8170
G01 X24.5186
G01 X24.8633 Y11.1617
G01 X24.9280 Y11.2144
G01 X25.0022 Y11.2525
G01 X25.0827 Y11.2743
G01 X25.1660 Y11.2790
G01 X28.4060
G01 Y11.4790
G01 X28.4080 Y11.4989
G01 X28.4140 Y11.5176
G01 X28.4234 Y11.5348
G01 X28.4359 Y11.5500
G01 X28.4510 Y11.5625
G01 X28.4682 Y11.5719
G01 X28.4869 Y11.5780
G01 X28.5064 Y11.5803
G01 X28.5260 Y11.5790
G01 X29.4060
G01 X29.4280 Y11.5764
G01 X29.4489 Y11.5691
G01 X29.4678 Y11.5575
G01 X29.4837 Y11.5421
G01 X29.4960 Y11.5236
G01 X29.5040 Y11.5030
G01 X29.5074 Y11.4811
G01 X29.5060 Y11.4590
G01 Y10.2790
G01 X29.5034 Y10.2570
G01 X29.4961 Y10.2361
G01 X29.4845 Y10.2172
G01 X29.4691 Y10.2013
G01 X29.4506 Y10.1890
G01 X29.4300 Y10.1810
G01 X29.4081 Y10.1776
G01 X29.3860 Y10.1790
G01 X28.5060
G01 X28.4886 Y10.1805
G01 X28.4717 Y10.1851
G01 X28.4559 Y10.1925
G01 X28.4416 Y10.2025
G01 X28.4292 Y10.2149
G01 X28.4193 Y10.2292
G01 X28.4119 Y10.2451
G01 X28.4075 Y10.2620
G01 X28.4060 Y10.2990
G01 Y10.4790
G01 X25.3114
G01 X24.9340 Y10.1016
G01 Y9.5170
G00 Z2.0000


;No. 10: Engraving 30
G00 X27.2470 Y7.6390 Z2.0000
G00 Z0.5000
G01 Z-0.1500 F120
G01 X26.3470 F180
G01 X26.3296 Y7.6405
G01 X26.3127 Y7.6451
G01 X26.2969 Y7.6525
G01 X26.2826 Y7.6625
G01 X26.2702 Y7.6749
G01 X26.2603 Y7.6892
G01 X26.2529 Y7.7051
G01 X26.2485 Y7.7220
G01 X26.2470 Y7.7590
G01 Y8.9390
G01 X26.2490 Y8.9589
G01 X26.2550 Y8.9776
G01 X26.2644 Y8.9948
G01 X26.2769 Y9.0100
G01 X26.2920 Y9.0225
G01 X26.3092 Y9.0319
G01 X26.3279 Y9.0380
G01 X26.3474 Y9.0403
G01 X26.3670 Y9.0390
G01 X27.2470
G01 X27.2690 Y9.0364
G01 X27.2899 Y9.0291
G01 X27.3088 Y9.0175
G01 X27.3247 Y9.0021
G01 X27.3370 Y8.9836
G01 X27.3450 Y8.9630
G01 X27.3484 Y8.9411
G01 X27.3470 Y8.9190
G01 Y8.7390
G01 X28.3920
G01 X28.4060 Y8.7530
G01 Y9.2790
G01 X28.4080 Y9.2989
G01 X28.4140 Y9.3176
G01 X28.4234 Y9.3348
G01 X28.4359 Y9.3500
G01 X28.4510 Y9.3625
G01 X28.4682 Y9.3719
G01 X28.4869 Y9.3780
G01 X28.5064 Y9.3803
G01 X28.5260 Y9.3790
G01 X29.4060
G01 X29.4280 Y9.3764
G01 X29.4489 Y9.3691
G01 X29.4678 Y9.3575
G01 X29.4837 Y9.3421
G01 X29.4960 Y9.3236
G01 X29.5040 Y9.3030
G01 X29.5074 Y9.2811
G01 X29.5060 Y9.2590
G01 Y9.0790
G01 X30.7860
G01 X30.8056 Y9.0926
G01 X30.8498 Y9.2299
G01 X30.9167 Y9.3576
G01 X31.0046 Y9.4720
G01 X31.1106 Y9.5696
G01 X31.2318 Y9.6478
G01 X31.3646 Y9.7040
G01 X31.5050 Y9.7367
G01 X31.6490 Y9.7450
G01 X33.1410
G01 X33.3084 Y9.7275
G01 X33.4690 Y9.6776
G01 X33.6168 Y9.5971
G01 X33.7460 Y9.4893
G01 X33.8516 Y9.3583
G01 X33.9294 Y9.2091
G01 X33.9766 Y9.0476
G01 X33.9912 Y8.8799
G01 X33.9727 Y8.7127
G01 X33.9218 Y8.5523
G01 X33.8404 Y8.4050
G01 X33.7318 Y8.2765
G01 X33.6002 Y8.1717
G01 X33.4505 Y8.0947
G01 X33.2887 Y8.0486
G01 X33.1210 Y8.0350
G01 X31.6290
G01 X31.4650 Y8.0445
G01 X31.3072 Y8.0901
G01 X31.1634 Y8.1696
G01 X31.0408 Y8.2790
G01 X29.5060
G01 Y8.0790
G01 X29.5034 Y8.0570
G01 X29.4961 Y8.0361
G01 X29.4845 Y8.0172
G01 X29.4691 Y8.0013
G01 X29.4506 Y7.9890
G01 X29.4300 Y7.9810
G01 X29.4081 Y7.9776
G01 X29.3860 Y7.9790
G01 X28.8000
G01 X28.7568 Y7.9632
G01 X28.7124 Y7.9513
G01 X28.6671 Y7.9432
G01 X28.6213 Y7.9391
G01 X27.3470 Y7.9390
G01 Y7.7390
G00 Z2.0000


;No. 11: Engraving 29
G00 X27.2470 Y5.4390 Z2.0000
G00 Z0.5000
G01 Z-0.1500 F120
G01 X26.6624 F180
G01 X26.1477 Y4.9243
G01 X26.0830 Y4.8716
G01 X26.0088 Y4.8335
G01 X25.9283 Y4.8117
G01 X25.8450 Y4.8070
G01 X22.8540
G01 X22.7896 Y4.7073
G01 X22.7125 Y4.6172
G01 X22.6240 Y4.5382
G01 X22.5257 Y4.4718
G01 X22.4194 Y4.4191
G01 X22.3069 Y4.3812
G01 X22.1905 Y4.3587
G01 X22.0720 Y4.3520
G01 X20.5800
G01 X20.4319 Y4.3668
G01 X20.2885 Y4.4067
G01 X20.1540 Y4.4705
G01 X20.0323 Y4.5564
G01 X19.9271 Y4.6617
G01 X19.8414 Y4.7834
G01 X19.7778 Y4.9180
G01 X19.7381 Y5.0615
G01 X19.7370 Y5.3380
G01 X19.7738 Y5.4871
G01 X19.8367 Y5.6272
G01 X19.9237 Y5.7538
G01 X20.0320 Y5.8627
G01 X20.1581 Y5.9504
G01 X20.2979 Y6.0141
G01 X20.4468 Y6.0517
G01 X20.6000 Y6.0620
G01 X22.0920
G01 X22.2072 Y6.0546
G01 X22.3204 Y6.0315
G01 X22.4293 Y5.9931
G01 X22.5320 Y5.9403
G01 X22.6265 Y5.8739
G01 X22.7110 Y5.7952
G01 X22.7840 Y5.7056
G01 X22.8440 Y5.6070
G01 X25.6996
G01 X26.2470 Y6.1544
G01 Y6.7390
G01 X26.2490 Y6.7589
G01 X26.2550 Y6.7776
G01 X26.2644 Y6.7948
G01 X26.2769 Y6.8100
G01 X26.2920 Y6.8225
G01 X26.3092 Y6.8319
G01 X26.3279 Y6.8380
G01 X26.3474 Y6.8403
G01 X26.3670 Y6.8390
G01 X27.2470
G01 X27.2644 Y6.8375
G01 X27.2813 Y6.8329
G01 X27.2971 Y6.8255
G01 X27.3114 Y6.8155
G01 X27.3238 Y6.8031
G01 X27.3337 Y6.7888
G01 X27.3411 Y6.7729
G01 X27.3455 Y6.7560
G01 X30.8670 Y6.7500
G01 X30.9314 Y6.8497
G01 X31.0085 Y6.9398
G01 X31.0970 Y7.0188
G01 X31.1953 Y7.0852
G01 X31.3016 Y7.1379
G01 X31.4141 Y7.1758
G01 X31.5305 Y7.1983
G01 X31.6490 Y7.2050
G01 X33.1410
G01 X33.3088 Y7.1880
G01 X33.4699 Y7.1384
G01 X33.6182 Y7.0581
G01 X33.7479 Y6.9503
G01 X33.8538 Y6.8191
G01 X33.9320 Y6.6697
G01 X33.9794 Y6.5079
G01 X33.9940 Y6.3399
G01 X33.9754 Y6.1723
G01 X33.9243 Y6.0116
G01 X33.8427 Y5.8641
G01 X33.7337 Y5.7354
G01 X33.6015 Y5.6307
G01 X33.4514 Y5.5539
G01 X33.2891 Y5.5081
G01 X33.1210 Y5.4950
G01 X31.6290
G01 X31.5137 Y5.5025
G01 X31.4006 Y5.5256
G01 X31.2916 Y5.5640
G01 X31.1889 Y5.6168
G01 X31.0944 Y5.6832
G01 X31.0098 Y5.7619
G01 X30.9368 Y5.8514
G01 X30.8766 Y5.9500
G01 X27.3470
G01 Y5.5390
G00 Z2.0000


;No. 12: Engraving 27
G00 X28.5060 Y-2.8560 Z2.0000
G00 Z0.5000
G01 Z-0.1500 F120
G01 X25.3114 F180
G01 X24.9340 Y-3.2334
G01 Y-3.8180
G01 X24.9314 Y-3.8400
G01 X24.9241 Y-3.8609
G01 X24.9125 Y-3.8798
G01 X24.8971 Y-3.8957
G01 X24.8786 Y-3.9080
G01 X24.8580 Y-3.9160
G01 X24.8361 Y-3.9194
G01 X24.8140 Y-3.9180
G01 X23.9340
G01 X23.9166 Y-3.9165
G01 X23.8997 Y-3.9119
G01 X23.8839 Y-3.9045
G01 X23.8696 Y-3.8945
G01 X23.8572 Y-3.8821
G01 X23.8473 Y-3.8678
G01 X23.8399 Y-3.8519
G01 X23.8355 Y-3.8350
G01 X23.8340 Y-3.7980
G01 Y-3.2334
G01 X23.7946 Y-3.1940
G01 X22.8540
G01 X22.7883 Y-3.2923
G01 X22.7104 Y-3.3814
G01 X22.6217 Y-3.4595
G01 X22.5235 Y-3.5255
G01 X22.4176 Y-3.5782
G01 X22.3058 Y-3.6168
G01 X22.1900 Y-3.6405
G01 X22.0720 Y-3.6490
G01 X20.5800
G01 X20.4269 Y-3.6360
G01 X20.2788 Y-3.5954
G01 X20.1404 Y-3.5286
G01 X20.0165 Y-3.4379
G01 X19.9111 Y-3.3262
G01 X19.8276 Y-3.1972
G01 X19.7690 Y-3.0552
G01 X19.7370 Y-2.9050
G01 Y-2.6630
G01 X19.7743 Y-2.5142
G01 X19.8375 Y-2.3743
G01 X19.9246 Y-2.2480
G01 X20.0328 Y-2.1393
G01 X20.1588 Y-2.0516
G01 X20.2983 Y-1.9878
G01 X20.4469 Y-1.9498
G01 X20.6000 Y-1.9390
G01 X22.0920
G01 X22.2072 Y-1.9464
G01 X22.3204 Y-1.9695
G01 X22.4293 Y-2.0079
G01 X22.5320 Y-2.0607
G01 X22.6265 Y-2.1271
G01 X22.7110 Y-2.2058
G01 X22.7840 Y-2.2954
G01 X22.8440 Y-2.3940
G01 X23.9600
G01 X24.0404 Y-2.4020
G01 X24.1175 Y-2.4261
G01 X24.1882 Y-2.4653
G01 X24.2494 Y-2.5180
G01 X24.5186
G01 X24.8633 Y-2.1733
G01 X24.9280 Y-2.1206
G01 X25.0022 Y-2.0825
G01 X25.0827 Y-2.0607
G01 X25.1660 Y-2.0560
G01 X28.4060
G01 Y-1.8560
G01 X28.4080 Y-1.8361
G01 X28.4140 Y-1.8174
G01 X28.4234 Y-1.8002
G01 X28.4359 Y-1.7850
G01 X28.4510 Y-1.7725
G01 X28.4682 Y-1.7631
G01 X28.4869 Y-1.7570
G01 X28.5064 Y-1.7547
G01 X28.5260 Y-1.7560
G01 X29.4060
G01 X29.4280 Y-1.7586
G01 X29.4489 Y-1.7659
G01 X29.4678 Y-1.7775
G01 X29.4837 Y-1.7929
G01 X29.4960 Y-1.8114
G01 X29.5040 Y-1.8320
G01 X29.5074 Y-1.8539
G01 X29.5060 Y-1.8760
G01 Y-3.0560
G01 X29.5034 Y-3.0780
G01 X29.4961 Y-3.0989
G01 X29.4845 Y-3.1178
G01 X29.4691 Y-3.1337
G01 X29.4506 Y-3.1460
G01 X29.4300 Y-3.1540
G01 X29.4081 Y-3.1574
G01 X29.3860 Y-3.1560
G01 X28.5060
G01 X28.4886 Y-3.1545
G01 X28.4717 Y-3.1499
G01 X28.4559 Y-3.1425
G01 X28.4416 Y-3.1325
G01 X28.4292 Y-3.1201
G01 X28.4193 Y-3.1058
G01 X28.4119 Y-3.0899
G01 X28.4075 Y-3.0730
G01 X28.4060 Y-3.0360
G01 Y-2.7560
G00 Z2.0000


;No. 13: Engraving 26
G00 X27.2470 Y-5.6960 Z2.0000
G00 Z0.5000
G01 Z-0.1500 F120
G01 X26.3470 F180
G01 X26.3296 Y-5.6945
G01 X26.3127 Y-5.6899
G01 X26.2969 Y-5.6825
G01 X26.2826 Y-5.6725
G01 X26.2702 Y-5.6601
G01 X26.2603 Y-5.6458
G01 X26.2529 Y-5.6299
G01 X26.2485 Y-5.6130
G01 X26.2470 Y-5.5760
G01 Y-4.3960
G01 X26.2490 Y-4.3761
G01 X26.2550 Y-4.3574
G01 X26.2644 Y-4.3402
G01 X26.2769 Y-4.3250
G01 X26.2920 Y-4.3125
G01 X26.3092 Y-4.3031
G01 X26.3279 Y-4.2970
G01 X26.3474 Y-4.2947
G01 X26.3670 Y-4.2960
G01 X27.2470
G01 X27.2690 Y-4.2986
G01 X27.2899 Y-4.3059
G01 X27.3088 Y-4.3175
G01 X27.3247 Y-4.3329
G01 X27.3370 Y-4.3514
G01 X27.3450 Y-4.3720
G01 X27.3484 Y-4.3939
G01 X27.3470 Y-4.4160
G01 Y-4.5960
G01 X28.3920
G01 X28.4060 Y-4.5820
G01 Y-4.0560
G01 X28.4080 Y-4.0361
G01 X28.4140 Y-4.0174
G01 X28.4234 Y-4.0002
G01 X28.4359 Y-3.9850
G01 X28.4510 Y-3.9725
G01 X28.4682 Y-3.9631
G01 X28.4869 Y-3.9570
G01 X28.5064 Y-3.9547
G01 X28.5260 Y-3.9560
G01 X29.4060
G01 X29.4280 Y-3.9586
G01 X29.4489 Y-3.9659
G01 X29.4678 Y-3.9775
G01 X29.4837 Y-3.9929
G01 X29.4960 Y-4.0114
G01 X29.5040 Y-4.0320
G01 X29.5074 Y-4.0539
G01 X29.5060 Y-4.0760
G01 Y-4.2560
G01 X30.7860
G01 X30.8056 Y-4.2424
G01 X30.8498 Y-4.1051
G01 X30.9167 Y-3.9774
G01 X31.0046 Y-3.8630
G01 X31.1106 Y-3.7654
G01 X31.2318 Y-3.6872
G01 X31.3646 Y-3.6310
G01 X31.5050 Y-3.5983
G01 X31.6490 Y-3.5900
G01 X33.1410
G01 X33.3084 Y-3.6075
G01 X33.4690 Y-3.6574
G01 X33.6168 Y-3.7379
G01 X33.7460 Y-3.8457
G01 X33.8516 Y-3.9767
G01 X33.9294 Y-4.1259
G01 X33.9766 Y-4.2874
G01 X33.9912 Y-4.4551
G01 X33.9727 Y-4.6223
G01 X33.9218 Y-4.7827
G01 X33.8404 Y-4.9300
G01 X33.7318 Y-5.0585
G01 X33.6002 Y-5.1633
G01 X33.4505 Y-5.2403
G01 X33.2887 Y-5.2864
G01 X33.1210 Y-5.3000
G01 X31.6290
G01 X31.4650 Y-5.2905
G01 X31.3072 Y-5.2449
G01 X31.1634 Y-5.1654
G01 X31.0408 Y-5.0560
G01 X29.5060
G01 Y-5.2560
G01 X29.5034 Y-5.2780
G01 X29.4961 Y-5.2989
G01 X29.4845 Y-5.3178
G01 X29.4691 Y-5.3337
G01 X29.4506 Y-5.3460
G01 X29.4300 Y-5.3540
G01 X29.4081 Y-5.3574
G01 X29.3860 Y-5.3560
G01 X28.8000
G01 X28.7568 Y-5.3718
G01 X28.7124 Y-5.3837
G01 X28.6671 Y-5.3918
G01 X28.6213 Y-5.3959
G01 X27.3470 Y-5.3960
G01 Y-5.5960
G00 Z2.0000


;No. 14: Engraving 25
G00 X24.8340 Y-6.1180 Z2.0000
G00 Z0.5000
G01 Z-0.1500 F120
G01 X23.9340 F180
G01 X23.9166 Y-6.1165
G01 X23.8997 Y-6.1119
G01 X23.8839 Y-6.1045
G01 X23.8696 Y-6.0945
G01 X23.8572 Y-6.0821
G01 X23.8473 Y-6.0678
G01 X23.8399 Y-6.0519
G01 X23.8355 Y-6.0350
G01 X23.8340 Y-5.9880
G01 X22.9810
G01 X22.9153 Y-6.0863
G01 X22.8374 Y-6.1754
G01 X22.7487 Y-6.2535
G01 X22.6505 Y-6.3195
G01 X22.5446 Y-6.3722
G01 X22.4328 Y-6.4108
G01 X22.3170 Y-6.4345
G01 X22.1990 Y-6.4430
G01 X20.7070
G01 X20.5583 Y-6.4298
G01 X20.4141 Y-6.3909
G01 X20.2789 Y-6.3276
G01 X20.1567 Y-6.2417
G01 X20.0514 Y-6.1359
G01 X19.9660 Y-6.0134
G01 X19.9033 Y-5.8779
G01 X19.8651 Y-5.7335
G01 X19.8640 Y-5.4570
G01 X19.9013 Y-5.3082
G01 X19.9645 Y-5.1683
G01 X20.0516 Y-5.0420
G01 X20.1598 Y-4.9333
G01 X20.2858 Y-4.8456
G01 X20.4253 Y-4.7818
G01 X20.5739 Y-4.7438
G01 X20.7270 Y-4.7330
G01 X22.2190
G01 X22.3342 Y-4.7404
G01 X22.4474 Y-4.7635
G01 X22.5563 Y-4.8019
G01 X22.6590 Y-4.8547
G01 X22.7535 Y-4.9211
G01 X22.8380 Y-4.9998
G01 X22.9110 Y-5.0894
G01 X22.9710 Y-5.1880
G01 X23.8340
G01 Y-4.8180
G01 X23.8360 Y-4.7981
G01 X23.8420 Y-4.7794
G01 X23.8514 Y-4.7622
G01 X23.8639 Y-4.7470
G01 X23.8790 Y-4.7345
G01 X23.8962 Y-4.7251
G01 X23.9149 Y-4.7190
G01 X23.9344 Y-4.7167
G01 X23.9540 Y-4.7180
G01 X24.8340
G01 X24.8560 Y-4.7206
G01 X24.8769 Y-4.7279
G01 X24.8958 Y-4.7395
G01 X24.9117 Y-4.7549
G01 X24.9240 Y-4.7734
G01 X24.9320 Y-4.7940
G01 X24.9354 Y-4.8159
G01 X24.9340 Y-4.8380
G01 Y-6.0180
G00 Z2.0000


;No. 15: Engraving 24
G00 X25.9294 Y-8.5170 Z2.0000
G00 Z0.5000
G01 Z-0.1500 F120
G01 X22.9714 Y-8.5277 F180
G01 X22.9090 Y-8.6277
G01 X22.8336 Y-8.7181
G01 X22.7464 Y-8.7974
G01 X22.6493 Y-8.8640
G01 X22.5439 Y-8.9168
G01 X22.4323 Y-8.9546
G01 X22.3166 Y-8.9768
G01 X22.1990 Y-8.9830
G01 X20.7070
G01 X20.5583 Y-8.9698
G01 X20.4141 Y-8.9309
G01 X20.2789 Y-8.8676
G01 X20.1567 Y-8.7817
G01 X20.0514 Y-8.6759
G01 X19.9660 Y-8.5534
G01 X19.9033 Y-8.4179
G01 X19.8651 Y-8.2735
G01 X19.8640 Y-7.9970
G01 X19.9008 Y-7.8479
G01 X19.9637 Y-7.7078
G01 X20.0507 Y-7.5812
G01 X20.1590 Y-7.4723
G01 X20.2851 Y-7.3846
G01 X20.4249 Y-7.3209
G01 X20.5738 Y-7.2833
G01 X20.7270 Y-7.2730
G01 X22.2190
G01 X22.3341 Y-7.2811
G01 X22.4470 Y-7.3046
G01 X22.5557 Y-7.3432
G01 X22.6582 Y-7.3960
G01 X22.7526 Y-7.4623
G01 X22.8373 Y-7.5407
G01 X22.9105 Y-7.6298
G01 X22.9710 Y-7.7280
G01 X25.6996
G01 X26.2470 Y-7.1806
G01 Y-6.5960
G01 X26.2496 Y-6.5740
G01 X26.2569 Y-6.5531
G01 X26.2685 Y-6.5342
G01 X26.2839 Y-6.5183
G01 X26.3024 Y-6.5060
G01 X26.3230 Y-6.4980
G01 X26.3449 Y-6.4946
G01 X26.3670 Y-6.4960
G01 X27.2470
G01 X27.2644 Y-6.4975
G01 X27.2813 Y-6.5021
G01 X27.2971 Y-6.5095
G01 X27.3114 Y-6.5195
G01 X27.3238 Y-6.5319
G01 X27.3337 Y-6.5462
G01 X27.3411 Y-6.5621
G01 X27.3455 Y-6.5790
G01 X30.8670 Y-6.5850
G01 X30.9314 Y-6.4853
G01 X31.0085 Y-6.3952
G01 X31.0970 Y-6.3162
G01 X31.1953 Y-6.2498
G01 X31.3016 Y-6.1971
G01 X31.4141 Y-6.1592
G01 X31.5305 Y-6.1367
G01 X31.6490 Y-6.1300
G01 X33.1410
G01 X33.3088 Y-6.1470
G01 X33.4699 Y-6.1966
G01 X33.6182 Y-6.2769
G01 X33.7479 Y-6.3847
G01 X33.8538 Y-6.5159
G01 X33.9320 Y-6.6653
G01 X33.9794 Y-6.8271
G01 X33.9940 Y-6.9951
G01 X33.9754 Y-7.1627
G01 X33.9243 Y-7.3234
G01 X33.8427 Y-7.4709
G01 X33.7337 Y-7.5996
G01 X33.6015 Y-7.7043
G01 X33.4514 Y-7.7811
G01 X33.2891 Y-7.8269
G01 X33.1210 Y-7.8400
G01 X31.6290
G01 X31.5139 Y-7.8319
G01 X31.4010 Y-7.8083
G01 X31.2922 Y-7.7697
G01 X31.1897 Y-7.7169
G01 X31.0953 Y-7.6506
G01 X31.0106 Y-7.5722
G01 X30.9373 Y-7.4832
G01 X30.8766 Y-7.3850
G01 X27.3470
G01 Y-7.7960
G01 X27.3444 Y-7.8180
G01 X27.3371 Y-7.8389
G01 X27.3255 Y-7.8578
G01 X27.3101 Y-7.8737
G01 X27.2916 Y-7.8860
G01 X27.2710 Y-7.8940
G01 X27.2491 Y-7.8974
G01 X27.2270 Y-7.8960
G01 X26.6624
G01 X26.1477 Y-8.4107
G01 X26.1049 Y-8.4494
G01 X26.0561 Y-8.4802
G01 X26.0029 Y-8.5025
G01 X25.9467 Y-8.5154
G00 Z2.0000


;No. 16: Engraving 28
G00 X31.6114 Y-2.7584 Z2.0000
G00 Z0.5000
G01 Z-0.1500 F120
G01 X31.4653 Y-2.7427 F180
G01 X31.3240 Y-2.7022
G01 X31.1917 Y-2.6381
G01 X31.0723 Y-2.5523
G01 X30.9695 Y-2.4473
G01 X30.8861 Y-2.3262
G01 X30.8247 Y-2.1926
G01 X30.7871 Y-2.0505
G01 X30.7860 Y-1.7740
G01 X30.8290 Y-1.6117
G01 X30.9032 Y-1.4611
G01 X31.0058 Y-1.3281
G01 X31.1325 Y-1.2179
G01 X30.5686 Y-0.6540
G01 X22.8540
G01 X22.7896 Y-0.7537
G01 X22.7125 Y-0.8438
G01 X22.6240 Y-0.9228
G01 X22.5257 Y-0.9892
G01 X22.4194 Y-1.0419
G01 X22.3069 Y-1.0798
G01 X22.1905 Y-1.1023
G01 X22.0720 Y-1.1090
G01 X20.5800
G01 X20.4269 Y-1.0960
G01 X20.2788 Y-1.0554
G01 X20.1404 Y-0.9886
G01 X20.0165 Y-0.8979
G01 X19.9111 Y-0.7862
G01 X19.8276 Y-0.6572
G01 X19.7690 Y-0.5152
G01 X19.7370 Y-0.3650
G01 Y-0.1230
G01 X19.7738 Y0.0261
G01 X19.8367 Y0.1662
G01 X19.9237 Y0.2928
G01 X20.0320 Y0.4017
G01 X20.1581 Y0.4894
G01 X20.2979 Y0.5531
G01 X20.4468 Y0.5907
G01 X20.6000 Y0.6010
G01 X22.0920
G01 X22.2071 Y0.5929
G01 X22.3200 Y0.5694
G01 X22.4287 Y0.5308
G01 X22.5312 Y0.4780
G01 X22.6256 Y0.4117
G01 X22.7103 Y0.3333
G01 X22.7835 Y0.2442
G01 X22.8440 Y0.1460
G01 X30.7340
G01 X30.8038 Y0.1400
G01 X30.8714 Y0.1218
G01 X30.9349 Y0.0922
G01 X30.9922 Y0.0519
G01 X32.0954 Y-1.0500
G01 X33.1410
G01 X33.3084 Y-1.0675
G01 X33.4690 Y-1.1174
G01 X33.6168 Y-1.1979
G01 X33.7460 Y-1.3057
G01 X33.8516 Y-1.4367
G01 X33.9294 Y-1.5859
G01 X33.9766 Y-1.7474
G01 X33.9912 Y-1.9151
G01 X33.9727 Y-2.0823
G01 X33.9218 Y-2.2427
G01 X33.8404 Y-2.3900
G01 X33.7318 Y-2.5185
G01 X33.6002 Y-2.6233
G01 X33.4505 Y-2.7003
G01 X33.2887 Y-2.7464
G01 X33.1210 Y-2.7600
G01 X31.6290
G00 Z2.0000


;No. 17: Engraving 33
G00 X33.8714 Y10.9875 Z2.0000
G00 Z0.5000
G01 Z-0.1500 F120
G01 X33.8072 Y10.8957 F180
G01 X33.7315 Y10.8131
G01 X33.6458 Y10.7411
G01 X33.5514 Y10.6808
G01 X33.4499 Y10.6334
G01 X33.3432 Y10.5996
G01 X33.2329 Y10.5800
G01 X33.1210 Y10.5750
G01 X31.6290
G01 X31.4803 Y10.5884
G01 X31.3363 Y10.6274
G01 X31.2011 Y10.6908
G01 X31.0791 Y10.7767
G01 X30.9737 Y10.8824
G01 X30.8883 Y11.0049
G01 X30.8255 Y11.1402
G01 X30.7871 Y11.2845
G01 X30.7860 Y11.5610
G01 X30.8290 Y11.7233
G01 X30.9032 Y11.8739
G01 X31.0058 Y12.0069
G01 X31.1325 Y12.1171
G01 X30.5686 Y12.6810
G01 X22.8540
G01 X22.7883 Y12.5827
G01 X22.7104 Y12.4936
G01 X22.6217 Y12.4155
G01 X22.5235 Y12.3495
G01 X22.4176 Y12.2968
G01 X22.3058 Y12.2582
G01 X22.1900 Y12.2345
G01 X22.0720 Y12.2260
G01 X20.5800
G01 X20.4313 Y12.2392
G01 X20.2871 Y12.2781
G01 X20.1519 Y12.3414
G01 X20.0297 Y12.4273
G01 X19.9244 Y12.5331
G01 X19.8390 Y12.6556
G01 X19.7763 Y12.7911
G01 X19.7381 Y12.9355
G01 X19.7370 Y13.2120
G01 X19.7743 Y13.3608
G01 X19.8375 Y13.5007
G01 X19.9246 Y13.6270
G01 X20.0328 Y13.7357
G01 X20.1588 Y13.8234
G01 X20.2983 Y13.8872
G01 X20.4469 Y13.9252
G01 X20.6000 Y13.9360
G01 X22.0920
G01 X22.2072 Y13.9286
G01 X22.3204 Y13.9055
G01 X22.4293 Y13.8671
G01 X22.5320 Y13.8143
G01 X22.6265 Y13.7479
G01 X22.7110 Y13.6692
G01 X22.7840 Y13.5796
G01 X22.8440 Y13.4810
G01 X30.7340
G01 X30.8038 Y13.4750
G01 X30.8714 Y13.4569
G01 X30.9349 Y13.4272
G01 X30.9922 Y13.3869
G01 X32.0954 Y12.2850
G01 X33.1410
G01 X33.2880 Y12.2723
G01 X33.4306 Y12.2345
G01 X33.5646 Y12.1727
G01 X33.6860 Y12.0888
G01 X33.7911 Y11.9853
G01 X33.8768 Y11.8652
G01 X33.9406 Y11.7321
G01 X33.9805 Y11.5901
G01 X33.9954 Y11.4433
G01 X33.9848 Y11.2961
G01 X33.9490 Y11.1530
G01 X33.8891 Y11.0181
G00 Z2.0000


;No. 18: Engraving 14
G00 X28.4290 Y23.4290 Z2.0000
G00 Z0.5000
G01 Z-0.1500 F120
G01 Y25.3780 F180
G01 X28.4057 Y25.3727
G01 X28.3817 Y25.3724
G01 X28.3583 Y25.3770
G01 X28.3363 Y25.3864
G01 X28.3167 Y25.4002
G01 X28.3004 Y25.4178
G01 X28.2882 Y25.4384
G01 X28.2805 Y25.4610
G01 X28.2790 Y25.4980
G01 Y26.0623
G01 X27.7566 Y26.5850
G01 X27.1100
G01 X27.1300
G01 X27.1067 Y26.5791
G01 X27.0834 Y26.5730
G01 X27.0602 Y26.5667
G01 X27.0371 Y26.5603
G01 X25.9700 Y26.5600
G01 X25.9526 Y26.5615
G01 X25.9357 Y26.5661
G01 X25.9199 Y26.5735
G01 X25.9056 Y26.5835
G01 X25.8932 Y26.5959
G01 X25.8833 Y26.6102
G01 X25.8759 Y26.6261
G01 X25.8715 Y26.6430
G01 X25.8700 Y26.6800
G01 Y27.3100
G01 X25.8720 Y27.3299
G01 X25.8780 Y27.3486
G01 X25.8874 Y27.3658
G01 X25.8999 Y27.3810
G01 X25.9150 Y27.3935
G01 X25.9322 Y27.4029
G01 X25.9509 Y27.4090
G01 X25.9704 Y27.4113
G01 X25.9900 Y27.4100
G01 X27.0300
G01 X27.0553 Y27.4051
G01 X27.0805 Y27.3993
G01 X27.1054 Y27.3926
G01 X27.1300 Y27.3850
G01 X27.1100
G01 X27.9220
G01 X28.0049 Y27.3763
G01 X28.0843 Y27.3507
G01 X28.1566 Y27.3092
G01 X28.2189 Y27.2537
G01 X28.6944 Y26.7780
G01 X29.2790
G01 X29.3010 Y26.7754
G01 X29.3219 Y26.7681
G01 X29.3408 Y26.7565
G01 X29.3567 Y26.7411
G01 X29.3690 Y26.7226
G01 X29.3770 Y26.7020
G01 X29.3804 Y26.6801
G01 X29.3790 Y26.6580
G01 Y25.4780
G01 X29.3748 Y25.4522
G01 X29.3647 Y25.4280
G01 X29.3493 Y25.4069
G01 X29.3294 Y25.3900
G01 X29.3060 Y25.3781
G01 X29.2806 Y25.3720
G01 X29.2545 Y25.3719
G01 X29.2290 Y25.3780
G01 Y24.0020
G01 X29.2577 Y24.0137
G01 X29.2883 Y24.0188
G01 X29.3193 Y24.0169
G01 X29.3491 Y24.0083
G01 X29.3762 Y23.9934
G01 X29.3994 Y23.9728
G01 X29.4175 Y23.9476
G01 X29.4295 Y23.9190
G01 X29.4310 Y23.8820
G01 Y23.5977
G01 X31.4988 Y23.0805
G01 X31.5139 Y23.0786
G01 X33.0139 Y23.0800
G01 X33.1819 Y23.0632
G01 X33.3433 Y23.0138
G01 X33.4918 Y22.9336
G01 X33.6217 Y22.8258
G01 X33.7279 Y22.6946
G01 X33.8062 Y22.5451
G01 X33.8537 Y22.3831
G01 X33.8684 Y22.2149
G01 X33.8498 Y22.0472
G01 X33.7986 Y21.8863
G01 X33.7168 Y21.7387
G01 X33.6075 Y21.6100
G01 X33.4752 Y21.5052
G01 X33.3248 Y21.4285
G01 X33.1623 Y21.3829
G01 X32.9940 Y21.3700
G01 X31.5020
G01 X31.3532 Y21.3831
G01 X31.2090 Y21.4218
G01 X31.0738 Y21.4851
G01 X30.9516 Y21.5710
G01 X30.8462 Y21.6768
G01 X30.7609 Y21.7994
G01 X30.6982 Y21.9349
G01 X30.6601 Y22.0793
G01 X30.6590 Y22.3561
G01 X30.6703 Y22.3654
G01 X30.6796 Y22.3767
G01 X30.6865 Y22.3896
G01 X30.6909 Y22.4036
G01 X30.6924 Y22.4182
G01 X30.6911 Y22.4328
G01 X30.6871 Y22.4469
G01 X30.6804 Y22.4599
G01 X29.4310 Y22.7714
G01 X29.4404 Y22.7415
G01 X29.4418 Y22.7102
G01 X29.4349 Y22.6796
G01 X29.4203 Y22.6518
G01 X29.3989 Y22.6288
G01 X29.3724 Y22.6122
G01 X29.3423 Y22.6030
G01 X29.3110 Y22.6020
G01 X28.5810
G01 X28.5636 Y22.6035
G01 X28.5467 Y22.6081
G01 X28.5309 Y22.6155
G01 X28.5166 Y22.6255
G01 X28.5042 Y22.6379
G01 X28.4943 Y22.6522
G01 X28.4869 Y22.6681
G01 X28.4825 Y22.6850
G01 X28.4810 Y22.7220
G01 Y23.2408
G01 X28.4605 Y23.2763
G01 X28.4522 Y23.2945
G01 X28.4305 Y23.4117
G00 Z2.0000


;No. 19: Engraving 13
G00 X25.7500 Y22.8270 Z2.0000
G00 Z0.5000
G01 Z-0.1500 F120
G01 X26.1000 F180
G01 Y24.6600
G01 X26.0685 Y24.6450
G01 X26.0344 Y24.6374
G01 X25.9995 Y24.6377
G01 X25.9655 Y24.6458
G01 X25.9342 Y24.6614
G01 X25.9073 Y24.6836
G01 X25.8860 Y24.7113
G01 X25.8715 Y24.7430
G01 X25.8700 Y24.7800
G01 Y25.4100
G01 X25.8720 Y25.4299
G01 X25.8780 Y25.4486
G01 X25.8874 Y25.4658
G01 X25.8999 Y25.4810
G01 X25.9150 Y25.4935
G01 X25.9322 Y25.5029
G01 X25.9509 Y25.5090
G01 X25.9704 Y25.5113
G01 X25.9900 Y25.5100
G01 X27.0300
G01 X27.0520 Y25.5074
G01 X27.0729 Y25.5001
G01 X27.0918 Y25.4885
G01 X27.1077 Y25.4731
G01 X27.1200 Y25.4546
G01 X27.1280 Y25.4340
G01 X27.1314 Y25.4121
G01 X27.1300 Y25.3900
G01 Y24.7600
G01 X27.1274 Y24.7380
G01 X27.1201 Y24.7171
G01 X27.1085 Y24.6982
G01 X27.0931 Y24.6823
G01 X27.0746 Y24.6700
G01 X27.0540 Y24.6620
G01 X27.0321 Y24.6586
G01 X27.0100 Y24.6600
G01 X26.9000
G01 Y22.8270
G01 X26.9280 Y22.8332
G01 X26.9567 Y22.8322
G01 X26.9841 Y22.8239
G01 X27.0086 Y22.8090
G01 X27.0285 Y22.7884
G01 X27.0426 Y22.7634
G01 X27.0499 Y22.7357
G01 X27.0500 Y22.7070
G01 Y21.9770
G01 X27.0474 Y21.9550
G01 X27.0401 Y21.9341
G01 X27.0285 Y21.9152
G01 X27.0131 Y21.8993
G01 X26.9946 Y21.8870
G01 X26.9740 Y21.8790
G01 X26.9521 Y21.8756
G01 X26.9300 Y21.8770
G01 X25.7500
G01 X25.7326 Y21.8785
G01 X25.7157 Y21.8831
G01 X25.6999 Y21.8905
G01 X25.6856 Y21.9005
G01 X25.6732 Y21.9129
G01 X25.6633 Y21.9272
G01 X25.6559 Y21.9431
G01 X25.6515 Y21.9600
G01 X25.6500 Y21.9970
G01 Y22.7270
G00 Z2.0000


;No. 20: Engraving 12
G00 X23.7500 Y21.9770 Z2.0000
G00 Z0.5000
G01 Z-0.1500 F120
G01 Y22.7270 F180
G01 X23.7520 Y22.7469
G01 X23.7580 Y22.7656
G01 X23.7674 Y22.7828
G01 X23.7799 Y22.7980
G01 X23.7950 Y22.8105
G01 X23.8122 Y22.8199
G01 X23.8309 Y22.8260
G01 X23.8504 Y22.8283
G01 X23.8700 Y22.8270
G01 X25.0500
G01 X25.0720 Y22.8244
G01 X25.0929 Y22.8171
G01 X25.1118 Y22.8055
G01 X25.1277 Y22.7901
G01 X25.1400 Y22.7716
G01 X25.1480 Y22.7510
G01 X25.1514 Y22.7291
G01 X25.1500 Y22.7070
G01 Y21.9770
G01 X25.1474 Y21.9550
G01 X25.1401 Y21.9341
G01 X25.1285 Y21.9152
G01 X25.1131 Y21.8993
G01 X25.0946 Y21.8870
G01 X25.0740 Y21.8790
G01 X25.0521 Y21.8756
G01 X25.0300 Y21.8770
G01 X24.8500
G01 Y21.6897
G01 X25.1844 Y21.3550
G01 X28.3435
G01 X28.4810 Y21.4927
G01 Y22.0020
G01 X28.4830 Y22.0219
G01 X28.4890 Y22.0406
G01 X28.4984 Y22.0578
G01 X28.5109 Y22.0730
G01 X28.5260 Y22.0855
G01 X28.5432 Y22.0949
G01 X28.5619 Y22.1010
G01 X28.5814 Y22.1033
G01 X28.6010 Y22.1020
G01 X29.3310
G01 X29.3530 Y22.0994
G01 X29.3739 Y22.0921
G01 X29.3928 Y22.0805
G01 X29.4087 Y22.0651
G01 X29.4210 Y22.0466
G01 X29.4290 Y22.0260
G01 X29.4324 Y22.0041
G01 X29.4310 Y21.9820
G01 Y21.4927
G01 X30.7829 Y20.1406
G01 X30.8467 Y20.2299
G01 X30.9216 Y20.3103
G01 X31.0063 Y20.3802
G01 X31.0993 Y20.4386
G01 X31.1991 Y20.4844
G01 X31.3040 Y20.5169
G01 X31.4123 Y20.5356
G01 X31.5220 Y20.5400
G01 X33.0140
G01 X33.1820 Y20.5232
G01 X33.3433 Y20.4737
G01 X33.4919 Y20.3936
G01 X33.6217 Y20.2858
G01 X33.7279 Y20.1545
G01 X33.8062 Y20.0050
G01 X33.8537 Y19.8430
G01 X33.8684 Y19.6749
G01 X33.8497 Y19.5071
G01 X33.7985 Y19.3463
G01 X33.7167 Y19.1987
G01 X33.6075 Y19.0700
G01 X33.4751 Y18.9652
G01 X33.3248 Y18.8885
G01 X33.1623 Y18.8429
G01 X32.9940 Y18.8300
G01 X31.5020
G01 X31.3869 Y18.8379
G01 X31.2739 Y18.8614
G01 X31.1651 Y18.8999
G01 X31.0626 Y18.9528
G01 X30.9681 Y19.0191
G01 X30.8835 Y19.0975
G01 X30.8103 Y19.1867
G01 X30.7498 Y19.2850
G01 X30.6471 Y19.2825
G01 X30.5468 Y19.3046
G01 X30.4547 Y19.3501
G01 X30.3761 Y19.4163
G01 X29.0906 Y20.7020
G01 X28.8215
G01 X28.7534 Y20.6372
G01 X28.6724 Y20.5897
G01 X28.5827 Y20.5618
G01 X28.4890 Y20.5550
G01 X25.0190
G01 X24.9360 Y20.5636
G01 X24.8567 Y20.5893
G01 X24.7843 Y20.6308
G01 X24.7221 Y20.6863
G01 X24.1673 Y21.2412
G01 X24.1219 Y21.2951
G01 X24.0868 Y21.3563
G01 X24.0629 Y21.4226
G01 X24.0512 Y21.4921
G01 X24.0500 Y21.5440
G01 Y21.8770
G01 X23.8500
G00 Z2.0000


;No. 21: Engraving 11
G00 X20.6621 Y23.8511 Z2.0000
G00 Z0.5000
G01 Z-0.1500 F120
G01 X23.2817 Y24.6117 F180
G01 X23.6700 Y25.0108
G01 Y25.4100
G01 X23.6720 Y25.4299
G01 X23.6780 Y25.4486
G01 X23.6874 Y25.4658
G01 X23.6999 Y25.4810
G01 X23.7150 Y25.4935
G01 X23.7322 Y25.5029
G01 X23.7509 Y25.5090
G01 X23.7704 Y25.5113
G01 X23.7900 Y25.5100
G01 X24.8300
G01 X24.8520 Y25.5074
G01 X24.8729 Y25.5001
G01 X24.8918 Y25.4885
G01 X24.9077 Y25.4731
G01 X24.9200 Y25.4546
G01 X24.9280 Y25.4340
G01 X24.9314 Y25.4121
G01 X24.9300 Y25.3900
G01 Y24.7600
G01 X24.9274 Y24.7380
G01 X24.9201 Y24.7171
G01 X24.9085 Y24.6982
G01 X24.8931 Y24.6823
G01 X24.8746 Y24.6700
G01 X24.8540 Y24.6620
G01 X24.8321 Y24.6586
G01 X24.8100 Y24.6600
G01 X24.4443
G01 X23.7817 Y23.9782
G01 X23.7395 Y23.9405
G01 X23.6925 Y23.9091
G01 X23.6416 Y23.8845
G01 X23.5877 Y23.8673
G01 X21.1617 Y23.1632
G01 X21.1547 Y22.9875
G01 X21.1118 Y22.8170
G01 X21.0346 Y22.6590
G01 X20.9267 Y22.5203
G01 X20.7925 Y22.4067
G01 X20.6378 Y22.3231
G01 X20.4692 Y22.2732
G01 X20.2940 Y22.2590
G01 X18.8020
G01 X18.6534 Y22.2725
G01 X18.5094 Y22.3116
G01 X18.3744 Y22.3750
G01 X18.2523 Y22.4609
G01 X18.1470 Y22.5665
G01 X18.0616 Y22.6889
G01 X17.9986 Y22.8242
G01 X17.9601 Y22.9683
G01 X17.9590 Y23.2451
G01 X17.9962 Y23.3940
G01 X18.0593 Y23.5339
G01 X18.1464 Y23.6602
G01 X18.2547 Y23.7690
G01 X18.3806 Y23.8566
G01 X18.5202 Y23.9204
G01 X18.6689 Y23.9583
G01 X18.8220 Y23.9690
G01 X20.3140
G01 X20.4269 Y23.9633
G01 X20.5374 Y23.9398
G01 X20.6427 Y23.8988
G01 X20.7401 Y23.8416
G00 Z2.0000


;No. 22: Engraving 10
G00 X20.5740 Y26.4635 Z2.0000
G00 Z0.5000
G01 Z-0.1500 F120
G01 X21.8770 Y26.4370 F180
G01 Y26.8280
G01 X21.8790 Y26.8479
G01 X21.8850 Y26.8666
G01 X21.8944 Y26.8838
G01 X21.9069 Y26.8990
G01 X21.9220 Y26.9115
G01 X21.9392 Y26.9209
G01 X21.9579 Y26.9270
G01 X21.9774 Y26.9293
G01 X21.9970 Y26.9280
G01 X22.7270
G01 X22.7490 Y26.9254
G01 X22.7699 Y26.9181
G01 X22.7888 Y26.9065
G01 X22.8047 Y26.8911
G01 X22.8170 Y26.8726
G01 X22.8250 Y26.8520
G01 X22.8284 Y26.8301
G01 X22.8270 Y26.8080
G01 Y26.4350
G01 X23.6900
G01 X23.6700
G01 X23.6989 Y26.4459
G01 X23.7287 Y26.4537
G01 X23.7592 Y26.4584
G01 X23.7900 Y26.4600
G01 X24.8300
G01 X24.8520 Y26.4574
G01 X24.8729 Y26.4501
G01 X24.8918 Y26.4385
G01 X24.9077 Y26.4231
G01 X24.9200 Y26.4046
G01 X24.9280 Y26.3840
G01 X24.9314 Y26.3621
G01 X24.9300 Y26.3400
G01 Y25.7100
G01 X24.9274 Y25.6880
G01 X24.9201 Y25.6671
G01 X24.9085 Y25.6482
G01 X24.8931 Y25.6323
G01 X24.8746 Y25.6200
G01 X24.8540 Y25.6120
G01 X24.8321 Y25.6086
G01 X24.8100 Y25.6100
G01 X23.7700
G01 X23.7447 Y25.6149
G01 X23.7195 Y25.6207
G01 X23.6946 Y25.6274
G01 X23.6700 Y25.6350
G01 X23.6900
G01 X22.8270
G01 X22.8256 Y25.6120
G01 X22.8192 Y25.5899
G01 X22.8081 Y25.5698
G01 X22.7927 Y25.5527
G01 X22.7739 Y25.5394
G01 X22.7527 Y25.5306
G01 X22.7300 Y25.5267
G01 X22.7070 Y25.5280
G01 X21.9770
G01 X21.9596 Y25.5295
G01 X21.9427 Y25.5341
G01 X21.9269 Y25.5415
G01 X21.9126 Y25.5515
G01 X21.9002 Y25.5639
G01 X21.8903 Y25.5782
G01 X21.8829 Y25.5941
G01 X21.8785 Y25.6110
G01 X21.8770 Y25.6350
G01 X21.1570
G01 X21.1397 Y25.4688
G01 X21.0898 Y25.3094
G01 X21.0093 Y25.1629
G01 X20.9015 Y25.0353
G01 X20.7705 Y24.9316
G01 X20.6216 Y24.8558
G01 X20.4606 Y24.8110
G01 X20.2940 Y24.7990
G01 X18.8020
G01 X18.6539 Y24.8137
G01 X18.5104 Y24.8536
G01 X18.3759 Y24.9173
G01 X18.2542 Y25.0031
G01 X18.1490 Y25.1085
G01 X18.0634 Y25.2302
G01 X17.9998 Y25.3648
G01 X17.9601 Y25.5083
G01 X17.9590 Y25.7851
G01 X17.9957 Y25.9343
G01 X18.0586 Y26.0744
G01 X18.1456 Y26.2010
G01 X18.2539 Y26.3099
G01 X18.3800 Y26.3976
G01 X18.5198 Y26.4613
G01 X18.6687 Y26.4988
G01 X18.8220 Y26.5090
G01 X20.3140
G01 X20.3511 Y26.5040
G01 X20.5894 Y26.4620
G00 Z2.0000


;No. 23: Engraving 9
G00 X20.5894 Y27.3860 Z2.0000
G00 Z0.5000
G01 Z-0.1500 F120
G01 X20.3314 Y27.3405 F180
G01 X20.2940 Y27.3390
G01 X18.8020
G01 X18.6497 Y27.3540
G01 X18.5025 Y27.3958
G01 X18.3651 Y27.4631
G01 X18.2418 Y27.5537
G01 X18.1365 Y27.6648
G01 X18.0527 Y27.7928
G01 X17.9928 Y27.9337
G01 X17.9590 Y28.0829
G01 Y28.3251
G01 X17.9957 Y28.4743
G01 X18.0586 Y28.6144
G01 X18.1456 Y28.7410
G01 X18.2539 Y28.8499
G01 X18.3800 Y28.9376
G01 X18.5198 Y29.0013
G01 X18.6687 Y29.0388
G01 X18.8220 Y29.0490
G01 X20.3140
G01 X20.4293 Y29.0417
G01 X20.5425 Y29.0187
G01 X20.6515 Y28.9804
G01 X20.7542 Y28.9275
G01 X20.8487 Y28.8611
G01 X20.9333 Y28.7823
G01 X21.0062 Y28.6927
G01 X21.0662 Y28.5940
G01 X21.8770
G01 Y28.7280
G01 X21.8790 Y28.7479
G01 X21.8850 Y28.7666
G01 X21.8944 Y28.7838
G01 X21.9069 Y28.7990
G01 X21.9220 Y28.8115
G01 X21.9392 Y28.8209
G01 X21.9579 Y28.8270
G01 X21.9774 Y28.8293
G01 X21.9970 Y28.8280
G01 X22.7270
G01 X22.7490 Y28.8254
G01 X22.7699 Y28.8181
G01 X22.7888 Y28.8065
G01 X22.8047 Y28.7911
G01 X22.8170 Y28.7726
G01 X22.8250 Y28.7520
G01 X22.8284 Y28.7301
G01 X22.8270 Y28.7080
G01 Y28.5940
G01 X23.0910
G01 X23.1739 Y28.5853
G01 X23.2533 Y28.5597
G01 X23.3256 Y28.5182
G01 X23.3879 Y28.4627
G01 X24.4404 Y27.4100
G01 X24.8300
G01 X24.8520 Y27.4074
G01 X24.8729 Y27.4001
G01 X24.8918 Y27.3885
G01 X24.9077 Y27.3731
G01 X24.9200 Y27.3546
G01 X24.9280 Y27.3340
G01 X24.9314 Y27.3121
G01 X24.9300 Y27.2900
G01 Y26.6600
G01 X24.9274 Y26.6380
G01 X24.9201 Y26.6171
G01 X24.9085 Y26.5982
G01 X24.8931 Y26.5823
G01 X24.8746 Y26.5700
G01 X24.8540 Y26.5620
G01 X24.8321 Y26.5586
G01 X24.8100 Y26.5600
G01 X23.7700
G01 X23.7526 Y26.5615
G01 X23.7357 Y26.5661
G01 X23.7199 Y26.5735
G01 X23.7056 Y26.5835
G01 X23.6932 Y26.5959
G01 X23.6833 Y26.6102
G01 X23.6759 Y26.6261
G01 X23.6715 Y26.6430
G01 X23.6700 Y26.6800
G01 Y27.0493
G01 X22.9256 Y27.7940
G01 X22.8270
G01 Y27.5280
G01 X22.8244 Y27.5060
G01 X22.8171 Y27.4851
G01 X22.8055 Y27.4662
G01 X22.7901 Y27.4503
G01 X22.7716 Y27.4380
G01 X22.7510 Y27.4300
G01 X22.7291 Y27.4266
G01 X22.7070 Y27.4280
G01 X21.9770
G01 X21.9596 Y27.4295
G01 X21.9427 Y27.4341
G01 X21.9269 Y27.4415
G01 X21.9126 Y27.4515
G01 X21.9002 Y27.4639
G01 X21.8903 Y27.4782
G01 X21.8829 Y27.4941
G01 X21.8785 Y27.5110
G01 X21.8770 Y27.5480
G01 Y27.7940
G01 X21.0760
G01 X20.9893 Y27.6675
G01 X20.8827 Y27.5574
G01 X20.7591 Y27.4667
G01 X20.6220 Y27.3979
G00 Z2.0000


;No. 24: Engraving 8
G00 X13.4560 Y27.4660 Z2.0000
G00 Z0.5000
G01 Z-0.1500 F120
G01 X11.9440 F180
G01 X11.8346 Y27.4753
G01 X11.7272 Y27.4977
G01 X11.6233 Y27.5330
G01 X11.5244 Y27.5806
G01 X11.4320 Y27.6399
G01 X11.3475 Y27.7099
G01 X11.2721 Y27.7897
G01 X11.2069 Y27.8780
G01 X9.8210
G01 Y27.6780
G01 X9.8184 Y27.6560
G01 X9.8111 Y27.6351
G01 X9.7995 Y27.6162
G01 X9.7841 Y27.6003
G01 X9.7656 Y27.5880
G01 X9.7450 Y27.5800
G01 X9.7231 Y27.5766
G01 X9.7010 Y27.5780
G01 X8.8210
G01 X8.8036 Y27.5795
G01 X8.7867 Y27.5841
G01 X8.7709 Y27.5915
G01 X8.7566 Y27.6015
G01 X8.7442 Y27.6139
G01 X8.7343 Y27.6282
G01 X8.7269 Y27.6441
G01 X8.7225 Y27.6610
G01 X8.7210 Y27.6980
G01 Y28.8780
G01 X8.7230 Y28.8979
G01 X8.7290 Y28.9166
G01 X8.7384 Y28.9338
G01 X8.7509 Y28.9490
G01 X8.7660 Y28.9615
G01 X8.7832 Y28.9709
G01 X8.8019 Y28.9770
G01 X8.8214 Y28.9793
G01 X8.8410 Y28.9780
G01 X9.7210
G01 X9.7430 Y28.9754
G01 X9.7639 Y28.9681
G01 X9.7828 Y28.9565
G01 X9.7987 Y28.9411
G01 X9.8110 Y28.9226
G01 X9.8190 Y28.9020
G01 X9.8224 Y28.8801
G01 X9.8210 Y28.8580
G01 Y28.6780
G01 X11.1670
G01 X11.2271 Y28.7867
G01 X11.3022 Y28.8857
G01 X11.3908 Y28.9727
G01 X11.4912 Y29.0460
G01 X11.6010 Y29.1040
G01 X11.7181 Y29.1455
G01 X11.8399 Y29.1697
G01 X11.9640 Y29.1760
G01 X13.4560
G01 X13.6216 Y29.1598
G01 X13.7809 Y29.1118
G01 X13.9279 Y29.0338
G01 X14.0570 Y28.9288
G01 X14.1633 Y28.8008
G01 X14.2428 Y28.6546
G01 X14.2924 Y28.4958
G01 X14.3103 Y28.3304
G01 X14.2958 Y28.1646
G01 X14.2494 Y28.0048
G01 X14.1729 Y27.8570
G01 X14.0692 Y27.7269
G01 X13.9423 Y27.6193
G01 X13.7969 Y27.5383
G01 X13.6386 Y27.4871
G01 X13.4734 Y27.4675
G00 Z2.0000


;No. 25: Engraving 7
G00 X13.4560 Y24.9260 Z2.0000
G00 Z0.5000
G01 Z-0.1500 F120
G01 X11.9440 F180
G01 X11.7959 Y24.9407
G01 X11.6524 Y24.9806
G01 X11.5179 Y25.0443
G01 X11.3962 Y25.1301
G01 X11.2910 Y25.2355
G01 X11.2054 Y25.3572
G01 X11.1418 Y25.4918
G01 X11.1021 Y25.6353
G01 X11.1010 Y25.9121
G01 X11.1377 Y26.0613
G01 X11.2006 Y26.2014
G01 X11.2876 Y26.3280
G01 X11.3959 Y26.4369
G01 X11.5220 Y26.5246
G01 X11.6618 Y26.5883
G01 X11.8107 Y26.6258
G01 X11.9640 Y26.6360
G01 X13.4560
G01 X13.6215 Y26.6196
G01 X13.7806 Y26.5715
G01 X13.9274 Y26.4934
G01 X14.0563 Y26.3884
G01 X14.1624 Y26.2605
G01 X14.2418 Y26.1144
G01 X14.2913 Y25.9556
G01 X14.3092 Y25.7903
G01 X14.2947 Y25.6247
G01 X14.2484 Y25.4650
G01 X14.1720 Y25.3173
G01 X14.0685 Y25.1872
G01 X13.9418 Y25.0796
G01 X13.7966 Y24.9986
G01 X13.6385 Y24.9473
G01 X13.4734 Y24.9275
G00 Z2.0000


;No. 26: Engraving 5
G00 X7.4744 Y26.5850 Z2.0000
G00 Z0.5000
G01 Z-0.1500 F120
G01 X6.4144 Y26.5600 F180
G01 X6.3969 Y26.5611
G01 X6.3799 Y26.5653
G01 X6.3639 Y26.5723
G01 X6.3494 Y26.5820
G01 X6.3368 Y26.5941
G01 X6.3265 Y26.6082
G01 X6.3187 Y26.6239
G01 X6.3139 Y26.6407
G01 X6.3120 Y26.6800
G01 Y27.3100
G01 X6.3140 Y27.3299
G01 X6.3200 Y27.3486
G01 X6.3294 Y27.3658
G01 X6.3419 Y27.3810
G01 X6.3570 Y27.3935
G01 X6.3742 Y27.4029
G01 X6.3929 Y27.4090
G01 X6.4124 Y27.4113
G01 X6.4320 Y27.4100
G01 X7.4720
G01 X7.4973 Y27.4051
G01 X7.5225 Y27.3993
G01 X7.5474 Y27.3926
G01 X7.5720 Y27.3850
G01 X7.5520
G01 X8.3640
G01 X8.4469 Y27.3763
G01 X8.5263 Y27.3507
G01 X8.5986 Y27.3092
G01 X8.6609 Y27.2537
G01 X9.1364 Y26.7780
G01 X9.7210
G01 X9.7430 Y26.7754
G01 X9.7639 Y26.7681
G01 X9.7828 Y26.7565
G01 X9.7987 Y26.7411
G01 X9.8110 Y26.7226
G01 X9.8190 Y26.7020
G01 X9.8224 Y26.6801
G01 X9.8210 Y26.6580
G01 Y25.4780
G01 X9.8168 Y25.4522
G01 X9.8067 Y25.4280
G01 X9.7913 Y25.4069
G01 X9.7714 Y25.3900
G01 X9.7480 Y25.3781
G01 X9.7226 Y25.3720
G01 X9.6965 Y25.3719
G01 X9.6710 Y25.3780
G01 Y24.0020
G01 X9.6997 Y24.0137
G01 X9.7303 Y24.0188
G01 X9.7613 Y24.0169
G01 X9.7911 Y24.0083
G01 X9.8182 Y23.9934
G01 X9.8414 Y23.9728
G01 X9.8595 Y23.9476
G01 X9.8715 Y23.9190
G01 X9.8730 Y23.8820
G01 Y23.5977
G01 X11.9408 Y23.0805
G01 X11.9559 Y23.0786
G01 X13.4559 Y23.0800
G01 X13.6237 Y23.0630
G01 X13.7848 Y23.0134
G01 X13.9332 Y22.9331
G01 X14.0628 Y22.8253
G01 X14.1688 Y22.6942
G01 X14.2470 Y22.5448
G01 X14.2944 Y22.3829
G01 X14.3090 Y22.2150
G01 X14.2905 Y22.0473
G01 X14.2393 Y21.8867
G01 X14.1577 Y21.7391
G01 X14.0487 Y21.6105
G01 X13.9165 Y21.5057
G01 X13.7664 Y21.4289
G01 X13.6041 Y21.3831
G01 X13.4360 Y21.3700
G01 X11.9440
G01 X11.7952 Y21.3831
G01 X11.6510 Y21.4218
G01 X11.5158 Y21.4851
G01 X11.3936 Y21.5710
G01 X11.2882 Y21.6768
G01 X11.2029 Y21.7994
G01 X11.1402 Y21.9349
G01 X11.1021 Y22.0793
G01 X11.1010 Y22.3561
G01 X11.1123 Y22.3654
G01 X11.1216 Y22.3767
G01 X11.1285 Y22.3896
G01 X11.1329 Y22.4036
G01 X11.1344 Y22.4182
G01 X11.1331 Y22.4328
G01 X11.1291 Y22.4469
G01 X11.1224 Y22.4599
G01 X9.8730 Y22.7714
G01 X9.8824 Y22.7415
G01 X9.8838 Y22.7102
G01 X9.8769 Y22.6796
G01 X9.8623 Y22.6518
G01 X9.8409 Y22.6288
G01 X9.8144 Y22.6122
G01 X9.7843 Y22.6030
G01 X9.7530 Y22.6020
G01 X9.0230
G01 X9.0056 Y22.6035
G01 X8.9887 Y22.6081
G01 X8.9729 Y22.6155
G01 X8.9586 Y22.6255
G01 X8.9462 Y22.6379
G01 X8.9363 Y22.6522
G01 X8.9289 Y22.6681
G01 X8.9245 Y22.6850
G01 X8.9230 Y22.7220
G01 Y23.2408
G01 X8.9025 Y23.2763
G01 X8.8889 Y23.3182
G01 X8.8791 Y23.3612
G01 X8.8731 Y23.4049
G01 X8.8710 Y23.4490
G01 Y25.3780
G01 X8.8477 Y25.3727
G01 X8.8237 Y25.3724
G01 X8.8003 Y25.3770
G01 X8.7783 Y25.3864
G01 X8.7587 Y25.4002
G01 X8.7424 Y25.4178
G01 X8.7302 Y25.4384
G01 X8.7225 Y25.4610
G01 X8.7210 Y25.4980
G01 Y26.0623
G01 X8.1986 Y26.5850
G01 X7.4720
G00 Z2.0000


;No. 27: Engraving 4
G00 X6.3120 Y24.7600 Z2.0000
G00 Z0.5000
G01 Z-0.1500 F120
G01 Y25.4100 F180
G01 X6.3140 Y25.4299
G01 X6.3200 Y25.4486
G01 X6.3294 Y25.4658
G01 X6.3419 Y25.4810
G01 X6.3570 Y25.4935
G01 X6.3742 Y25.5029
G01 X6.3929 Y25.5090
G01 X6.4124 Y25.5113
G01 X6.4320 Y25.5100
G01 X7.4720
G01 X7.4940 Y25.5074
G01 X7.5149 Y25.5001
G01 X7.5338 Y25.4885
G01 X7.5497 Y25.4731
G01 X7.5620 Y25.4546
G01 X7.5700 Y25.4340
G01 X7.5734 Y25.4121
G01 X7.5720 Y25.3900
G01 Y24.7600
G01 X7.5694 Y24.7380
G01 X7.5621 Y24.7171
G01 X7.5505 Y24.6982
G01 X7.5351 Y24.6823
G01 X7.5166 Y24.6700
G01 X7.4960 Y24.6620
G01 X7.4741 Y24.6586
G01 X7.4520 Y24.6600
G01 X7.3420
G01 Y22.8270
G01 X7.3700 Y22.8332
G01 X7.3987 Y22.8322
G01 X7.4261 Y22.8239
G01 X7.4506 Y22.8090
G01 X7.4705 Y22.7884
G01 X7.4846 Y22.7634
G01 X7.4919 Y22.7357
G01 X7.4920 Y22.7070
G01 Y21.9770
G01 X7.4894 Y21.9550
G01 X7.4821 Y21.9341
G01 X7.4705 Y21.9152
G01 X7.4551 Y21.8993
G01 X7.4366 Y21.8870
G01 X7.4160 Y21.8790
G01 X7.3941 Y21.8756
G01 X7.3720 Y21.8770
G01 X6.1920
G01 X6.1746 Y21.8785
G01 X6.1577 Y21.8831
G01 X6.1419 Y21.8905
G01 X6.1276 Y21.9005
G01 X6.1152 Y21.9129
G01 X6.1053 Y21.9272
G01 X6.0979 Y21.9431
G01 X6.0935 Y21.9600
G01 X6.0920 Y21.9970
G01 Y22.7270
G01 X6.0940 Y22.7469
G01 X6.1000 Y22.7656
G01 X6.1094 Y22.7828
G01 X6.1219 Y22.7980
G01 X6.1370 Y22.8105
G01 X6.1542 Y22.8199
G01 X6.1729 Y22.8260
G01 X6.1924 Y22.8283
G01 X6.2120 Y22.8270
G01 X6.5420
G01 Y24.6600
G01 X6.4120
G00 Z2.0000


;No. 28: Engraving 6
G00 X5.5920 Y22.7270 Z2.0000
G00 Z0.5000
G01 Z-0.1500 F120
G01 Y21.9770 F180
G01 X5.5894 Y21.9550
G01 X5.5821 Y21.9341
G01 X5.5705 Y21.9152
G01 X5.5551 Y21.8993
G01 X5.5366 Y21.8870
G01 X5.5160 Y21.8790
G01 X5.4941 Y21.8756
G01 X5.4720 Y21.8770
G01 X5.2920
G01 Y21.6897
G01 X5.6264 Y21.3550
G01 X8.7855
G01 X8.9230 Y21.4927
G01 Y22.0020
G01 X8.9250 Y22.0219
G01 X8.9310 Y22.0406
G01 X8.9404 Y22.0578
G01 X8.9529 Y22.0730
G01 X8.9680 Y22.0855
G01 X8.9852 Y22.0949
G01 X9.0039 Y22.1010
G01 X9.0234 Y22.1033
G01 X9.0430 Y22.1020
G01 X9.7730
G01 X9.7950 Y22.0994
G01 X9.8159 Y22.0921
G01 X9.8348 Y22.0805
G01 X9.8507 Y22.0651
G01 X9.8630 Y22.0466
G01 X9.8710 Y22.0260
G01 X9.8744 Y22.0041
G01 X9.8730 Y21.9820
G01 Y21.4927
G01 X11.2249 Y20.1406
G01 X11.2887 Y20.2299
G01 X11.3636 Y20.3103
G01 X11.4483 Y20.3802
G01 X11.5413 Y20.4386
G01 X11.6411 Y20.4844
G01 X11.7460 Y20.5169
G01 X11.8543 Y20.5356
G01 X11.9640 Y20.5400
G01 X13.4560
G01 X13.6240 Y20.5232
G01 X13.7853 Y20.4737
G01 X13.9339 Y20.3936
G01 X14.0637 Y20.2858
G01 X14.1699 Y20.1545
G01 X14.2482 Y20.0050
G01 X14.2957 Y19.8430
G01 X14.3104 Y19.6749
G01 X14.2917 Y19.5071
G01 X14.2405 Y19.3463
G01 X14.1587 Y19.1987
G01 X14.0495 Y19.0700
G01 X13.9171 Y18.9652
G01 X13.7668 Y18.8885
G01 X13.6043 Y18.8429
G01 X13.4360 Y18.8300
G01 X11.9440
G01 X11.8289 Y18.8379
G01 X11.7159 Y18.8614
G01 X11.6071 Y18.8999
G01 X11.5046 Y18.9528
G01 X11.4101 Y19.0191
G01 X11.3255 Y19.0975
G01 X11.2523 Y19.1867
G01 X11.1918 Y19.2850
G01 X11.0891 Y19.2825
G01 X10.9888 Y19.3046
G01 X10.8967 Y19.3501
G01 X10.8181 Y19.4163
G01 X9.5326 Y20.7020
G01 X9.2635
G01 X9.1954 Y20.6372
G01 X9.1144 Y20.5897
G01 X9.0247 Y20.5618
G01 X8.9310 Y20.5550
G01 X5.4610
G01 X5.3781 Y20.5637
G01 X5.2987 Y20.5893
G01 X5.2264 Y20.6308
G01 X5.1641 Y20.6863
G01 X4.6093 Y21.2412
G01 X4.5639 Y21.2951
G01 X4.5288 Y21.3563
G01 X4.5049 Y21.4226
G01 X4.4932 Y21.4921
G01 X4.4920 Y21.5440
G01 Y21.8770
G01 X4.2920
G01 X4.2746 Y21.8785
G01 X4.2577 Y21.8831
G01 X4.2419 Y21.8905
G01 X4.2276 Y21.9005
G01 X4.2152 Y21.9129
G01 X4.2053 Y21.9272
G01 X4.1979 Y21.9431
G01 X4.1935 Y21.9600
G01 X4.1920 Y21.9970
G01 Y22.7270
G01 X4.1940 Y22.7469
G01 X4.2000 Y22.7656
G01 X4.2094 Y22.7828
G01 X4.2219 Y22.7980
G01 X4.2370 Y22.8105
G01 X4.2542 Y22.8199
G01 X4.2729 Y22.8260
G01 X4.2924 Y22.8283
G01 X4.3120 Y22.8270
G01 X5.4920
G00 Z2.0000


;No. 29: Engraving 3
G00 X4.1184 Y23.9070 Z2.0000
G00 Z0.5000
G01 Z-0.1500 F120
G01 X1.5990 Y23.1622 F180
G01 X1.5932 Y22.9868
G01 X1.5513 Y22.8163
G01 X1.4749 Y22.6583
G01 X1.3676 Y22.5194
G01 X1.2337 Y22.4058
G01 X1.0793 Y22.3224
G01 X0.9110 Y22.2727
G01 X0.7360 Y22.2590
G01 X-0.7560
G01 X-0.9046 Y22.2725
G01 X-1.0486 Y22.3116
G01 X-1.1836 Y22.3750
G01 X-1.3057 Y22.4609
G01 X-1.4110 Y22.5665
G01 X-1.4964 Y22.6889
G01 X-1.5594 Y22.8242
G01 X-1.5979 Y22.9683
G01 X-1.5990 Y23.2451
G01 X-1.5623 Y23.3943
G01 X-1.4994 Y23.5344
G01 X-1.4124 Y23.6610
G01 X-1.3041 Y23.7699
G01 X-1.1780 Y23.8576
G01 X-1.0382 Y23.9213
G01 X-0.8893 Y23.9588
G01 X-0.7360 Y23.9690
G01 X0.7560
G01 X0.8583 Y23.9655
G01 X0.9588 Y23.9463
G01 X1.0552 Y23.9119
G01 X1.1452 Y23.8631
G01 X3.7237 Y24.6117
G01 X4.1120 Y25.0108
G01 Y25.4100
G01 X4.1140 Y25.4299
G01 X4.1200 Y25.4486
G01 X4.1294 Y25.4658
G01 X4.1419 Y25.4810
G01 X4.1570 Y25.4935
G01 X4.1742 Y25.5029
G01 X4.1929 Y25.5090
G01 X4.2124 Y25.5113
G01 X4.2320 Y25.5100
G01 X5.2720
G01 X5.2940 Y25.5074
G01 X5.3149 Y25.5001
G01 X5.3338 Y25.4885
G01 X5.3497 Y25.4731
G01 X5.3620 Y25.4546
G01 X5.3700 Y25.4340
G01 X5.3734 Y25.4121
G01 X5.3720 Y25.3900
G01 Y24.7600
G01 X5.3694 Y24.7380
G01 X5.3621 Y24.7171
G01 X5.3505 Y24.6982
G01 X5.3351 Y24.6823
G01 X5.3166 Y24.6700
G01 X5.2960 Y24.6620
G01 X5.2741 Y24.6586
G01 X5.2520 Y24.6600
G01 X4.8863
G01 X4.7150 Y24.4703
G01 X4.5384 Y24.2856
G01 X4.3566 Y24.1061
G01 X4.1697 Y23.9319
G01 X4.1347 Y23.9135
G00 Z2.0000


;No. 30: Engraving 2
G00 X1.0160 Y26.4635 Z2.0000
G00 Z0.5000
G01 Z-0.1500 F120
G01 X2.3190 Y26.4370 F180
G01 Y26.8280
G01 X2.3210 Y26.8479
G01 X2.3270 Y26.8666
G01 X2.3364 Y26.8838
G01 X2.3489 Y26.8990
G01 X2.3640 Y26.9115
G01 X2.3812 Y26.9209
G01 X2.3999 Y26.9270
G01 X2.4194 Y26.9293
G01 X2.4390 Y26.9280
G01 X3.1690
G01 X3.1910 Y26.9254
G01 X3.2119 Y26.9181
G01 X3.2308 Y26.9065
G01 X3.2467 Y26.8911
G01 X3.2590 Y26.8726
G01 X3.2670 Y26.8520
G01 X3.2704 Y26.8301
G01 X3.2690 Y26.8080
G01 Y26.4350
G01 X4.1320
G01 X4.1120
G01 X4.1409 Y26.4459
G01 X4.1707 Y26.4537
G01 X4.2012 Y26.4584
G01 X4.2320 Y26.4600
G01 X5.2720
G01 X5.2940 Y26.4574
G01 X5.3149 Y26.4501
G01 X5.3338 Y26.4385
G01 X5.3497 Y26.4231
G01 X5.3620 Y26.4046
G01 X5.3700 Y26.3840
G01 X5.3734 Y26.3621
G01 X5.3720 Y26.3400
G01 Y25.7100
G01 X5.3694 Y25.6880
G01 X5.3621 Y25.6671
G01 X5.3505 Y25.6482
G01 X5.3351 Y25.6323
G01 X5.3166 Y25.6200
G01 X5.2960 Y25.6120
G01 X5.2741 Y25.6086
G01 X5.2520 Y25.6100
G01 X4.2120
G01 X4.1867 Y25.6149
G01 X4.1615 Y25.6207
G01 X4.1366 Y25.6274
G01 X4.1120 Y25.6350
G01 X4.1320
G01 X3.2690
G01 X3.2676 Y25.6120
G01 X3.2612 Y25.5899
G01 X3.2501 Y25.5698
G01 X3.2347 Y25.5527
G01 X3.2159 Y25.5394
G01 X3.1947 Y25.5306
G01 X3.1720 Y25.5267
G01 X3.1490 Y25.5280
G01 X2.4190
G01 X2.4016 Y25.5295
G01 X2.3847 Y25.5341
G01 X2.3689 Y25.5415
G01 X2.3546 Y25.5515
G01 X2.3422 Y25.5639
G01 X2.3323 Y25.5782
G01 X2.3249 Y25.5941
G01 X2.3205 Y25.6110
G01 X2.3190 Y25.6350
G01 X1.5990
G01 X1.5817 Y25.4688
G01 X1.5318 Y25.3094
G01 X1.4513 Y25.1629
G01 X1.3435 Y25.0353
G01 X1.2125 Y24.9316
G01 X1.0636 Y24.8558
G01 X0.9026 Y24.8110
G01 X0.7360 Y24.7990
G01 X-0.7560
G01 X-0.9041 Y24.8137
G01 X-1.0476 Y24.8536
G01 X-1.1821 Y24.9173
G01 X-1.3038 Y25.0031
G01 X-1.4090 Y25.1085
G01 X-1.4946 Y25.2302
G01 X-1.5582 Y25.3648
G01 X-1.5979 Y25.5083
G01 X-1.5990 Y25.7851
G01 X-1.5623 Y25.9343
G01 X-1.4994 Y26.0744
G01 X-1.4124 Y26.2010
G01 X-1.3041 Y26.3099
G01 X-1.1780 Y26.3976
G01 X-1.0382 Y26.4613
G01 X-0.8893 Y26.4988
G01 X-0.7360 Y26.5090
G01 X0.7560
G01 X0.7931 Y26.5040
G01 X1.0314 Y26.4620
G00 Z2.0000


;No. 31: Engraving 1
G00 X2.4190 Y27.7940 Z2.0000
G00 Z0.5000
G01 Z-0.1500 F120
G01 X1.5082 F180
G01 X1.4453 Y27.6946
G01 X1.3695 Y27.6046
G01 X1.2823 Y27.5257
G01 X1.1853 Y27.4593
G01 X1.0801 Y27.4066
G01 X0.9688 Y27.3685
G01 X0.8534 Y27.3459
G01 X0.7360 Y27.3390
G01 X-0.7560
G01 X-0.9090 Y27.3521
G01 X-1.0571 Y27.3928
G01 X-1.1954 Y27.4596
G01 X-1.3193 Y27.5503
G01 X-1.4247 Y27.6619
G01 X-1.5082 Y27.7908
G01 X-1.5669 Y27.9327
G01 X-1.5990 Y28.0829
G01 Y28.3251
G01 X-1.5623 Y28.4743
G01 X-1.4994 Y28.6144
G01 X-1.4124 Y28.7410
G01 X-1.3041 Y28.8499
G01 X-1.1780 Y28.9376
G01 X-1.0382 Y29.0013
G01 X-0.8893 Y29.0388
G01 X-0.7360 Y29.0490
G01 X0.7560
G01 X0.8713 Y29.0417
G01 X0.9845 Y29.0187
G01 X1.0935 Y28.9804
G01 X1.1962 Y28.9275
G01 X1.2907 Y28.8611
G01 X1.3753 Y28.7823
G01 X1.4482 Y28.6927
G01 X1.5082 Y28.5940
G01 X2.3190
G01 Y28.7280
G01 X2.3210 Y28.7479
G01 X2.3270 Y28.7666
G01 X2.3364 Y28.7838
G01 X2.3489 Y28.7990
G01 X2.3640 Y28.8115
G01 X2.3812 Y28.8209
G01 X2.3999 Y28.8270
G01 X2.4194 Y28.8293
G01 X2.4390 Y28.8280
G01 X3.1690
G01 X3.1910 Y28.8254
G01 X3.2119 Y28.8181
G01 X3.2308 Y28.8065
G01 X3.2467 Y28.7911
G01 X3.2590 Y28.7726
G01 X3.2670 Y28.7520
G01 X3.2704 Y28.7301
G01 X3.2690 Y28.7080
G01 Y28.5940
G01 X3.5330
G01 X3.6159 Y28.5853
G01 X3.6953 Y28.5597
G01 X3.7676 Y28.5182
G01 X3.8299 Y28.4627
G01 X4.8824 Y27.4100
G01 X5.2720
G01 X5.2940 Y27.4074
G01 X5.3149 Y27.4001
G01 X5.3338 Y27.3885
G01 X5.3497 Y27.3731
G01 X5.3620 Y27.3546
G01 X5.3700 Y27.3340
G01 X5.3734 Y27.3121
G01 X5.3720 Y27.2900
G01 Y26.6600
G01 X5.3694 Y26.6380
G01 X5.3621 Y26.6171
G01 X5.3505 Y26.5982
G01 X5.3351 Y26.5823
G01 X5.3166 Y26.5700
G01 X5.2960 Y26.5620
G01 X5.2741 Y26.5586
G01 X5.2520 Y26.5600
G01 X4.2120
G01 X4.1946 Y26.5615
G01 X4.1777 Y26.5661
G01 X4.1619 Y26.5735
G01 X4.1476 Y26.5835
G01 X4.1352 Y26.5959
G01 X4.1253 Y26.6102
G01 X4.1179 Y26.6261
G01 X4.1135 Y26.6430
G01 X4.1120 Y26.6800
G01 Y27.0493
G01 X3.3676 Y27.7940
G01 X3.2690
G01 Y27.5280
G01 X3.2664 Y27.5060
G01 X3.2591 Y27.4851
G01 X3.2475 Y27.4662
G01 X3.2321 Y27.4503
G01 X3.2136 Y27.4380
G01 X3.1930 Y27.4300
G01 X3.1711 Y27.4266
G01 X3.1490 Y27.4280
G01 X2.4190
G01 X2.4016 Y27.4295
G01 X2.3847 Y27.4341
G01 X2.3689 Y27.4415
G01 X2.3546 Y27.4515
G01 X2.3422 Y27.4639
G01 X2.3323 Y27.4782
G01 X2.3249 Y27.4941
G01 X2.3205 Y27.5110
G01 X2.3190 Y27.5480
G01 Y27.8940
G00 Z2.0000


;No. 32: Engraving 16
G00 X31.1940 Y27.5249 Z2.0000
G00 Z0.5000
G01 Z-0.1500 F120
G01 X31.0670 Y27.5865 F180
G01 X30.9513 Y27.6672
G01 X30.8498 Y27.7652
G01 X30.7649 Y27.8780
G01 X29.3790
G01 Y27.6780
G01 X29.3764 Y27.6560
G01 X29.3691 Y27.6351
G01 X29.3575 Y27.6162
G01 X29.3421 Y27.6003
G01 X29.3236 Y27.5880
G01 X29.3030 Y27.5800
G01 X29.2811 Y27.5766
G01 X29.2590 Y27.5780
G01 X28.3790
G01 X28.3616 Y27.5795
G01 X28.3447 Y27.5841
G01 X28.3289 Y27.5915
G01 X28.3146 Y27.6015
G01 X28.3022 Y27.6139
G01 X28.2923 Y27.6282
G01 X28.2849 Y27.6441
G01 X28.2805 Y27.6610
G01 X28.2790 Y27.6980
G01 Y28.8780
G01 X28.2810 Y28.8979
G01 X28.2870 Y28.9166
G01 X28.2964 Y28.9338
G01 X28.3089 Y28.9490
G01 X28.3240 Y28.9615
G01 X28.3412 Y28.9709
G01 X28.3599 Y28.9770
G01 X28.3794 Y28.9793
G01 X28.3990 Y28.9780
G01 X29.2790
G01 X29.3010 Y28.9754
G01 X29.3219 Y28.9681
G01 X29.3408 Y28.9565
G01 X29.3567 Y28.9411
G01 X29.3690 Y28.9226
G01 X29.3770 Y28.9020
G01 X29.3804 Y28.8801
G01 X29.3790 Y28.8580
G01 Y28.6780
G01 X30.7250
G01 X30.7851 Y28.7867
G01 X30.8602 Y28.8857
G01 X30.9488 Y28.9727
G01 X31.0492 Y29.0460
G01 X31.1590 Y29.1040
G01 X31.2761 Y29.1455
G01 X31.3979 Y29.1697
G01 X31.5220 Y29.1760
G01 X33.0140
G01 X33.1818 Y29.1590
G01 X33.3429 Y29.1094
G01 X33.4912 Y29.0291
G01 X33.6209 Y28.9213
G01 X33.7269 Y28.7901
G01 X33.8050 Y28.6407
G01 X33.8524 Y28.4789
G01 X33.8670 Y28.3109
G01 X33.8484 Y28.1433
G01 X33.7973 Y27.9826
G01 X33.7157 Y27.8351
G01 X33.6067 Y27.7064
G01 X33.4745 Y27.6017
G01 X33.3244 Y27.5249
G01 X33.1621 Y27.4791
G01 X32.9940 Y27.4660
G01 X31.5020
G01 X31.4649 Y27.4710
G01 X31.2266 Y27.5130
G00 Z2.0000


;No. 33: Engraving 15
G00 X31.1940 Y24.9849 Z2.0000
G00 Z0.5000
G01 Z-0.1500 F120
G01 X31.0939 Y25.0306 F180
G01 X31.0007 Y25.0889
G01 X30.9157 Y25.1588
G01 X30.8406 Y25.2391
G01 X30.7764 Y25.3285
G01 X30.7244 Y25.4254
G01 X30.6854 Y25.5283
G01 X30.6601 Y25.6353
G01 X30.6590 Y25.9121
G01 X30.6957 Y26.0613
G01 X30.7586 Y26.2014
G01 X30.8456 Y26.3280
G01 X30.9539 Y26.4369
G01 X31.0800 Y26.5246
G01 X31.2198 Y26.5883
G01 X31.3687 Y26.6258
G01 X31.5220 Y26.6360
G01 X33.0140
G01 X33.1818 Y26.6190
G01 X33.3429 Y26.5694
G01 X33.4912 Y26.4891
G01 X33.6209 Y26.3813
G01 X33.7269 Y26.2501
G01 X33.8050 Y26.1007
G01 X33.8524 Y25.9389
G01 X33.8670 Y25.7709
G01 X33.8484 Y25.6033
G01 X33.7973 Y25.4426
G01 X33.7157 Y25.2951
G01 X33.6067 Y25.1664
G01 X33.4745 Y25.0617
G01 X33.3244 Y24.9849
G01 X33.1621 Y24.9391
G01 X32.9940 Y24.9260
G01 X31.5020
G01 X31.4649 Y24.9310
G01 X31.2266 Y24.9730
G00 Z2.0000


;No. 34: Drill 12
M05
M84 ; disable steppers
M00 
;Change tool: Drill
M03
M17 ; enable steppers
G92 X Y Z ; reset to 0
G00 X32.2580 Y25.7810 Z2.0000
G00 Z0.5000
G01 Z-2.0000 F120
G00 Z2.0000


;No. 35: Drill 11
G00 X32.2580 Y28.3210 Z2.0000
G00 Z0.5000
G01 Z-2.0000 F120
G00 Z2.0000


;No. 36: Drill 13
G00 X32.2580 Y22.2250 Z2.0000
G00 Z0.5000
G01 Z-2.0000 F120
G00 Z2.0000


;No. 37: Drill 14
G00 X32.2580 Y19.6850 Z2.0000
G00 Z0.5000
G01 Z-2.0000 F120
G00 Z2.0000


;No. 38: Drill 15
G00 X32.3850 Y11.4300 Z2.0000
G00 Z0.5000
G01 Z-2.0000 F120
G00 Z2.0000


;No. 39: Drill 16
G00 X32.3850 Y8.8900 Z2.0000
G00 Z0.5000
G01 Z-2.0000 F120
G00 Z2.0000


;No. 40: Drill 17
G00 X32.3850 Y6.3500 Z2.0000
G00 Z0.5000
G01 Z-2.0000 F120
G00 Z2.0000


;No. 41: Drill 41
G00 X32.3850 Y-1.9050 Z2.0000
G00 Z0.5000
G01 Z-2.0000 F120
G00 Z2.0000


;No. 42: Drill 40
G00 X32.3850 Y-4.4450 Z2.0000
G00 Z0.5000
G01 Z-2.0000 F120
G00 Z2.0000


;No. 43: Drill 39
G00 X32.3850 Y-6.9850 Z2.0000
G00 Z0.5000
G01 Z-2.0000 F120
G00 Z2.0000


;No. 44: Drill 38
G00 X21.4630 Y-8.1280 Z2.0000
G00 Z0.5000
G01 Z-2.0000 F120
G00 Z2.0000


;No. 45: Drill 37
G00 X21.4630 Y-5.5880 Z2.0000
G00 Z0.5000
G01 Z-2.0000 F120
G00 Z2.0000


;No. 46: Drill 36
G00 X21.3360 Y-2.7940 Z2.0000
G00 Z0.5000
G01 Z-2.0000 F120
G00 Z2.0000


;No. 47: Drill 35
G00 X21.3360 Y-0.2540 Z2.0000
G00 Z0.5000
G01 Z-2.0000 F120
G00 Z2.0000


;No. 48: Drill 18
G00 X21.3360 Y5.2070 Z2.0000
G00 Z0.5000
G01 Z-2.0000 F120
G00 Z2.0000


;No. 49: Drill 19
G00 X21.3360 Y7.7470 Z2.0000
G00 Z0.5000
G01 Z-2.0000 F120
G00 Z2.0000


;No. 50: Drill 20
G00 X21.3360 Y10.5410 Z2.0000
G00 Z0.5000
G01 Z-2.0000 F120
G00 Z2.0000


;No. 51: Drill 21
G00 X21.3360 Y13.0810 Z2.0000
G00 Z0.5000
G01 Z-2.0000 F120
G00 Z2.0000


;No. 52: Drill 22
G00 X13.7160 Y13.0810 Z2.0000
G00 Z0.5000
G01 Z-2.0000 F120
G00 Z2.0000


;No. 53: Drill 23
G00 X13.7160 Y10.5410 Z2.0000
G00 Z0.5000
G01 Z-2.0000 F120
G00 Z2.0000


;No. 54: Drill 24
G00 X13.7160 Y8.0010 Z2.0000
G00 Z0.5000
G01 Z-2.0000 F120
G00 Z2.0000


;No. 55: Drill 25
G00 X13.7160 Y5.4610 Z2.0000
G00 Z0.5000
G01 Z-2.0000 F120
G00 Z2.0000


;No. 56: Drill 26
G00 X13.7160 Y2.9210 Z2.0000
G00 Z0.5000
G01 Z-2.0000 F120
G00 Z2.0000


;No. 57: Drill 27
G00 X13.7160 Y0.3810 Z2.0000
G00 Z0.5000
G01 Z-2.0000 F120
G00 Z2.0000


;No. 58: Drill 28
G00 X9.1440 Y6.9850 Z2.0000
G00 Z0.5000
G01 Z-2.0000 F120
G00 Z2.0000


;No. 59: Drill 31
G00 X0.0000 Y7.8740 Z2.0000
G00 Z0.5000
G01 Z-2.0000 F120
G00 Z2.0000


;No. 60: Drill 30
G00 X0.0000 Y10.4140 Z2.0000
G00 Z0.5000
G01 Z-2.0000 F120
G00 Z2.0000


;No. 61: Drill 29
G00 X0.0000 Y12.9540 Z2.0000
G00 Z0.5000
G01 Z-2.0000 F120
G00 Z2.0000


;No. 62: Drill 32
G00 X0.0000 Y5.3340 Z2.0000
G00 Z0.5000
G01 Z-2.0000 F120
G00 Z2.0000


;No. 63: Drill 33
G00 X0.0000 Y2.5400 Z2.0000
G00 Z0.5000
G01 Z-2.0000 F120
G00 Z2.0000


;No. 64: Drill 34
G00 X0.0000 Y0.0000 Z2.0000
G00 Z0.5000
G01 Z-2.0000 F120
G00 Z2.0000


;No. 65: Drill 3
G00 X0.0000 Y23.1140 Z2.0000
G00 Z0.5000
G01 Z-2.0000 F120
G00 Z2.0000


;No. 66: Drill 2
G00 X0.0000 Y25.6540 Z2.0000
G00 Z0.5000
G01 Z-2.0000 F120
G00 Z2.0000


;No. 67: Drill 1
G00 X0.0000 Y28.1940 Z2.0000
G00 Z0.5000
G01 Z-2.0000 F120
G00 Z2.0000


;No. 68: Drill 7
G00 X12.7000 Y28.3210 Z2.0000
G00 Z0.5000
G01 Z-2.0000 F120
G00 Z2.0000


;No. 69: Drill 6
G00 X12.7000 Y25.7810 Z2.0000
G00 Z0.5000
G01 Z-2.0000 F120
G00 Z2.0000


;No. 70: Drill 5
G00 X12.7000 Y22.2250 Z2.0000
G00 Z0.5000
G01 Z-2.0000 F120
G00 Z2.0000


;No. 71: Drill 4
G00 X12.7000 Y19.6850 Z2.0000
G00 Z0.5000
G01 Z-2.0000 F120
G00 Z2.0000


;No. 72: Drill 10
G00 X19.5580 Y23.1140 Z2.0000
G00 Z0.5000
G01 Z-2.0000 F120
G00 Z2.0000


;No. 73: Drill 9
G00 X19.5580 Y25.6540 Z2.0000
G00 Z0.5000
G01 Z-2.0000 F120
G00 Z2.0000


;No. 74: Drill 8
G00 X19.5580 Y28.1940 Z2.0000
G00 Z0.5000
G01 Z-2.0000 F120
G00 Z2.0000


;No. 75: Part 2
M05
M84 ; disable steppers
M00 
;Change tool: Mill
M03
M17 ; enable steppers
G92 X Y Z ; reset to 0
G00 X24.8365 Y31.0280 Z2.0000
G00 Z0.5000
G01 Z-1.0000 F120
G01 X17.4740 F240
G01 X17.3342 Y31.0149
G01 X17.1993 Y30.9759
G01 X17.0740 Y30.9124
G01 X16.9628 Y30.8268
G01 X16.8694 Y30.7219
G01 X16.7973 Y30.6014
G01 X16.7489 Y30.4696
G01 X16.7259 Y30.3311
G01 X16.7240 Y30.2580
G01 Y17.9820
G01 X16.7277 Y17.9071
G01 X16.7547 Y17.7696
G01 X16.8069 Y17.6394
G01 X16.8823 Y17.5212
G01 X16.9783 Y17.4191
G01 X17.0917 Y17.3367
G01 X17.2185 Y17.2768
G01 X17.3541 Y17.2415
G01 X17.4940 Y17.2320
G01 X24.8565
G01 X27.1065
G01 X34.4690
G01 X34.6178 Y17.2469
G01 X34.7606 Y17.2911
G01 X34.8919 Y17.3626
G01 X35.0064 Y17.4588
G01 X35.0995 Y17.5758
G01 X35.1676 Y17.7089
G01 X35.2080 Y17.8529
G01 X35.2190 Y18.0020
G01 Y23.0150
G01 Y25.2650
G01 Y30.2780
G01 X35.2041 Y30.4268
G01 X35.1599 Y30.5696
G01 X35.0884 Y30.7009
G01 X34.9922 Y30.8154
G01 X34.8752 Y30.9085
G01 X34.7421 Y30.9766
G01 X34.5981 Y31.0170
G01 X34.4490 Y31.0280
G01 X27.0865
G01 X24.8365
G01 Z-2.0000 F120
G01 X17.4740 F240
G01 X17.3342 Y31.0149
G01 X17.1993 Y30.9759
G01 X17.0740 Y30.9124
G01 X16.9628 Y30.8268
G01 X16.8694 Y30.7219
G01 X16.7973 Y30.6014
G01 X16.7489 Y30.4696
G01 X16.7259 Y30.3311
G01 X16.7240 Y30.2580
G01 Y17.9820
G01 X16.7277 Y17.9071
G01 X16.7547 Y17.7696
G01 X16.8069 Y17.6394
G01 X16.8823 Y17.5212
G01 X16.9783 Y17.4191
G01 X17.0917 Y17.3367
G01 X17.2185 Y17.2768
G01 X17.3541 Y17.2415
G01 X17.4940 Y17.2320
G01 X24.8565
G00 Z-1.3000
G01 X27.1065
G01 Z-2.0000 F120
G01 X34.4690 F240
G01 X34.6178 Y17.2469
G01 X34.7606 Y17.2911
G01 X34.8919 Y17.3626
G01 X35.0064 Y17.4588
G01 X35.0995 Y17.5758
G01 X35.1676 Y17.7089
G01 X35.2080 Y17.8529
G01 X35.2190 Y18.0020
G01 Y23.0150
G00 Z-1.3000
G01 Y25.2650
G01 Z-2.0000 F120
G01 Y30.2780 F240
G01 X35.2041 Y30.4268
G01 X35.1599 Y30.5696
G01 X35.0884 Y30.7009
G01 X34.9922 Y30.8154
G01 X34.8752 Y30.9085
G01 X34.7421 Y30.9766
G01 X34.5981 Y31.0170
G01 X34.4490 Y31.0280
G01 X27.0865
G00 Z-1.3000
G01 X24.8365
G00 Z2.0000


;No. 76: Part 4
G00 X18.3750 Y8.0725 Z2.0000
G00 Z0.5000
G01 Z-1.0000 F120
G01 Y3.8850 F240
G01 X18.3787 Y3.8101
G01 X18.4057 Y3.6726
G01 X18.4579 Y3.5424
G01 X18.5333 Y3.4242
G01 X18.6293 Y3.3221
G01 X18.7427 Y3.2397
G01 X18.8695 Y3.1798
G01 X19.0051 Y3.1445
G01 X19.1450 Y3.1350
G01 X34.5960
G01 X34.7448 Y3.1499
G01 X34.8876 Y3.1941
G01 X35.0189 Y3.2656
G01 X35.1334 Y3.3618
G01 X35.2265 Y3.4788
G01 X35.2946 Y3.6119
G01 X35.3350 Y3.7559
G01 X35.3460 Y3.9050
G01 Y8.0925
G01 Y10.3425
G01 Y14.5300
G01 X35.3311 Y14.6788
G01 X35.2869 Y14.8216
G01 X35.2154 Y14.9529
G01 X35.1192 Y15.0674
G01 X35.0022 Y15.1605
G01 X34.8691 Y15.2286
G01 X34.7251 Y15.2690
G01 X34.5760 Y15.2800
G01 X27.9755
G01 X25.7255
G01 X19.1250
G01 X18.9852 Y15.2669
G01 X18.8503 Y15.2279
G01 X18.7250 Y15.1644
G01 X18.6138 Y15.0788
G01 X18.5204 Y14.9739
G01 X18.4483 Y14.8534
G01 X18.3999 Y14.7216
G01 X18.3769 Y14.5831
G01 X18.3750 Y14.5100
G01 Y10.3225
G01 Y8.0725
G01 Z-2.0000 F120
G01 Y3.8850 F240
G01 X18.3787 Y3.8101
G01 X18.4057 Y3.6726
G01 X18.4579 Y3.5424
G01 X18.5333 Y3.4242
G01 X18.6293 Y3.3221
G01 X18.7427 Y3.2397
G01 X18.8695 Y3.1798
G01 X19.0051 Y3.1445
G01 X19.1450 Y3.1350
G01 X34.5960
G01 X34.7448 Y3.1499
G01 X34.8876 Y3.1941
G01 X35.0189 Y3.2656
G01 X35.1334 Y3.3618
G01 X35.2265 Y3.4788
G01 X35.2946 Y3.6119
G01 X35.3350 Y3.7559
G01 X35.3460 Y3.9050
G01 Y8.0925
G00 Z-1.3000
G01 Y10.3425
G01 Z-2.0000 F120
G01 Y14.5300 F240
G01 X35.3311 Y14.6788
G01 X35.2869 Y14.8216
G01 X35.2154 Y14.9529
G01 X35.1192 Y15.0674
G01 X35.0022 Y15.1605
G01 X34.8691 Y15.2286
G01 X34.7251 Y15.2690
G01 X34.5760 Y15.2800
G01 X27.9755
G00 Z-1.3000
G01 X25.7255
G01 Z-2.0000 F120
G01 X19.1250 F240
G01 X18.9852 Y15.2669
G01 X18.8503 Y15.2279
G01 X18.7250 Y15.1644
G01 X18.6138 Y15.0788
G01 X18.5204 Y14.9739
G01 X18.4483 Y14.8534
G01 X18.3999 Y14.7216
G01 X18.3769 Y14.5831
G01 X18.3750 Y14.5100
G01 Y10.3225
G00 Z-1.3000
G01 Y8.0725
G00 Z2.0000


;No. 77: Part 5
G00 X18.3750 Y-7.0333 Z2.0000
G00 Z0.5000
G01 Z-1.0000 F120
G01 Y-9.4500 F240
G01 X18.3787 Y-9.5249
G01 X18.4057 Y-9.6624
G01 X18.4579 Y-9.7926
G01 X18.5333 Y-9.9108
G01 X18.6293 Y-10.0129
G01 X18.7427 Y-10.0953
G01 X18.8695 Y-10.1552
G01 X19.0051 Y-10.1905
G01 X19.1450 Y-10.2000
G01 X25.7455
G01 X27.9955
G01 X34.5960
G01 X34.7448 Y-10.1851
G01 X34.8876 Y-10.1409
G01 X35.0189 Y-10.0694
G01 X35.1334 Y-9.9732
G01 X35.2265 Y-9.8562
G01 X35.2946 Y-9.7231
G01 X35.3350 Y-9.5791
G01 X35.3460 Y-9.4300
G01 Y-5.2425
G01 Y-2.9925
G01 Y1.1950
G01 X35.3311 Y1.3438
G01 X35.2869 Y1.4866
G01 X35.2154 Y1.6179
G01 X35.1192 Y1.7324
G01 X35.0022 Y1.8255
G01 X34.8691 Y1.8936
G01 X34.7251 Y1.9340
G01 X34.5760 Y1.9450
G01 X19.1250
G01 X18.9852 Y1.9319
G01 X18.8503 Y1.8929
G01 X18.7250 Y1.8294
G01 X18.6138 Y1.7438
G01 X18.5204 Y1.6389
G01 X18.4483 Y1.5184
G01 X18.3999 Y1.3866
G01 X18.3769 Y1.2481
G01 X18.3750 Y1.1750
G01 Y-4.7833
G01 Y-7.0333
G01 Z-2.0000 F120
G01 Y-9.4500 F240
G01 X18.3787 Y-9.5249
G01 X18.4057 Y-9.6624
G01 X18.4579 Y-9.7926
G01 X18.5333 Y-9.9108
G01 X18.6293 Y-10.0129
G01 X18.7427 Y-10.0953
G01 X18.8695 Y-10.1552
G01 X19.0051 Y-10.1905
G01 X19.1450 Y-10.2000
G01 X25.7455
G00 Z-1.3000
G01 X27.9955
G01 Z-2.0000 F120
G01 X34.5960 F240
G01 X34.7448 Y-10.1851
G01 X34.8876 Y-10.1409
G01 X35.0189 Y-10.0694
G01 X35.1334 Y-9.9732
G01 X35.2265 Y-9.8562
G01 X35.2946 Y-9.7231
G01 X35.3350 Y-9.5791
G01 X35.3460 Y-9.4300
G01 Y-5.2425
G00 Z-1.3000
G01 Y-2.9925
G01 Z-2.0000 F120
G01 Y1.1950 F240
G01 X35.3311 Y1.3438
G01 X35.2869 Y1.4866
G01 X35.2154 Y1.6179
G01 X35.1192 Y1.7324
G01 X35.0022 Y1.8255
G01 X34.8691 Y1.8936
G01 X34.7251 Y1.9340
G01 X34.5760 Y1.9450
G01 X19.1250
G01 X18.9852 Y1.9319
G01 X18.8503 Y1.8929
G01 X18.7250 Y1.8294
G01 X18.6138 Y1.7438
G01 X18.5204 Y1.6389
G01 X18.4483 Y1.5184
G01 X18.3999 Y1.3866
G01 X18.3769 Y1.2481
G01 X18.3750 Y1.1750
G01 Y-4.7833
G00 Z-1.3000
G01 Y-7.0333
G00 Z2.0000


;No. 78: Part 3
G00 X-4.1040 Y5.4055 Z2.0000
G00 Z0.5000
G01 Z-1.0000 F120
G01 Y-1.3220 F240
G01 X-4.1003 Y-1.3969
G01 X-4.0733 Y-1.5344
G01 X-4.0211 Y-1.6646
G01 X-3.9457 Y-1.7828
G01 X-3.8497 Y-1.8849
G01 X-3.7363 Y-1.9673
G01 X-3.6095 Y-2.0272
G01 X-3.4739 Y-2.0625
G01 X-3.3340 Y-2.0720
G01 X5.0445
G01 X7.2945
G01 X15.6730
G01 X15.8218 Y-2.0571
G01 X15.9646 Y-2.0129
G01 X16.0959 Y-1.9414
G01 X16.2104 Y-1.8452
G01 X16.3035 Y-1.7282
G01 X16.3716 Y-1.5951
G01 X16.4120 Y-1.4511
G01 X16.4230 Y-1.3020
G01 Y7.2140
G01 Y9.4640
G01 Y14.4030
G01 X16.4081 Y14.5518
G01 X16.3639 Y14.6946
G01 X16.2924 Y14.8259
G01 X16.1962 Y14.9404
G01 X16.0792 Y15.0335
G01 X15.9461 Y15.1016
G01 X15.8021 Y15.1420
G01 X15.6530 Y15.1530
G01 X7.2745
G01 X5.0245
G01 X-3.3540
G01 X-3.4938 Y15.1399
G01 X-3.6287 Y15.1009
G01 X-3.7540 Y15.0374
G01 X-3.8652 Y14.9518
G01 X-3.9586 Y14.8469
G01 X-4.0307 Y14.7264
G01 X-4.0791 Y14.5946
G01 X-4.1021 Y14.4561
G01 X-4.1040 Y14.3830
G01 Y7.6555
G01 Y5.4055
G01 Z-2.0000 F120
G01 Y-1.3220 F240
G01 X-4.1003 Y-1.3969
G01 X-4.0733 Y-1.5344
G01 X-4.0211 Y-1.6646
G01 X-3.9457 Y-1.7828
G01 X-3.8497 Y-1.8849
G01 X-3.7363 Y-1.9673
G01 X-3.6095 Y-2.0272
G01 X-3.4739 Y-2.0625
G01 X-3.3340 Y-2.0720
G01 X5.0445
G00 Z-1.3000
G01 X7.2945
G01 Z-2.0000 F120
G01 X15.6730 F240
G01 X15.8218 Y-2.0571
G01 X15.9646 Y-2.0129
G01 X16.0959 Y-1.9414
G01 X16.2104 Y-1.8452
G01 X16.3035 Y-1.7282
G01 X16.3716 Y-1.5951
G01 X16.4120 Y-1.4511
G01 X16.4230 Y-1.3020
G01 Y7.2140
G00 Z-1.3000
G01 Y9.4640
G01 Z-2.0000 F120
G01 Y14.4030 F240
G01 X16.4081 Y14.5518
G01 X16.3639 Y14.6946
G01 X16.2924 Y14.8259
G01 X16.1962 Y14.9404
G01 X16.0792 Y15.0335
G01 X15.9461 Y15.1016
G01 X15.8021 Y15.1420
G01 X15.6530 Y15.1530
G01 X7.2745
G00 Z-1.3000
G01 X5.0245
G01 Z-2.0000 F120
G01 X-3.3540 F240
G01 X-3.4938 Y15.1399
G01 X-3.6287 Y15.1009
G01 X-3.7540 Y15.0374
G01 X-3.8652 Y14.9518
G01 X-3.9586 Y14.8469
G01 X-4.0307 Y14.7264
G01 X-4.0791 Y14.5946
G01 X-4.1021 Y14.4561
G01 X-4.1040 Y14.3830
G01 Y7.6555
G00 Z-1.3000
G01 Y5.4055
G00 Z2.0000


;No. 79: Part 1
G00 X-2.8340 Y22.9950 Z2.0000
G00 Z0.5000
G01 Z-1.0000 F120
G01 Y17.9820 F240
G01 X-2.8303 Y17.9071
G01 X-2.8033 Y17.7696
G01 X-2.7511 Y17.6394
G01 X-2.6757 Y17.5212
G01 X-2.5797 Y17.4191
G01 X-2.4663 Y17.3367
G01 X-2.3395 Y17.2768
G01 X-2.2039 Y17.2415
G01 X-2.0640 Y17.2320
G01 X5.3844
G01 X7.6344
G01 X14.9110
G01 X15.0598 Y17.2469
G01 X15.2026 Y17.2911
G01 X15.3339 Y17.3626
G01 X15.4484 Y17.4588
G01 X15.5415 Y17.5758
G01 X15.6096 Y17.7089
G01 X15.6500 Y17.8529
G01 X15.6610 Y18.0020
G01 Y30.2780
G01 X15.6461 Y30.4268
G01 X15.6019 Y30.5696
G01 X15.5304 Y30.7009
G01 X15.4342 Y30.8154
G01 X15.3172 Y30.9085
G01 X15.1841 Y30.9766
G01 X15.0401 Y31.0170
G01 X14.8910 Y31.0280
G01 X7.5285
G01 X5.2785
G01 X-2.0840
G01 X-2.2238 Y31.0149
G01 X-2.3587 Y30.9759
G01 X-2.4840 Y30.9124
G01 X-2.5952 Y30.8268
G01 X-2.6886 Y30.7219
G01 X-2.7607 Y30.6014
G01 X-2.8091 Y30.4696
G01 X-2.8321 Y30.3311
G01 X-2.8340 Y30.2580
G01 Y25.2450
G01 Y22.9950
G01 Z-2.0000 F120
G01 Y17.9820 F240
G01 X-2.8303 Y17.9071
G01 X-2.8033 Y17.7696
G01 X-2.7511 Y17.6394
G01 X-2.6757 Y17.5212
G01 X-2.5797 Y17.4191
G01 X-2.4663 Y17.3367
G01 X-2.3395 Y17.2768
G01 X-2.2039 Y17.2415
G01 X-2.0640 Y17.2320
G01 X5.3844
G00 Z-1.3000
G01 X7.6344
G01 Z-2.0000 F120
G01 X14.9110 F240
G01 X15.0598 Y17.2469
G01 X15.2026 Y17.2911
G01 X15.3339 Y17.3626
G01 X15.4484 Y17.4588
G01 X15.5415 Y17.5758
G01 X15.6096 Y17.7089
G01 X15.6500 Y17.8529
G01 X15.6610 Y18.0020
G01 Y30.2780
G01 X15.6461 Y30.4268
G01 X15.6019 Y30.5696
G01 X15.5304 Y30.7009
G01 X15.4342 Y30.8154
G01 X15.3172 Y30.9085
G01 X15.1841 Y30.9766
G01 X15.0401 Y31.0170
G01 X14.8910 Y31.0280
G01 X7.5285
G00 Z-1.3000
G01 X5.2785
G01 Z-2.0000 F120
G01 X-2.0840 F240
G01 X-2.2238 Y31.0149
G01 X-2.3587 Y30.9759
G01 X-2.4840 Y30.9124
G01 X-2.5952 Y30.8268
G01 X-2.6886 Y30.7219
G01 X-2.7607 Y30.6014
G01 X-2.8091 Y30.4696
G01 X-2.8321 Y30.3311
G01 X-2.8340 Y30.2580
G01 Y25.2450
G00 Z-1.3000
G01 Y22.9950
G00 Z2.0000
G00 X0.0000 Y0.0000

M05
